RapidRAW-Android/app/src/main/assets/built_in_luts/agfa_vista_400.cube
TITLE "Agfa Vista 400"
LUT_3D_SIZE 9
0.058400 0.053800 0.049200
0.168800 0.053800 0.049200
0.279200 0.053800 0.049200
0.389600 0.053800 0.049200
0.500000 0.053800 0.049200
0.610400 0.053800 0.049200
0.720800 0.053800 0.049200
0.831200 0.053800 0.049200
0.941600 0.053800 0.049200
0.058400 0.166500 0.049200
0.168800 0.166500 0.049200
0.279200 0.166500 0.049200
0.389600 0.166500 0.049200
0.500000 0.166500 0.049200
0.610400 0.166500 0.049200
0.720800 0.166500 0.049200
0.831200 0.166500 0.049200
0.941600 0.166500 0.049200
0.058400 0.279200 0.049200
0.168800 0.279200 0.049200
0.279200 0.279200 0.049200
0.389600 0.279200 0.049200
0.500000 0.279200 0.049200
0.610400 0.279200 0.049200
0.720800 0.279200 0.049200
0.831200 0.279200 0.049200
0.941600 0.279200 0.049200
0.058400 0.391900 0.049200
0.168800 0.391900 0.049200
0.279200 0.391900 0.049200
0.389600 0.391900 0.049200
0.500000 0.391900 0.049200
0.610400 0.391900 0.049200
0.720800 0.391900 0.049200
0.831200 0.391900 0.049200
0.941600 0.391900 0.049200
0.058400 0.504600 0.049200
0.168800 0.504600 0.049200
0.279200 0.504600 0.049200
0.389600 0.504600 0.049200
0.500000 0.504600 0.049200
0.610400 0.504600 0.049200
0.720800 0.504600 0.049200
0.831200 0.504600 0.049200
0.941600 0.504600 0.049200
0.058400 0.617300 0.049200
0.168800 0.617300 0.049200
0.279200 0.617300 0.049200
0.389600 0.617300 0.049200
0.500000 0.617300 0.049200
0.610400 0.617300 0.049200
0.720800 0.617300 0.049200
0.831200 0.617300 0.049200
0.941600 0.617300 0.049200
0.058400 0.730000 0.049200
0.168800 0.730000 0.049200
0.279200 0.730000 0.049200
0.389600 0.730000 0.049200
0.500000 0.730000 0.049200
0.610400 0.730000 0.049200
0.720800 0.730000 0.049200
0.831200 0.730000 0.049200
0.941600 0.730000 0.049200
0.058400 0.842700 0.049200
0.168800 0.842700 0.049200
0.279200 0.842700 0.049200
0.389600 0.842700 0.049200
0.500000 0.842700 0.049200
0.610400 0.842700 0.049200
0.720800 0.842700 0.049200
0.831200 0.842700 0.049200
0.941600 0.842700 0.049200
0.058400 0.955400 0.049200
0.168800 0.955400 0.049200
0.279200 0.955400 0.049200
0.389600 0.955400 0.049200
0.500000 0.955400 0.049200
0.610400 0.955400 0.049200
0.720800 0.955400 0.049200
0.831200 0.955400 0.049200
0.941600 0.955400 0.049200
0.058400 0.053800 0.166500
0.168800 0.053800 0.166500
0.279200 0.053800 0.166500
0.389600 0.053800 0.166500
0.500000 0.053800 0.166500
0.610400 0.053800 0.166500
0.720800 0.053800 0.166500
0.831200 0.053800 0.166500
0.941600 0.053800 0.166500
0.058400 0.166500 0.166500
0.168800 0.166500 0.166500
0.279200 0.166500 0.166500
0.389600 0.166500 0.166500
0.500000 0.166500 0.166500
0.610400 0.166500 0.166500
0.720800 0.166500 0.166500
0.831200 0.166500 0.166500
0.941600 0.166500 0.166500
0.058400 0.279200 0.166500
0.168800 0.279200 0.166500
0.279200 0.279200 0.166500
0.389600 0.279200 0.166500
0.500000 0.279200 0.166500
0.610400 0.279200 0.166500
0.720800 0.279200 0.166500
0.831200 0.279200 0.166500
0.941600 0.279200 0.166500
0.058400 0.391900 0.166500
0.168800 0.391900 0.166500
0.279200 0.391900 0.166500
0.389600 0.391900 0.166500
0.500000 0.391900 0.166500
0.610400 0.391900 0.166500
0.720800 0.391900 0.166500
0.831200 0.391900 0.166500
0.941600 0.391900 0.166500
0.058400 0.504600 0.166500
0.168800 0.504600 0.166500
0.279200 0.504600 0.166500
0.389600 0.504600 0.166500
0.500000 0.504600 0.166500
0.610400 0.504600 0.166500
0.720800 0.504600 0.166500
0.831200 0.504600 0.166500
0.941600 0.504600 0.166500
0.058400 0.617300 0.166500
0.168800 0.617300 0.166500
0.279200 0.617300 0.166500
0.389600 0.617300 0.166500
0.500000 0.617300 0.166500
0.610400 0.617300 0.166500
0.720800 0.617300 0.166500
0.831200 0.617300 0.166500
0.941600 0.617300 0.166500
0.058400 0.730000 0.166500
0.168800 0.730000 0.166500
0.279200 0.730000 0.166500
0.389600 0.730000 0.166500
0.500000 0.730000 0.166500
0.610400 0.730000 0.166500
0.720800 0.730000 0.166500
0.831200 0.730000 0.166500
0.941600 0.730000 0.166500
0.058400 0.842700 0.166500
0.168800 0.842700 0.166500
0.279200 0.842700 0.166500
0.389600 0.842700 0.166500
0.500000 0.842700 0.166500
0.610400 0.842700 0.166500
0.720800 0.842700 0.166500
0.831200 0.842700 0.166500
0.941600 0.842700 0.166500
0.058400 0.955400 0.166500
0.168800 0.955400 0.166500
0.279200 0.955400 0.166500
0.389600 0.955400 0.166500
0.500000 0.955400 0.166500
0.610400 0.955400 0.166500
0.720800 0.955400 0.166500
0.831200 0.955400 0.166500
0.941600 0.955400 0.166500
0.058400 0.053800 0.283800
0.168800 0.053800 0.283800
0.279200 0.053800 0.283800
0.389600 0.053800 0.283800
0.500000 0.053800 0.283800
0.610400 0.053800 0.283800
0.720800 0.053800 0.283800
0.831200 0.053800 0.283800
0.941600 0.053800 0.283800
0.058400 0.166500 0.283800
0.168800 0.166500 0.283800
0.279200 0.166500 0.283800
0.389600 0.166500 0.283800
0.500000 0.166500 0.283800
0.610400 0.166500 0.283800
0.720800 0.166500 0.283800
0.831200 0.166500 0.283800
0.941600 0.166500 0.283800
0.058400 0.279200 0.283800
0.168800 0.279200 0.283800
0.279200 0.279200 0.283800
0.389600 0.279200 0.283800
0.500000 0.279200 0.283800
0.610400 0.279200 0.283800
0.720800 0.279200 0.283800
0.831200 0.279200 0.283800
0.941600 0.279200 0.283800
0.058400 0.391900 0.283800
0.168800 0.391900 0.283800
0.279200 0.391900 0.283800
0.389600 0.391900 0.283800
0.500000 0.391900 0.283800
0.610400 0.391900 0.283800
0.720800 0.391900 0.283800
0.831200 0.391900 0.283800
0.941600 0.391900 0.283800
0.058400 0.504600 0.283800
0.168800 0.504600 0.283800
0.279200 0.504600 0.283800
0.389600 0.504600 0.283800
0.500000 0.504600 0.283800
0.610400 0.504600 0.283800
0.720800 0.504600 0.283800
0.831200 0.504600 0.283800
0.941600 0.504600 0.283800
0.058400 0.617300 0.283800
0.168800 0.617300 0.283800
0.279200 0.617300 0.283800
0.389600 0.617300 0.283800
0.500000 0.617300 0.283800
0.610400 0.617300 0.283800
0.720800 0.617300 0.283800
0.831200 0.617300 0.283800
0.941600 0.617300 0.283800
0.058400 0.730000 0.283800
0.168800 0.730000 0.283800
0.279200 0.730000 0.283800
0.389600 0.730000 0.283800
0.500000 0.730000 0.283800
0.610400 0.730000 0.283800
0.720800 0.730000 0.283800
0.831200 0.730000 0.283800
0.941600 0.730000 0.283800
0.058400 0.842700 0.283800
0.168800 0.842700 0.283800
0.279200 0.842700 0.283800
0.389600 0.842700 0.283800
0.500000 0.842700 0.283800
0.610400 0.842700 0.283800
0.720800 0.842700 0.283800
0.831200 0.842700 0.283800
0.941600 0.842700 0.283800
0.058400 0.955400 0.283800
0.168800 0.955400 0.283800
0.279200 0.955400 0.283800
0.389600 0.955400 0.283800
0.500000 0.955400 0.283800
0.610400 0.955400 0.283800
0.720800 0.955400 0.283800
0.831200 0.955400 0.283800
0.941600 0.955400 0.283800
0.058400 0.053800 0.401100
0.168800 0.053800 0.401100
0.279200 0.053800 0.401100
0.389600 0.053800 0.401100
0.500000 0.053800 0.401100
0.610400 0.053800 0.401100
0.720800 0.053800 0.401100
0.831200 0.053800 0.401100
0.941600 0.053800 0.401100
0.058400 0.166500 0.401100
0.168800 0.166500 0.401100
0.279200 0.166500 0.401100
0.389600 0.166500 0.401100
0.500000 0.166500 0.401100
0.610400 0.166500 0.401100
0.720800 0.166500 0.401100
0.831200 0.166500 0.401100
0.941600 0.166500 0.401100
0.058400 0.279200 0.401100
0.168800 0.279200 0.401100
0.279200 0.279200 0.401100
0.389600 0.279200 0.401100
0.500000 0.279200 0.401100
0.610400 0.279200 0.401100
0.720800 0.279200 0.401100
0.831200 0.279200 0.401100
0.941600 0.279200 0.401100
0.058400 0.391900 0.401100
0.168800 0.391900 0.401100
0.279200 0.391900 0.401100
0.389600 0.391900 0.401100
0.500000 0.391900 0.401100
0.610400 0.391900 0.401100
0.720800 0.391900 0.401100
0.831200 0.391900 0.401100
0.941600 0.391900 0.401100
0.058400 0.504600 0.401100
0.168800 0.504600 0.401100
0.279200 0.504600 0.401100
0.389600 0.504600 0.401100
0.500000 0.504600 0.401100
0.610400 0.504600 0.401100
0.720800 0.504600 0.401100
0.831200 0.504600 0.401100
0.941600 0.504600 0.401100
0.058400 0.617300 0.401100
0.168800 0.617300 0.401100
0.279200 0.617300 0.401100
0.389600 0.617300 0.401100
0.500000 0.617300 0.401100
0.610400 0.617300 0.401100
0.720800 0.617300 0.401100
0.831200 0.617300 0.401100
0.941600 0.617300 0.401100
0.058400 0.730000 0.401100
0.168800 0.730000 0.401100
0.279200 0.730000 0.401100
0.389600 0.730000 0.401100
0.500000 0.730000 0.401100
0.610400 0.730000 0.401100
0.720800 0.730000 0.401100
0.831200 0.730000 0.401100
0.941600 0.730000 0.401100
0.058400 0.842700 0.401100
0.168800 0.842700 0.401100
0.279200 0.842700 0.401100
0.389600 0.842700 0.401100
0.500000 0.842700 0.401100
0.610400 0.842700 0.401100
0.720800 0.842700 0.401100
0.831200 0.842700 0.401100
0.941600 0.842700 0.401100
0.058400 0.955400 0.401100
0.168800 0.955400 0.401100
0.279200 0.955400 0.401100
0.389600 0.955400 0.401100
0.500000 0.955400 0.401100
0.610400 0.955400 0.401100
0.720800 0.955400 0.401100
0.831200 0.955400 0.401100
0.941600 0.955400 0.401100
0.058400 0.053800 0.518400
0.168800 0.053800 0.518400
0.279200 0.053800 0.518400
0.389600 0.053800 0.518400
0.500000 0.053800 0.518400
0.610400 0.053800 0.518400
0.720800 0.053800 0.518400
0.831200 0.053800 0.518400
0.941600 0.053800 0.518400
0.058400 0.166500 0.518400
0.168800 0.166500 0.518400
0.279200 0.166500 0.518400
0.389600 0.166500 0.518400
0.500000 0.166500 0.518400
0.610400 0.166500 0.518400
0.720800 0.166500 0.518400
0.831200 0.166500 0.518400
0.941600 0.166500 0.518400
0.058400 0.279200 0.518400
0.168800 0.279200 0.518400
0.279200 0.279200 0.518400
0.389600 0.279200 0.518400
0.500000 0.279200 0.518400
0.610400 0.279200 0.518400
0.720800 0.279200 0.518400
0.831200 0.279200 0.518400
0.941600 0.279200 0.518400
0.058400 0.391900 0.518400
0.168800 0.391900 0.518400
0.279200 0.391900 0.518400
0.389600 0.391900 0.518400
0.500000 0.391900 0.518400
0.610400 0.391900 0.518400
0.720800 0.391900 0.518400
0.831200 0.391900 0.518400
0.941600 0.391900 0.518400
0.058400 0.504600 0.518400
0.168800 0.504600 0.518400
0.279200 0.504600 0.518400
0.389600 0.504600 0.518400
0.500000 0.504600 0.518400
0.610400 0.504600 0.518400
0.720800 0.504600 0.518400
0.831200 0.504600 0.518400
0.941600 0.504600 0.518400
0.058400 0.617300 0.518400
0.168800 0.617300 0.518400
0.279200 0.617300 0.518400
0.389600 0.617300 0.518400
0.500000 0.617300 0.518400
0.610400 0.617300 0.518400
0.720800 0.617300 0.518400
0.831200 0.617300 0.518400
0.941600 0.617300 0.518400
0.058400 0.730000 0.518400
0.168800 0.730000 0.518400
0.279200 0.730000 0.518400
0.389600 0.730000 0.518400
0.500000 0.730000 0.518400
0.610400 0.730000 0.518400
0.720800 0.730000 0.518400
0.831200 0.730000 0.518400
0.941600 0.730000 0.518400
0.058400 0.842700 0.518400
0.168800 0.842700 0.518400
0.279200 0.842700 0.518400
0.389600 0.842700 0.518400
0.500000 0.842700 0.518400
0.610400 0.842700 0.518400
0.720800 0.842700 0.518400
0.831200 0.842700 0.518400
0.941600 0.842700 0.518400
0.058400 0.955400 0.518400
0.168800 0.955400 0.518400
0.279200 0.955400 0.518400
0.389600 0.955400 0.518400
0.500000 0.955400 0.518400
0.610400 0.955400 0.518400
0.720800 0.955400 0.518400
0.831200 0.955400 0.518400
0.941600 0.955400 0.518400
0.058400 0.053800 0.635700
0.168800 0.053800 0.635700
0.279200 0.053800 0.635700
0.389600 0.053800 0.635700
0.500000 0.053800 0.635700
0.610400 0.053800 0.635700
0.720800 0.053800 0.635700
0.831200 0.053800 0.635700
0.941600 0.053800 0.635700
0.058400 0.166500 0.635700
0.168800 0.166500 0.635700
0.279200 0.166500 0.635700
0.389600 0.166500 0.635700
0.500000 0.166500 0.635700
0.610400 0.166500 0.635700
0.720800 0.166500 0.635700
0.831200 0.166500 0.635700
0.941600 0.166500 0.635700
0.058400 0.279200 0.635700
0.168800 0.279200 0.635700
0.279200 0.279200 0.635700
0.389600 0.279200 0.635700
0.500000 0.279200 0.635700
0.610400 0.279200 0.635700
0.720800 0.279200 0.635700
0.831200 0.279200 0.635700
0.941600 0.279200 0.635700
0.058400 0.391900 0.635700
0.168800 0.391900 0.635700
0.279200 0.391900 0.635700
0.389600 0.391900 0.635700
0.500000 0.391900 0.635700
0.610400 0.391900 0.635700
0.720800 0.391900 0.635700
0.831200 0.391900 0.635700
0.941600 0.391900 0.635700
0.058400 0.504600 0.635700
0.168800 0.504600 0.635700
0.279200 0.504600 0.635700
0.389600 0.504600 0.635700
0.500000 0.504600 0.635700
0.610400 0.504600 0.635700
0.720800 0.504600 0.635700
0.831200 0.504600 0.635700
0.941600 0.504600 0.635700
0.058400 0.617300 0.635700
0.168800 0.617300 0.635700
0.279200 0.617300 0.635700
0.389600 0.617300 0.635700
0.500000 0.617300 0.635700
0.610400 0.617300 0.635700
0.720800 0.617300 0.635700
0.831200 0.617300 0.635700
0.941600 0.617300 0.635700
0.058400 0.730000 0.635700
0.168800 0.730000 0.635700
0.279200 0.730000 0.635700
0.389600 0.730000 0.635700
0.500000 0.730000 0.635700
0.610400 0.730000 0.635700
0.720800 0.730000 0.635700
0.831200 0.730000 0.635700
0.941600 0.730000 0.635700
0.058400 0.842700 0.635700
0.168800 0.842700 0.635700
0.279200 0.842700 0.635700
0.389600 0.842700 0.635700
0.500000 0.842700 0.635700
0.610400 0.842700 0.635700
0.720800 0.842700 0.635700
0.831200 0.842700 0.635700
0.941600 0.842700 0.635700
0.058400 0.955400 0.635700
0.168800 0.955400 0.635700
0.279200 0.955400 0.635700
0.389600 0.955400 0.635700
0.500000 0.955400 0.635700
0.610400 0.955400 0.635700
0.720800 0.955400 0.635700
0.831200 0.955400 0.635700
0.941600 0.955400 0.635700
0.058400 0.053800 0.753000
0.168800 0.053800 0.753000
0.279200 0.053800 0.753000
0.389600 0.053800 0.753000
0.500000 0.053800 0.753000
0.610400 0.053800 0.753000
0.720800 0.053800 0.753000
0.831200 0.053800 0.753000
0.941600 0.053800 0.753000
0.058400 0.166500 0.753000
0.168800 0.166500 0.753000
0.279200 0.166500 0.753000
0.389600 0.166500 0.753000
0.500000 0.166500 0.753000
0.610400 0.166500 0.753000
0.720800 0.166500 0.753000
0.831200 0.166500 0.753000
0.941600 0.166500 0.753000
0.058400 0.279200 0.753000
0.168800 0.279200 0.753000
0.279200 0.279200 0.753000
0.389600 0.279200 0.753000
0.500000 0.279200 0.753000
0.610400 0.279200 0.753000
0.720800 0.279200 0.753000
0.831200 0.279200 0.753000
0.941600 0.279200 0.753000
0.058400 0.391900 0.753000
0.168800 0.391900 0.753000
0.279200 0.391900 0.753000
0.389600 0.391900 0.753000
0.500000 0.391900 0.753000
0.610400 0.391900 0.753000
0.720800 0.391900 0.753000
0.831200 0.391900 0.753000
0.941600 0.391900 0.753000
0.058400 0.504600 0.753000
0.168800 0.504600 0.753000
0.279200 0.504600 0.753000
0.389600 0.504600 0.753000
0.500000 0.504600 0.753000
0.610400 0.504600 0.753000
0.720800 0.504600 0.753000
0.831200 0.504600 0.753000
0.941600 0.504600 0.753000
0.058400 0.617300 0.753000
0.168800 0.617300 0.753000
0.279200 0.617300 0.753000
0.389600 0.617300 0.753000
0.500000 0.617300 0.753000
0.610400 0.617300 0.753000
0.720800 0.617300 0.753000
0.831200 0.617300 0.753000
0.941600 0.617300 0.753000
0.058400 0.730000 0.753000
0.168800 0.730000 0.753000
0.279200 0.730000 0.753000
0.389600 0.730000 0.753000
0.500000 0.730000 0.753000
0.610400 0.730000 0.753000
0.720800 0.730000 0.753000
0.831200 0.730000 0.753000
0.941600 0.730000 0.753000
0.058400 0.842700 0.753000
0.168800 0.842700 0.753000
0.279200 0.842700 0.753000
0.389600 0.842700 0.753000
0.500000 0.842700 0.753000
0.610400 0.842700 0.753000
0.720800 0.842700 0.753000
0.831200 0.842700 0.753000
0.941600 0.842700 0.753000
0.058400 0.955400 0.753000
0.168800 0.955400 0.753000
0.279200 0.955400 0.753000
0.389600 0.955400 0.753000
0.500000 0.955400 0.753000
0.610400 0.955400 0.753000
0.720800 0.955400 0.753000
0.831200 0.955400 0.753000
0.941600 0.955400 0.753000
0.058400 0.053800 0.870300
0.168800 0.053800 0.870300
0.279200 0.053800 0.870300
0.389600 0.053800 0.870300
0.500000 0.053800 0.870300
0.610400 0.053800 0.870300
0.720800 0.053800 0.870300
0.831200 0.053800 0.870300
0.941600 0.053800 0.870300
0.058400 0.166500 0.870300
0.168800 0.166500 0.870300
0.279200 0.166500 0.870300
0.389600 0.166500 0.870300
0.500000 0.166500 0.870300
0.610400 0.166500 0.870300
0.720800 0.166500 0.870300
0.831200 0.166500 0.870300
0.941600 0.166500 0.870300
0.058400 0.279200 0.870300
0.168800 0.279200 0.870300
0.279200 0.279200 0.870300
0.389600 0.279200 0.870300
0.500000 0.279200 0.870300
0.610400 0.279200 0.870300
0.720800 0.279200 0.870300
0.831200 0.279200 0.870300
0.941600 0.279200 0.870300
0.058400 0.391900 0.870300
0.168800 0.391900 0.870300
0.279200 0.391900 0.870300
0.389600 0.391900 0.870300
0.500000 0.391900 0.870300
0.610400 0.391900 0.870300
0.720800 0.391900 0.870300
0.831200 0.391900 0.870300
0.941600 0.391900 0.870300
0.058400 0.504600 0.870300
0.168800 0.504600 0.870300
0.279200 0.504600 0.870300
0.389600 0.504600 0.870300
0.500000 0.504600 0.870300
0.610400 0.504600 0.870300
0.720800 0.504600 0.870300
0.831200 0.504600 0.870300
0.941600 0.504600 0.870300
0.058400 0.617300 0.870300
0.168800 0.617300 0.870300
0.279200 0.617300 0.870300
0.389600 0.617300 0.870300
0.500000 0.617300 0.870300
0.610400 0.617300 0.870300
0.720800 0.617300 0.870300
0.831200 0.617300 0.870300
0.941600 0.617300 0.870300
0.058400 0.730000 0.870300
0.168800 0.730000 0.870300
0.279200 0.730000 0.870300
0.389600 0.730000 0.870300
0.500000 0.730000 0.870300
0.610400 0.730000 0.870300
0.720800 0.730000 0.870300
0.831200 0.730000 0.870300
0.941600 0.730000 0.870300
0.058400 0.842700 0.870300
0.168800 0.842700 0.870300
0.279200 0.842700 0.870300
0.389600 0.842700 0.870300
0.500000 0.842700 0.870300
0.610400 0.842700 0.870300
0.720800 0.842700 0.870300
0.831200 0.842700 0.870300
0.941600 0.842700 0.870300
0.058400 0.955400 0.870300
0.168800 0.955400 0.870300
0.279200 0.955400 0.870300
0.389600 0.955400 0.870300
0.500000 0.955400 0.870300
0.610400 0.955400 0.870300
0.720800 0.955400 0.870300
0.831200 0.955400 0.870300
0.941600 0.955400 0.870300
0.058400 0.053800 0.987600
0.168800 0.053800 0.987600
0.279200 0.053800 0.987600
0.389600 0.053800 0.987600
0.500000 0.053800 0.987600
0.610400 0.053800 0.987600
0.720800 0.053800 0.987600
0.831200 0.053800 0.987600
0.941600 0.053800 0.987600
0.058400 0.166500 0.987600
0.168800 0.166500 0.987600
0.279200 0.166500 0.987600
0.389600 0.166500 0.987600
0.500000 0.166500 0.987600
0.610400 0.166500 0.987600
0.720800 0.166500 0.987600
0.831200 0.166500 0.987600
0.941600 0.166500 0.987600
0.058400 0.279200 0.987600
0.168800 0.279200 0.987600
0.279200 0.279200 0.987600
0.389600 0.279200 0.987600
0.500000 0.279200 0.987600
0.610400 0.279200 0.987600
0.720800 0.279200 0.987600
0.831200 0.279200 0.987600
0.941600 0.279200 0.987600
0.058400 0.391900 0.987600
0.168800 0.391900 0.987600
0.279200 0.391900 0.987600
0.389600 0.391900 0.987600
0.500000 0.391900 0.987600
0.610400 0.391900 0.987600
0.720800 0.391900 0.987600
0.831200 0.391900 0.987600
0.941600 0.391900 0.987600
0.058400 0.504600 0.987600
0.168800 0.504600 0.987600
0.279200 0.504600 0.987600
0.389600 0.504600 0.987600
0.500000 0.504600 0.987600
0.610400 0.504600 0.987600
0.720800 0.504600 0.987600
0.831200 0.504600 0.987600
0.941600 0.504600 0.987600
0.058400 0.617300 0.987600
0.168800 0.617300 0.987600
0.279200 0.617300 0.987600
0.389600 0.617300 0.987600
0.500000 0.617300 0.987600
0.610400 0.617300 0.987600
0.720800 0.617300 0.987600
0.831200 0.617300 0.987600
0.941600 0.617300 0.987600
0.058400 0.730000 0.987600
0.168800 0.730000 0.987600
0.279200 0.730000 0.987600
0.389600 0.730000 0.987600
0.500000 0.730000 0.987600
0.610400 0.730000 0.987600
0.720800 0.730000 0.987600
0.831200 0.730000 0.987600
0.941600 0.730000 0.987600
0.058400 0.842700 0.987600
0.168800 0.842700 0.987600
0.279200 0.842700 0.987600
0.389600 0.842700 0.987600
0.500000 0.842700 0.987600
0.610400 0.842700 0.987600
0.720800 0.842700 0.987600
0.831200 0.842700 0.987600
0.941600 0.842700 0.987600
0.058400 0.955400 0.987600
0.168800 0.955400 0.987600
0.279200 0.955400 0.987600
0.389600 0.955400 0.987600
0.500000 0.955400 0.987600
0.610400 0.955400 0.987600
0.720800 0.955400 0.987600
0.831200 0.955400 0.987600
0.941600 0.955400 0.987600
