RapidRAW-Android/app/src/main/assets/built_in_luts/agfa_vista_400.cube
TITLE "Agfa Vista 400"
LUT_3D_SIZE 5
0.058400 0.053800 0.049200
0.279200 0.053800 0.049200
0.500000 0.053800 0.049200
0.720800 0.053800 0.049200
0.941600 0.053800 0.049200
0.058400 0.279200 0.049200
0.279200 0.279200 0.049200
0.500000 0.279200 0.049200
0.720800 0.279200 0.049200
0.941600 0.279200 0.049200
0.058400 0.504600 0.049200
0.279200 0.504600 0.049200
0.500000 0.504600 0.049200
0.720800 0.504600 0.049200
0.941600 0.504600 0.049200
0.058400 0.730000 0.049200
0.279200 0.730000 0.049200
0.500000 0.730000 0.049200
0.720800 0.730000 0.049200
0.941600 0.730000 0.049200
0.058400 0.955400 0.049200
0.279200 0.955400 0.049200
0.500000 0.955400 0.049200
0.720800 0.955400 0.049200
0.941600 0.955400 0.049200
0.058400 0.053800 0.283800
0.279200 0.053800 0.283800
0.500000 0.053800 0.283800
0.720800 0.053800 0.283800
0.941600 0.053800 0.283800
0.058400 0.279200 0.283800
0.279200 0.279200 0.283800
0.500000 0.279200 0.283800
0.720800 0.279200 0.283800
0.941600 0.279200 0.283800
0.058400 0.504600 0.283800
0.279200 0.504600 0.283800
0.500000 0.504600 0.283800
0.720800 0.504600 0.283800
0.941600 0.504600 0.283800
0.058400 0.730000 0.283800
0.279200 0.730000 0.283800
0.500000 0.730000 0.283800
0.720800 0.730000 0.283800
0.941600 0.730000 0.283800
0.058400 0.955400 0.283800
0.279200 0.955400 0.283800
0.500000 0.955400 0.283800
0.720800 0.955400 0.283800
0.941600 0.955400 0.283800
0.058400 0.053800 0.518400
0.279200 0.053800 0.518400
0.500000 0.053800 0.518400
0.720800 0.053800 0.518400
0.941600 0.053800 0.518400
0.058400 0.279200 0.518400
0.279200 0.279200 0.518400
0.500000 0.279200 0.518400
0.720800 0.279200 0.518400
0.941600 0.279200 0.518400
0.058400 0.504600 0.518400
0.279200 0.504600 0.518400
0.500000 0.504600 0.518400
0.720800 0.504600 0.518400
0.941600 0.504600 0.518400
0.058400 0.730000 0.518400
0.279200 0.730000 0.518400
0.500000 0.730000 0.518400
0.720800 0.730000 0.518400
0.941600 0.730000 0.518400
0.058400 0.955400 0.518400
0.279200 0.955400 0.518400
0.500000 0.955400 0.518400
0.720800 0.955400 0.518400
0.941600 0.955400 0.518400
0.058400 0.053800 0.753000
0.279200 0.053800 0.753000
0.500000 0.053800 0.753000
0.720800 0.053800 0.753000
0.941600 0.053800 0.753000
0.058400 0.279200 0.753000
0.279200 0.279200 0.753000
0.500000 0.279200 0.753000
0.720800 0.279200 0.753000
0.941600 0.279200 0.753000
0.058400 0.504600 0.753000
0.279200 0.504600 0.753000
0.500000 0.504600 0.753000
0.720800 0.504600 0.753000
0.941600 0.504600 0.753000
0.058400 0.730000 0.753000
0.279200 0.730000 0.753000
0.500000 0.730000 0.753000
0.720800 0.730000 0.753000
0.941600 0.730000 0.753000
0.058400 0.955400 0.753000
0.279200 0.955400 0.753000
0.500000 0.955400 0.753000
0.720800 0.955400 0.753000
0.941600 0.955400 0.753000
0.058400 0.053800 0.987600
0.279200 0.053800 0.987600
0.500000 0.053800 0.987600
0.720800 0.053800 0.987600
0.941600 0.053800 0.987600
0.058400 0.279200 0.987600
0.279200 0.279200 0.987600
0.500000 0.279200 0.987600
0.720800 0.279200 0.987600
0.941600 0.279200 0.987600
0.058400 0.504600 0.987600
0.279200 0.504600 0.987600
0.500000 0.504600 0.987600
0.720800 0.504600 0.987600
0.941600 0.504600 0.987600
0.058400 0.730000 0.987600
0.279200 0.730000 0.987600
0.500000 0.730000 0.987600
0.720800 0.730000 0.987600
0.941600 0.730000 0.987600
0.058400 0.955400 0.987600
0.279200 0.955400 0.987600
0.500000 0.955400 0.987600
0.720800 0.955400 0.987600
0.941600 0.955400 0.987600
