RapidRAW-Android/app/src/main/assets/built_in_luts/agfa_vista_400.cube
TITLE "Agfa Vista 400"
LUT_3D_SIZE 17
0.058400 0.053800 0.049200
0.113600 0.053800 0.049200
0.168800 0.053800 0.049200
0.224000 0.053800 0.049200
0.279200 0.053800 0.049200
0.334400 0.053800 0.049200
0.389600 0.053800 0.049200
0.444800 0.053800 0.049200
0.500000 0.053800 0.049200
0.555200 0.053800 0.049200
0.610400 0.053800 0.049200
0.665600 0.053800 0.049200
0.720800 0.053800 0.049200
0.776000 0.053800 0.049200
0.831200 0.053800 0.049200
0.886400 0.053800 0.049200
0.941600 0.053800 0.049200
0.058400 0.110150 0.049200
0.113600 0.110150 0.049200
0.168800 0.110150 0.049200
0.224000 0.110150 0.049200
0.279200 0.110150 0.049200
0.334400 0.110150 0.049200
0.389600 0.110150 0.049200
0.444800 0.110150 0.049200
0.500000 0.110150 0.049200
0.555200 0.110150 0.049200
0.610400 0.110150 0.049200
0.665600 0.110150 0.049200
0.720800 0.110150 0.049200
0.776000 0.110150 0.049200
0.831200 0.110150 0.049200
0.886400 0.110150 0.049200
0.941600 0.110150 0.049200
0.058400 0.166500 0.049200
0.113600 0.166500 0.049200
0.168800 0.166500 0.049200
0.224000 0.166500 0.049200
0.279200 0.166500 0.049200
0.334400 0.166500 0.049200
0.389600 0.166500 0.049200
0.444800 0.166500 0.049200
0.500000 0.166500 0.049200
0.555200 0.166500 0.049200
0.610400 0.166500 0.049200
0.665600 0.166500 0.049200
0.720800 0.166500 0.049200
0.776000 0.166500 0.049200
0.831200 0.166500 0.049200
0.886400 0.166500 0.049200
0.941600 0.166500 0.049200
0.058400 0.222850 0.049200
0.113600 0.222850 0.049200
0.168800 0.222850 0.049200
0.224000 0.222850 0.049200
0.279200 0.222850 0.049200
0.334400 0.222850 0.049200
0.389600 0.222850 0.049200
0.444800 0.222850 0.049200
0.500000 0.222850 0.049200
0.555200 0.222850 0.049200
0.610400 0.222850 0.049200
0.665600 0.222850 0.049200
0.720800 0.222850 0.049200
0.776000 0.222850 0.049200
0.831200 0.222850 0.049200
0.886400 0.222850 0.049200
0.941600 0.222850 0.049200
0.058400 0.279200 0.049200
0.113600 0.279200 0.049200
0.168800 0.279200 0.049200
0.224000 0.279200 0.049200
0.279200 0.279200 0.049200
0.334400 0.279200 0.049200
0.389600 0.279200 0.049200
0.444800 0.279200 0.049200
0.500000 0.279200 0.049200
0.555200 0.279200 0.049200
0.610400 0.279200 0.049200
0.665600 0.279200 0.049200
0.720800 0.279200 0.049200
0.776000 0.279200 0.049200
0.831200 0.279200 0.049200
0.886400 0.279200 0.049200
0.941600 0.279200 0.049200
0.058400 0.335550 0.049200
0.113600 0.335550 0.049200
0.168800 0.335550 0.049200
0.224000 0.335550 0.049200
0.279200 0.335550 0.049200
0.334400 0.335550 0.049200
0.389600 0.335550 0.049200
0.444800 0.335550 0.049200
0.500000 0.335550 0.049200
0.555200 0.335550 0.049200
0.610400 0.335550 0.049200
0.665600 0.335550 0.049200
0.720800 0.335550 0.049200
0.776000 0.335550 0.049200
0.831200 0.335550 0.049200
0.886400 0.335550 0.049200
0.941600 0.335550 0.049200
0.058400 0.391900 0.049200
0.113600 0.391900 0.049200
0.168800 0.391900 0.049200
0.224000 0.391900 0.049200
0.279200 0.391900 0.049200
0.334400 0.391900 0.049200
0.389600 0.391900 0.049200
0.444800 0.391900 0.049200
0.500000 0.391900 0.049200
0.555200 0.391900 0.049200
0.610400 0.391900 0.049200
0.665600 0.391900 0.049200
0.720800 0.391900 0.049200
0.776000 0.391900 0.049200
0.831200 0.391900 0.049200
0.886400 0.391900 0.049200
0.941600 0.391900 0.049200
0.058400 0.448250 0.049200
0.113600 0.448250 0.049200
0.168800 0.448250 0.049200
0.224000 0.448250 0.049200
0.279200 0.448250 0.049200
0.334400 0.448250 0.049200
0.389600 0.448250 0.049200
0.444800 0.448250 0.049200
0.500000 0.448250 0.049200
0.555200 0.448250 0.049200
0.610400 0.448250 0.049200
0.665600 0.448250 0.049200
0.720800 0.448250 0.049200
0.776000 0.448250 0.049200
0.831200 0.448250 0.049200
0.886400 0.448250 0.049200
0.941600 0.448250 0.049200
0.058400 0.504600 0.049200
0.113600 0.504600 0.049200
0.168800 0.504600 0.049200
0.224000 0.504600 0.049200
0.279200 0.504600 0.049200
0.334400 0.504600 0.049200
0.389600 0.504600 0.049200
0.444800 0.504600 0.049200
0.500000 0.504600 0.049200
0.555200 0.504600 0.049200
0.610400 0.504600 0.049200
0.665600 0.504600 0.049200
0.720800 0.504600 0.049200
0.776000 0.504600 0.049200
0.831200 0.504600 0.049200
0.886400 0.504600 0.049200
0.941600 0.504600 0.049200
0.058400 0.560950 0.049200
0.113600 0.560950 0.049200
0.168800 0.560950 0.049200
0.224000 0.560950 0.049200
0.279200 0.560950 0.049200
0.334400 0.560950 0.049200
0.389600 0.560950 0.049200
0.444800 0.560950 0.049200
0.500000 0.560950 0.049200
0.555200 0.560950 0.049200
0.610400 0.560950 0.049200
0.665600 0.560950 0.049200
0.720800 0.560950 0.049200
0.776000 0.560950 0.049200
0.831200 0.560950 0.049200
0.886400 0.560950 0.049200
0.941600 0.560950 0.049200
0.058400 0.617300 0.049200
0.113600 0.617300 0.049200
0.168800 0.617300 0.049200
0.224000 0.617300 0.049200
0.279200 0.617300 0.049200
0.334400 0.617300 0.049200
0.389600 0.617300 0.049200
0.444800 0.617300 0.049200
0.500000 0.617300 0.049200
0.555200 0.617300 0.049200
0.610400 0.617300 0.049200
0.665600 0.617300 0.049200
0.720800 0.617300 0.049200
0.776000 0.617300 0.049200
0.831200 0.617300 0.049200
0.886400 0.617300 0.049200
0.941600 0.617300 0.049200
0.058400 0.673650 0.049200
0.113600 0.673650 0.049200
0.168800 0.673650 0.049200
0.224000 0.673650 0.049200
0.279200 0.673650 0.049200
0.334400 0.673650 0.049200
0.389600 0.673650 0.049200
0.444800 0.673650 0.049200
0.500000 0.673650 0.049200
0.555200 0.673650 0.049200
0.610400 0.673650 0.049200
0.665600 0.673650 0.049200
0.720800 0.673650 0.049200
0.776000 0.673650 0.049200
0.831200 0.673650 0.049200
0.886400 0.673650 0.049200
0.941600 0.673650 0.049200
0.058400 0.730000 0.049200
0.113600 0.730000 0.049200
0.168800 0.730000 0.049200
0.224000 0.730000 0.049200
0.279200 0.730000 0.049200
0.334400 0.730000 0.049200
0.389600 0.730000 0.049200
0.444800 0.730000 0.049200
0.500000 0.730000 0.049200
0.555200 0.730000 0.049200
0.610400 0.730000 0.049200
0.665600 0.730000 0.049200
0.720800 0.730000 0.049200
0.776000 0.730000 0.049200
0.831200 0.730000 0.049200
0.886400 0.730000 0.049200
0.941600 0.730000 0.049200
0.058400 0.786350 0.049200
0.113600 0.786350 0.049200
0.168800 0.786350 0.049200
0.224000 0.786350 0.049200
0.279200 0.786350 0.049200
0.334400 0.786350 0.049200
0.389600 0.786350 0.049200
0.444800 0.786350 0.049200
0.500000 0.786350 0.049200
0.555200 0.786350 0.049200
0.610400 0.786350 0.049200
0.665600 0.786350 0.049200
0.720800 0.786350 0.049200
0.776000 0.786350 0.049200
0.831200 0.786350 0.049200
0.886400 0.786350 0.049200
0.941600 0.786350 0.049200
0.058400 0.842700 0.049200
0.113600 0.842700 0.049200
0.168800 0.842700 0.049200
0.224000 0.842700 0.049200
0.279200 0.842700 0.049200
0.334400 0.842700 0.049200
0.389600 0.842700 0.049200
0.444800 0.842700 0.049200
0.500000 0.842700 0.049200
0.555200 0.842700 0.049200
0.610400 0.842700 0.049200
0.665600 0.842700 0.049200
0.720800 0.842700 0.049200
0.776000 0.842700 0.049200
0.831200 0.842700 0.049200
0.886400 0.842700 0.049200
0.941600 0.842700 0.049200
0.058400 0.899050 0.049200
0.113600 0.899050 0.049200
0.168800 0.899050 0.049200
0.224000 0.899050 0.049200
0.279200 0.899050 0.049200
0.334400 0.899050 0.049200
0.389600 0.899050 0.049200
0.444800 0.899050 0.049200
0.500000 0.899050 0.049200
0.555200 0.899050 0.049200
0.610400 0.899050 0.049200
0.665600 0.899050 0.049200
0.720800 0.899050 0.049200
0.776000 0.899050 0.049200
0.831200 0.899050 0.049200
0.886400 0.899050 0.049200
0.941600 0.899050 0.049200
0.058400 0.955400 0.049200
0.113600 0.955400 0.049200
0.168800 0.955400 0.049200
0.224000 0.955400 0.049200
0.279200 0.955400 0.049200
0.334400 0.955400 0.049200
0.389600 0.955400 0.049200
0.444800 0.955400 0.049200
0.500000 0.955400 0.049200
0.555200 0.955400 0.049200
0.610400 0.955400 0.049200
0.665600 0.955400 0.049200
0.720800 0.955400 0.049200
0.776000 0.955400 0.049200
0.831200 0.955400 0.049200
0.886400 0.955400 0.049200
0.941600 0.955400 0.049200
0.058400 0.053800 0.107850
0.113600 0.053800 0.107850
0.168800 0.053800 0.107850
0.224000 0.053800 0.107850
0.279200 0.053800 0.107850
0.334400 0.053800 0.107850
0.389600 0.053800 0.107850
0.444800 0.053800 0.107850
0.500000 0.053800 0.107850
0.555200 0.053800 0.107850
0.610400 0.053800 0.107850
0.665600 0.053800 0.107850
0.720800 0.053800 0.107850
0.776000 0.053800 0.107850
0.831200 0.053800 0.107850
0.886400 0.053800 0.107850
0.941600 0.053800 0.107850
0.058400 0.110150 0.107850
0.113600 0.110150 0.107850
0.168800 0.110150 0.107850
0.224000 0.110150 0.107850
0.279200 0.110150 0.107850
0.334400 0.110150 0.107850
0.389600 0.110150 0.107850
0.444800 0.110150 0.107850
0.500000 0.110150 0.107850
0.555200 0.110150 0.107850
0.610400 0.110150 0.107850
0.665600 0.110150 0.107850
0.720800 0.110150 0.107850
0.776000 0.110150 0.107850
0.831200 0.110150 0.107850
0.886400 0.110150 0.107850
0.941600 0.110150 0.107850
0.058400 0.166500 0.107850
0.113600 0.166500 0.107850
0.168800 0.166500 0.107850
0.224000 0.166500 0.107850
0.279200 0.166500 0.107850
0.334400 0.166500 0.107850
0.389600 0.166500 0.107850
0.444800 0.166500 0.107850
0.500000 0.166500 0.107850
0.555200 0.166500 0.107850
0.610400 0.166500 0.107850
0.665600 0.166500 0.107850
0.720800 0.166500 0.107850
0.776000 0.166500 0.107850
0.831200 0.166500 0.107850
0.886400 0.166500 0.107850
0.941600 0.166500 0.107850
0.058400 0.222850 0.107850
0.113600 0.222850 0.107850
0.168800 0.222850 0.107850
0.224000 0.222850 0.107850
0.279200 0.222850 0.107850
0.334400 0.222850 0.107850
0.389600 0.222850 0.107850
0.444800 0.222850 0.107850
0.500000 0.222850 0.107850
0.555200 0.222850 0.107850
0.610400 0.222850 0.107850
0.665600 0.222850 0.107850
0.720800 0.222850 0.107850
0.776000 0.222850 0.107850
0.831200 0.222850 0.107850
0.886400 0.222850 0.107850
0.941600 0.222850 0.107850
0.058400 0.279200 0.107850
0.113600 0.279200 0.107850
0.168800 0.279200 0.107850
0.224000 0.279200 0.107850
0.279200 0.279200 0.107850
0.334400 0.279200 0.107850
0.389600 0.279200 0.107850
0.444800 0.279200 0.107850
0.500000 0.279200 0.107850
0.555200 0.279200 0.107850
0.610400 0.279200 0.107850
0.665600 0.279200 0.107850
0.720800 0.279200 0.107850
0.776000 0.279200 0.107850
0.831200 0.279200 0.107850
0.886400 0.279200 0.107850
0.941600 0.279200 0.107850
0.058400 0.335550 0.107850
0.113600 0.335550 0.107850
0.168800 0.335550 0.107850
0.224000 0.335550 0.107850
0.279200 0.335550 0.107850
0.334400 0.335550 0.107850
0.389600 0.335550 0.107850
0.444800 0.335550 0.107850
0.500000 0.335550 0.107850
0.555200 0.335550 0.107850
0.610400 0.335550 0.107850
0.665600 0.335550 0.107850
0.720800 0.335550 0.107850
0.776000 0.335550 0.107850
0.831200 0.335550 0.107850
0.886400 0.335550 0.107850
0.941600 0.335550 0.107850
0.058400 0.391900 0.107850
0.113600 0.391900 0.107850
0.168800 0.391900 0.107850
0.224000 0.391900 0.107850
0.279200 0.391900 0.107850
0.334400 0.391900 0.107850
0.389600 0.391900 0.107850
0.444800 0.391900 0.107850
0.500000 0.391900 0.107850
0.555200 0.391900 0.107850
0.610400 0.391900 0.107850
0.665600 0.391900 0.107850
0.720800 0.391900 0.107850
0.776000 0.391900 0.107850
0.831200 0.391900 0.107850
0.886400 0.391900 0.107850
0.941600 0.391900 0.107850
0.058400 0.448250 0.107850
0.113600 0.448250 0.107850
0.168800 0.448250 0.107850
0.224000 0.448250 0.107850
0.279200 0.448250 0.107850
0.334400 0.448250 0.107850
0.389600 0.448250 0.107850
0.444800 0.448250 0.107850
0.500000 0.448250 0.107850
0.555200 0.448250 0.107850
0.610400 0.448250 0.107850
0.665600 0.448250 0.107850
0.720800 0.448250 0.107850
0.776000 0.448250 0.107850
0.831200 0.448250 0.107850
0.886400 0.448250 0.107850
0.941600 0.448250 0.107850
0.058400 0.504600 0.107850
0.113600 0.504600 0.107850
0.168800 0.504600 0.107850
0.224000 0.504600 0.107850
0.279200 0.504600 0.107850
0.334400 0.504600 0.107850
0.389600 0.504600 0.107850
0.444800 0.504600 0.107850
0.500000 0.504600 0.107850
0.555200 0.504600 0.107850
0.610400 0.504600 0.107850
0.665600 0.504600 0.107850
0.720800 0.504600 0.107850
0.776000 0.504600 0.107850
0.831200 0.504600 0.107850
0.886400 0.504600 0.107850
0.941600 0.504600 0.107850
0.058400 0.560950 0.107850
0.113600 0.560950 0.107850
0.168800 0.560950 0.107850
0.224000 0.560950 0.107850
0.279200 0.560950 0.107850
0.334400 0.560950 0.107850
0.389600 0.560950 0.107850
0.444800 0.560950 0.107850
0.500000 0.560950 0.107850
0.555200 0.560950 0.107850
0.610400 0.560950 0.107850
0.665600 0.560950 0.107850
0.720800 0.560950 0.107850
0.776000 0.560950 0.107850
0.831200 0.560950 0.107850
0.886400 0.560950 0.107850
0.941600 0.560950 0.107850
0.058400 0.617300 0.107850
0.113600 0.617300 0.107850
0.168800 0.617300 0.107850
0.224000 0.617300 0.107850
0.279200 0.617300 0.107850
0.334400 0.617300 0.107850
0.389600 0.617300 0.107850
0.444800 0.617300 0.107850
0.500000 0.617300 0.107850
0.555200 0.617300 0.107850
0.610400 0.617300 0.107850
0.665600 0.617300 0.107850
0.720800 0.617300 0.107850
0.776000 0.617300 0.107850
0.831200 0.617300 0.107850
0.886400 0.617300 0.107850
0.941600 0.617300 0.107850
0.058400 0.673650 0.107850
0.113600 0.673650 0.107850
0.168800 0.673650 0.107850
0.224000 0.673650 0.107850
0.279200 0.673650 0.107850
0.334400 0.673650 0.107850
0.389600 0.673650 0.107850
0.444800 0.673650 0.107850
0.500000 0.673650 0.107850
0.555200 0.673650 0.107850
0.610400 0.673650 0.107850
0.665600 0.673650 0.107850
0.720800 0.673650 0.107850
0.776000 0.673650 0.107850
0.831200 0.673650 0.107850
0.886400 0.673650 0.107850
0.941600 0.673650 0.107850
0.058400 0.730000 0.107850
0.113600 0.730000 0.107850
0.168800 0.730000 0.107850
0.224000 0.730000 0.107850
0.279200 0.730000 0.107850
0.334400 0.730000 0.107850
0.389600 0.730000 0.107850
0.444800 0.730000 0.107850
0.500000 0.730000 0.107850
0.555200 0.730000 0.107850
0.610400 0.730000 0.107850
0.665600 0.730000 0.107850
0.720800 0.730000 0.107850
0.776000 0.730000 0.107850
0.831200 0.730000 0.107850
0.886400 0.730000 0.107850
0.941600 0.730000 0.107850
0.058400 0.786350 0.107850
0.113600 0.786350 0.107850
0.168800 0.786350 0.107850
0.224000 0.786350 0.107850
0.279200 0.786350 0.107850
0.334400 0.786350 0.107850
0.389600 0.786350 0.107850
0.444800 0.786350 0.107850
0.500000 0.786350 0.107850
0.555200 0.786350 0.107850
0.610400 0.786350 0.107850
0.665600 0.786350 0.107850
0.720800 0.786350 0.107850
0.776000 0.786350 0.107850
0.831200 0.786350 0.107850
0.886400 0.786350 0.107850
0.941600 0.786350 0.107850
0.058400 0.842700 0.107850
0.113600 0.842700 0.107850
0.168800 0.842700 0.107850
0.224000 0.842700 0.107850
0.279200 0.842700 0.107850
0.334400 0.842700 0.107850
0.389600 0.842700 0.107850
0.444800 0.842700 0.107850
0.500000 0.842700 0.107850
0.555200 0.842700 0.107850
0.610400 0.842700 0.107850
0.665600 0.842700 0.107850
0.720800 0.842700 0.107850
0.776000 0.842700 0.107850
0.831200 0.842700 0.107850
0.886400 0.842700 0.107850
0.941600 0.842700 0.107850
0.058400 0.899050 0.107850
0.113600 0.899050 0.107850
0.168800 0.899050 0.107850
0.224000 0.899050 0.107850
0.279200 0.899050 0.107850
0.334400 0.899050 0.107850
0.389600 0.899050 0.107850
0.444800 0.899050 0.107850
0.500000 0.899050 0.107850
0.555200 0.899050 0.107850
0.610400 0.899050 0.107850
0.665600 0.899050 0.107850
0.720800 0.899050 0.107850
0.776000 0.899050 0.107850
0.831200 0.899050 0.107850
0.886400 0.899050 0.107850
0.941600 0.899050 0.107850
0.058400 0.955400 0.107850
0.113600 0.955400 0.107850
0.168800 0.955400 0.107850
0.224000 0.955400 0.107850
0.279200 0.955400 0.107850
0.334400 0.955400 0.107850
0.389600 0.955400 0.107850
0.444800 0.955400 0.107850
0.500000 0.955400 0.107850
0.555200 0.955400 0.107850
0.610400 0.955400 0.107850
0.665600 0.955400 0.107850
0.720800 0.955400 0.107850
0.776000 0.955400 0.107850
0.831200 0.955400 0.107850
0.886400 0.955400 0.107850
0.941600 0.955400 0.107850
0.058400 0.053800 0.166500
0.113600 0.053800 0.166500
0.168800 0.053800 0.166500
0.224000 0.053800 0.166500
0.279200 0.053800 0.166500
0.334400 0.053800 0.166500
0.389600 0.053800 0.166500
0.444800 0.053800 0.166500
0.500000 0.053800 0.166500
0.555200 0.053800 0.166500
0.610400 0.053800 0.166500
0.665600 0.053800 0.166500
0.720800 0.053800 0.166500
0.776000 0.053800 0.166500
0.831200 0.053800 0.166500
0.886400 0.053800 0.166500
0.941600 0.053800 0.166500
0.058400 0.110150 0.166500
0.113600 0.110150 0.166500
0.168800 0.110150 0.166500
0.224000 0.110150 0.166500
0.279200 0.110150 0.166500
0.334400 0.110150 0.166500
0.389600 0.110150 0.166500
0.444800 0.110150 0.166500
0.500000 0.110150 0.166500
0.555200 0.110150 0.166500
0.610400 0.110150 0.166500
0.665600 0.110150 0.166500
0.720800 0.110150 0.166500
0.776000 0.110150 0.166500
0.831200 0.110150 0.166500
0.886400 0.110150 0.166500
0.941600 0.110150 0.166500
0.058400 0.166500 0.166500
0.113600 0.166500 0.166500
0.168800 0.166500 0.166500
0.224000 0.166500 0.166500
0.279200 0.166500 0.166500
0.334400 0.166500 0.166500
0.389600 0.166500 0.166500
0.444800 0.166500 0.166500
0.500000 0.166500 0.166500
0.555200 0.166500 0.166500
0.610400 0.166500 0.166500
0.665600 0.166500 0.166500
0.720800 0.166500 0.166500
0.776000 0.166500 0.166500
0.831200 0.166500 0.166500
0.886400 0.166500 0.166500
0.941600 0.166500 0.166500
0.058400 0.222850 0.166500
0.113600 0.222850 0.166500
0.168800 0.222850 0.166500
0.224000 0.222850 0.166500
0.279200 0.222850 0.166500
0.334400 0.222850 0.166500
0.389600 0.222850 0.166500
0.444800 0.222850 0.166500
0.500000 0.222850 0.166500
0.555200 0.222850 0.166500
0.610400 0.222850 0.166500
0.665600 0.222850 0.166500
0.720800 0.222850 0.166500
0.776000 0.222850 0.166500
0.831200 0.222850 0.166500
0.886400 0.222850 0.166500
0.941600 0.222850 0.166500
0.058400 0.279200 0.166500
0.113600 0.279200 0.166500
0.168800 0.279200 0.166500
0.224000 0.279200 0.166500
0.279200 0.279200 0.166500
0.334400 0.279200 0.166500
0.389600 0.279200 0.166500
0.444800 0.279200 0.166500
0.500000 0.279200 0.166500
0.555200 0.279200 0.166500
0.610400 0.279200 0.166500
0.665600 0.279200 0.166500
0.720800 0.279200 0.166500
0.776000 0.279200 0.166500
0.831200 0.279200 0.166500
0.886400 0.279200 0.166500
0.941600 0.279200 0.166500
0.058400 0.335550 0.166500
0.113600 0.335550 0.166500
0.168800 0.335550 0.166500
0.224000 0.335550 0.166500
0.279200 0.335550 0.166500
0.334400 0.335550 0.166500
0.389600 0.335550 0.166500
0.444800 0.335550 0.166500
0.500000 0.335550 0.166500
0.555200 0.335550 0.166500
0.610400 0.335550 0.166500
0.665600 0.335550 0.166500
0.720800 0.335550 0.166500
0.776000 0.335550 0.166500
0.831200 0.335550 0.166500
0.886400 0.335550 0.166500
0.941600 0.335550 0.166500
0.058400 0.391900 0.166500
0.113600 0.391900 0.166500
0.168800 0.391900 0.166500
0.224000 0.391900 0.166500
0.279200 0.391900 0.166500
0.334400 0.391900 0.166500
0.389600 0.391900 0.166500
0.444800 0.391900 0.166500
0.500000 0.391900 0.166500
0.555200 0.391900 0.166500
0.610400 0.391900 0.166500
0.665600 0.391900 0.166500
0.720800 0.391900 0.166500
0.776000 0.391900 0.166500
0.831200 0.391900 0.166500
0.886400 0.391900 0.166500
0.941600 0.391900 0.166500
0.058400 0.448250 0.166500
0.113600 0.448250 0.166500
0.168800 0.448250 0.166500
0.224000 0.448250 0.166500
0.279200 0.448250 0.166500
0.334400 0.448250 0.166500
0.389600 0.448250 0.166500
0.444800 0.448250 0.166500
0.500000 0.448250 0.166500
0.555200 0.448250 0.166500
0.610400 0.448250 0.166500
0.665600 0.448250 0.166500
0.720800 0.448250 0.166500
0.776000 0.448250 0.166500
0.831200 0.448250 0.166500
0.886400 0.448250 0.166500
0.941600 0.448250 0.166500
0.058400 0.504600 0.166500
0.113600 0.504600 0.166500
0.168800 0.504600 0.166500
0.224000 0.504600 0.166500
0.279200 0.504600 0.166500
0.334400 0.504600 0.166500
0.389600 0.504600 0.166500
0.444800 0.504600 0.166500
0.500000 0.504600 0.166500
0.555200 0.504600 0.166500
0.610400 0.504600 0.166500
0.665600 0.504600 0.166500
0.720800 0.504600 0.166500
0.776000 0.504600 0.166500
0.831200 0.504600 0.166500
0.886400 0.504600 0.166500
0.941600 0.504600 0.166500
0.058400 0.560950 0.166500
0.113600 0.560950 0.166500
0.168800 0.560950 0.166500
0.224000 0.560950 0.166500
0.279200 0.560950 0.166500
0.334400 0.560950 0.166500
0.389600 0.560950 0.166500
0.444800 0.560950 0.166500
0.500000 0.560950 0.166500
0.555200 0.560950 0.166500
0.610400 0.560950 0.166500
0.665600 0.560950 0.166500
0.720800 0.560950 0.166500
0.776000 0.560950 0.166500
0.831200 0.560950 0.166500
0.886400 0.560950 0.166500
0.941600 0.560950 0.166500
0.058400 0.617300 0.166500
0.113600 0.617300 0.166500
0.168800 0.617300 0.166500
0.224000 0.617300 0.166500
0.279200 0.617300 0.166500
0.334400 0.617300 0.166500
0.389600 0.617300 0.166500
0.444800 0.617300 0.166500
0.500000 0.617300 0.166500
0.555200 0.617300 0.166500
0.610400 0.617300 0.166500
0.665600 0.617300 0.166500
0.720800 0.617300 0.166500
0.776000 0.617300 0.166500
0.831200 0.617300 0.166500
0.886400 0.617300 0.166500
0.941600 0.617300 0.166500
0.058400 0.673650 0.166500
0.113600 0.673650 0.166500
0.168800 0.673650 0.166500
0.224000 0.673650 0.166500
0.279200 0.673650 0.166500
0.334400 0.673650 0.166500
0.389600 0.673650 0.166500
0.444800 0.673650 0.166500
0.500000 0.673650 0.166500
0.555200 0.673650 0.166500
0.610400 0.673650 0.166500
0.665600 0.673650 0.166500
0.720800 0.673650 0.166500
0.776000 0.673650 0.166500
0.831200 0.673650 0.166500
0.886400 0.673650 0.166500
0.941600 0.673650 0.166500
0.058400 0.730000 0.166500
0.113600 0.730000 0.166500
0.168800 0.730000 0.166500
0.224000 0.730000 0.166500
0.279200 0.730000 0.166500
0.334400 0.730000 0.166500
0.389600 0.730000 0.166500
0.444800 0.730000 0.166500
0.500000 0.730000 0.166500
0.555200 0.730000 0.166500
0.610400 0.730000 0.166500
0.665600 0.730000 0.166500
0.720800 0.730000 0.166500
0.776000 0.730000 0.166500
0.831200 0.730000 0.166500
0.886400 0.730000 0.166500
0.941600 0.730000 0.166500
0.058400 0.786350 0.166500
0.113600 0.786350 0.166500
0.168800 0.786350 0.166500
0.224000 0.786350 0.166500
0.279200 0.786350 0.166500
0.334400 0.786350 0.166500
0.389600 0.786350 0.166500
0.444800 0.786350 0.166500
0.500000 0.786350 0.166500
0.555200 0.786350 0.166500
0.610400 0.786350 0.166500
0.665600 0.786350 0.166500
0.720800 0.786350 0.166500
0.776000 0.786350 0.166500
0.831200 0.786350 0.166500
0.886400 0.786350 0.166500
0.941600 0.786350 0.166500
0.058400 0.842700 0.166500
0.113600 0.842700 0.166500
0.168800 0.842700 0.166500
0.224000 0.842700 0.166500
0.279200 0.842700 0.166500
0.334400 0.842700 0.166500
0.389600 0.842700 0.166500
0.444800 0.842700 0.166500
0.500000 0.842700 0.166500
0.555200 0.842700 0.166500
0.610400 0.842700 0.166500
0.665600 0.842700 0.166500
0.720800 0.842700 0.166500
0.776000 0.842700 0.166500
0.831200 0.842700 0.166500
0.886400 0.842700 0.166500
0.941600 0.842700 0.166500
0.058400 0.899050 0.166500
0.113600 0.899050 0.166500
0.168800 0.899050 0.166500
0.224000 0.899050 0.166500
0.279200 0.899050 0.166500
0.334400 0.899050 0.166500
0.389600 0.899050 0.166500
0.444800 0.899050 0.166500
0.500000 0.899050 0.166500
0.555200 0.899050 0.166500
0.610400 0.899050 0.166500
0.665600 0.899050 0.166500
0.720800 0.899050 0.166500
0.776000 0.899050 0.166500
0.831200 0.899050 0.166500
0.886400 0.899050 0.166500
0.941600 0.899050 0.166500
0.058400 0.955400 0.166500
0.113600 0.955400 0.166500
0.168800 0.955400 0.166500
0.224000 0.955400 0.166500
0.279200 0.955400 0.166500
0.334400 0.955400 0.166500
0.389600 0.955400 0.166500
0.444800 0.955400 0.166500
0.500000 0.955400 0.166500
0.555200 0.955400 0.166500
0.610400 0.955400 0.166500
0.665600 0.955400 0.166500
0.720800 0.955400 0.166500
0.776000 0.955400 0.166500
0.831200 0.955400 0.166500
0.886400 0.955400 0.166500
0.941600 0.955400 0.166500
0.058400 0.053800 0.225150
0.113600 0.053800 0.225150
0.168800 0.053800 0.225150
0.224000 0.053800 0.225150
0.279200 0.053800 0.225150
0.334400 0.053800 0.225150
0.389600 0.053800 0.225150
0.444800 0.053800 0.225150
0.500000 0.053800 0.225150
0.555200 0.053800 0.225150
0.610400 0.053800 0.225150
0.665600 0.053800 0.225150
0.720800 0.053800 0.225150
0.776000 0.053800 0.225150
0.831200 0.053800 0.225150
0.886400 0.053800 0.225150
0.941600 0.053800 0.225150
0.058400 0.110150 0.225150
0.113600 0.110150 0.225150
0.168800 0.110150 0.225150
