RapidRAW-Android/app/src/main/assets/built_in_luts/fuji_superia_400.cube
TITLE "Fuji Superia 400"
LUT_3D_SIZE 9
0.000000 0.028975 0.000000
0.123122 0.027865 0.000000
0.251305 0.026754 0.000000
0.377400 0.025640 0.000000
0.502179 0.024525 0.000000
0.625997 0.023407 0.000000
0.749056 0.022287 0.000000
0.871490 0.021165 0.000000
0.993393 0.020040 0.000000
0.000000 0.158352 0.000000
0.124509 0.157319 0.000000
0.252663 0.156285 0.000000
0.378741 0.155252 0.000000
0.503508 0.154218 0.000000
0.627316 0.153183 0.000000
0.750368 0.152149 0.000000
0.872796 0.151114 0.000000
0.994694 0.150078 0.000000
0.000000 0.282793 0.000000
0.125896 0.281784 0.000000
0.254020 0.280776 0.000000
0.380081 0.279767 0.000000
0.504837 0.278758 0.000000
0.628636 0.277749 0.000000
0.751681 0.276740 0.000000
0.874102 0.275730 0.000000
0.995995 0.274721 0.000000
0.000000 0.404912 0.000000
0.127283 0.403918 0.000000
0.255377 0.402925 0.000000
0.381421 0.401931 0.000000
0.506165 0.400937 0.000000
0.629955 0.399944 0.000000
0.752993 0.398950 0.000000
0.875409 0.397955 0.000000
0.997296 0.396961 0.000000
0.000000 0.525491 0.000000
0.128669 0.524508 0.000000
0.256734 0.523525 0.000000
0.382761 0.522542 0.000000
0.507494 0.521559 0.000000
0.631275 0.520576 0.000000
0.754305 0.519593 0.000000
0.876715 0.518610 0.000000
0.998596 0.517627 0.000000
0.000000 0.644917 0.000000
0.130055 0.643943 0.000000
0.258090 0.642968 0.000000
0.384101 0.641994 0.000000
0.508822 0.641019 0.000000
0.632594 0.640045 0.000000
0.755617 0.639070 0.000000
0.878021 0.638095 0.000000
0.999897 0.637120 0.000000
0.000000 0.763424 0.000000
0.131440 0.762456 0.000000
0.259447 0.761488 0.000000
0.385441 0.760521 0.000000
0.510150 0.759553 0.000000
0.633875 0.758680 0.000000
0.756501 0.758680 0.000000
0.878512 0.758680 0.000000
1.000000 0.758680 0.000000
0.000000 0.881165 0.000000
0.132825 0.880203 0.000000
0.260616 0.879686 0.000000
0.386198 0.879686 0.000000
0.510506 0.879686 0.000000
0.633875 0.879686 0.000000
0.756501 0.879686 0.000000
0.878512 0.879686 0.000000
1.000000 0.879686 0.000000
0.000000 1.000000 0.000000
0.133046 1.000000 0.000000
0.260616 1.000000 0.000000
0.386198 1.000000 0.000000
0.510506 1.000000 0.000000
0.633875 1.000000 0.000000
0.756501 1.000000 0.000000
0.878512 1.000000 0.000000
1.000000 1.000000 0.000000
0.000000 0.028598 0.115173
0.123262 0.027488 0.115785
0.251443 0.026376 0.116397
0.377535 0.025262 0.117010
0.502313 0.024145 0.117622
0.626130 0.023027 0.118234
0.749188 0.021906 0.118846
0.871622 0.020783 0.119458
0.993524 0.019658 0.120070
0.000000 0.158001 0.117233
0.124649 0.156968 0.117845
0.252800 0.155934 0.118457
0.378876 0.154900 0.119069
0.503642 0.153866 0.119681
0.627449 0.152832 0.120293
0.750501 0.151797 0.120904
0.872928 0.150762 0.121516
0.994825 0.149727 0.122128
0.000000 0.282450 0.119292
0.126036 0.281442 0.119904
0.254157 0.280433 0.120515
0.380216 0.279424 0.121127
0.504971 0.278415 0.121739
0.628769 0.277406 0.122351
0.751813 0.276397 0.122962
0.874234 0.275387 0.123574
0.996126 0.274378 0.124185
0.000000 0.404575 0.121350
0.127423 0.403581 0.121962
0.255514 0.402587 0.122573
0.381556 0.401594 0.123185
0.506299 0.400600 0.123796
0.630089 0.399606 0.124408
0.753125 0.398612 0.125019
0.875540 0.397618 0.125631
0.997427 0.396624 0.126242
0.000000 0.525157 0.123408
0.128809 0.524174 0.124019
0.256871 0.523192 0.124631
0.382897 0.522209 0.125242
0.507628 0.521226 0.125853
0.631408 0.520243 0.126464
0.754437 0.519259 0.127076
0.876847 0.518276 0.127687
0.998728 0.517293 0.128298
0.000000 0.644586 0.125464
0.130195 0.643612 0.126076
0.258227 0.642637 0.126687
0.384236 0.641663 0.127298
0.508956 0.640688 0.127909
0.632727 0.639714 0.128520
0.755750 0.638739 0.129131
0.878153 0.637764 0.129742
1.000000 0.636861 0.130308
0.000000 0.763095 0.127521
0.131580 0.762127 0.128132
0.259584 0.761160 0.128743
0.385576 0.760192 0.129354
0.510284 0.759224 0.129965
0.633875 0.758680 0.130308
0.756501 0.758680 0.130308
0.878512 0.758680 0.130308
1.000000 0.758680 0.130308
0.000000 0.880839 0.129576
0.132965 0.879877 0.130187
0.260616 0.879686 0.130308
0.386198 0.879686 0.130308
0.510506 0.879686 0.130308
0.633875 0.879686 0.130308
0.756501 0.879686 0.130308
0.878512 0.879686 0.130308
1.000000 0.879686 0.130308
0.000000 1.000000 0.130308
0.133046 1.000000 0.130308
0.260616 1.000000 0.130308
0.386198 1.000000 0.130308
0.510506 1.000000 0.130308
0.633875 1.000000 0.130308
0.756501 1.000000 0.130308
0.878512 1.000000 0.130308
1.000000 1.000000 0.130308
0.000000 0.028221 0.242316
0.123402 0.027110 0.242919
0.251580 0.025998 0.243522
0.377671 0.024883 0.244125
0.502448 0.023766 0.244728
0.626263 0.022647 0.245331
0.749321 0.021525 0.245934
0.871754 0.020401 0.246537
0.993655 0.019275 0.247140
0.000000 0.157650 0.244345
0.124789 0.156617 0.244948
0.252937 0.155583 0.245551
0.379011 0.154549 0.246154
0.503776 0.153515 0.246757
0.627583 0.152481 0.247360
0.750633 0.151446 0.247962
0.873060 0.150411 0.248565
0.994956 0.149375 0.249168
0.000000 0.282108 0.246373
0.126176 0.281099 0.246976
0.254294 0.280090 0.247579
0.380352 0.279082 0.248182
0.505105 0.278072 0.248785
0.628902 0.277063 0.249388
0.751945 0.276054 0.249990
0.874366 0.275044 0.250593
0.996257 0.274035 0.251196
0.000000 0.404237 0.248401
0.127563 0.403244 0.249004
0.255651 0.402250 0.249607
0.381692 0.401256 0.250210
0.506433 0.400262 0.250813
0.630222 0.399268 0.251415
0.753258 0.398274 0.252018
0.875672 0.397280 0.252621
0.997558 0.396286 0.253223
0.000000 0.524823 0.250429
0.128949 0.523841 0.251032
0.257008 0.522858 0.251635
0.383032 0.521875 0.252238
0.507762 0.520892 0.252840
0.631541 0.519909 0.253443
0.754570 0.518926 0.254045
0.876978 0.517942 0.254648
0.998859 0.516959 0.255251
0.000000 0.644255 0.252457
0.130335 0.643281 0.253060
0.258364 0.642307 0.253662
0.384372 0.641332 0.254265
0.509090 0.640357 0.254867
0.632861 0.639383 0.255470
0.755882 0.638408 0.256073
0.878284 0.637433 0.256675
1.000000 0.636861 0.257028
0.000000 0.762766 0.254484
0.131720 0.761799 0.255087
0.259720 0.760831 0.255689
0.385711 0.759864 0.256292
0.510418 0.758896 0.256894
0.633875 0.758680 0.257028
0.756501 0.758680 0.257028
0.878512 0.758680 0.257028
1.000000 0.758680 0.257028
0.000000 0.880512 0.256511
0.133046 0.879686 0.257028
0.260616 0.879686 0.257028
0.386198 0.879686 0.257028
0.510506 0.879686 0.257028
0.633875 0.879686 0.257028
0.756501 0.879686 0.257028
0.878512 0.879686 0.257028
1.000000 0.879686 0.257028
0.000000 1.000000 0.257028
0.133046 1.000000 0.257028
0.260616 1.000000 0.257028
0.386198 1.000000 0.257028
0.510506 1.000000 0.257028
0.633875 1.000000 0.257028
0.756501 1.000000 0.257028
0.878512 1.000000 0.257028
1.000000 1.000000 0.257028
0.000000 0.027844 0.368041
0.123542 0.026733 0.368639
0.251717 0.025619 0.369237
0.377806 0.024504 0.369835
0.502582 0.023386 0.370433
0.626396 0.022266 0.371031
0.749453 0.021144 0.371629
0.871886 0.020019 0.372227
0.993787 0.018892 0.372825
0.000000 0.157299 0.370053
0.124929 0.156266 0.370651
0.253074 0.155232 0.371249
0.379147 0.154198 0.371847
0.503910 0.153164 0.372444
0.627716 0.152129 0.373042
0.750766 0.151094 0.373640
0.873192 0.150059 0.374238
0.995088 0.149023 0.374836
0.000000 0.281765 0.372064
0.126316 0.280757 0.372662
0.254431 0.279748 0.373260
0.380487 0.278739 0.373858
0.505239 0.277730 0.374456
0.629035 0.276721 0.375054
0.752078 0.275711 0.375651
0.874498 0.274702 0.376249
0.996389 0.273692 0.376847
0.000000 0.403900 0.374076
0.127703 0.402906 0.374673
0.255788 0.401912 0.375271
0.381827 0.400919 0.375869
0.506567 0.399925 0.376467
0.630355 0.398931 0.377065
0.753390 0.397937 0.377662
0.875804 0.396943 0.378260
0.997689 0.395948 0.378858
0.000000 0.524490 0.376087
0.129089 0.523507 0.376684
0.257145 0.522524 0.377282
0.383167 0.521541 0.377880
0.507896 0.520558 0.378478
0.631674 0.519575 0.379075
0.754702 0.518592 0.379673
0.877110 0.517608 0.380271
0.998990 0.516625 0.380868
0.000000 0.643924 0.378098
0.130474 0.642950 0.378695
0.258501 0.641976 0.379293
0.384507 0.641001 0.379891
0.509224 0.640026 0.380488
0.632994 0.639052 0.381086
0.756014 0.638077 0.381684
0.878416 0.637102 0.382281
1.000000 0.636861 0.382429
0.000000 0.762438 0.380108
0.131860 0.761470 0.380706
0.259857 0.760503 0.381304
0.385847 0.759535 0.381901
0.510506 0.758680 0.382429
0.633875 0.758680 0.382429
0.756501 0.758680 0.382429
0.878512 0.758680 0.382429
1.000000 0.758680 0.382429
0.000000 0.880185 0.382119
0.133046 0.879686 0.382429
0.260616 0.879686 0.382429
0.386198 0.879686 0.382429
0.510506 0.879686 0.382429
0.633875 0.879686 0.382429
0.756501 0.879686 0.382429
0.878512 0.879686 0.382429
1.000000 0.879686 0.382429
0.000000 1.000000 0.382429
0.133046 1.000000 0.382429
0.260616 1.000000 0.382429
0.386198 1.000000 0.382429
0.510506 1.000000 0.382429
0.633875 1.000000 0.382429
0.756501 1.000000 0.382429
0.878512 1.000000 0.382429
1.000000 1.000000 0.382429
0.000000 0.027467 0.492878
0.123682 0.026355 0.493472
0.251854 0.025241 0.494067
0.377941 0.024124 0.494661
0.502716 0.023006 0.495255
0.626529 0.021885 0.495850
0.749586 0.020762 0.496444
0.872017 0.019637 0.497039
0.993918 0.018508 0.497633
0.000000 0.156948 0.494877
0.125069 0.155915 0.495472
0.253211 0.154881 0.496066
0.379282 0.153847 0.496661
0.504045 0.152812 0.497255
0.627849 0.151778 0.497850
0.750898 0.150743 0.498444
0.873324 0.149707 0.499038
0.995219 0.148672 0.499633
0.000000 0.281423 0.496877
0.126456 0.280414 0.497472
0.254568 0.279405 0.498066
0.380622 0.278396 0.498660
0.505373 0.277387 0.499255
0.629169 0.276378 0.499849
0.752210 0.275368 0.500443
0.874630 0.274359 0.501038
0.996520 0.273349 0.501632
0.000000 0.403562 0.498877
0.127843 0.402569 0.499471
0.255925 0.401575 0.500065
0.381962 0.400581 0.500660
0.506702 0.399587 0.501254
0.630488 0.398593 0.501848
0.753523 0.397599 0.502443
0.875936 0.396605 0.503037
0.997821 0.395611 0.503631
0.000000 0.524156 0.500876
0.129229 0.523173 0.501470
0.257282 0.522190 0.502065
0.383302 0.521207 0.502659
0.508030 0.520224 0.503253
0.631808 0.519241 0.503847
0.754835 0.518258 0.504442
0.877242 0.517274 0.505036
0.999122 0.516291 0.505630
0.000000 0.643594 0.502875
0.130614 0.642619 0.503470
0.258638 0.641645 0.504064
0.384642 0.640670 0.504658
0.509358 0.639695 0.505252
0.633127 0.638721 0.505846
0.756147 0.637746 0.506441
0.878512 0.636861 0.506980
1.000000 0.636861 0.506980
0.000000 0.762109 0.504874
0.131999 0.761142 0.505468
0.259994 0.760174 0.506063
0.385982 0.759206 0.506657
0.510506 0.758680 0.506980
0.633875 0.758680 0.506980
0.756501 0.758680 0.506980
0.878512 0.758680 0.506980
1.000000 0.758680 0.506980
0.000000 0.879859 0.506873
0.133046 0.879686 0.506980
0.260616 0.879686 0.506980
0.386198 0.879686 0.506980
0.510506 0.879686 0.506980
0.633875 0.879686 0.506980
0.756501 0.879686 0.506980
0.878512 0.879686 0.506980
1.000000 0.879686 0.506980
0.000000 1.000000 0.506980
0.133046 1.000000 0.506980
0.260616 1.000000 0.506980
0.386198 1.000000 0.506980
0.510506 1.000000 0.506980
0.633875 1.000000 0.506980
0.756501 1.000000 0.506980
0.878512 1.000000 0.506980
1.000000 1.000000 0.506980
0.000000 0.027090 0.617065
0.123822 0.025977 0.617657
0.251991 0.024862 0.618249
0.378077 0.023745 0.618840
0.502850 0.022626 0.619432
0.626663 0.021504 0.620024
0.749718 0.020380 0.620616
0.872149 0.019254 0.621207
0.994049 0.018124 0.621799
0.000000 0.156597 0.619056
0.125209 0.155564 0.619648
0.253348 0.154530 0.620239
0.379417 0.153496 0.620831
0.504179 0.152461 0.621423
0.627982 0.151426 0.622014
0.751031 0.150391 0.622606
0.873456 0.149356 0.623198
0.995350 0.148320 0.623789
0.000000 0.281080 0.621047
0.126596 0.280071 0.621638
0.254705 0.279063 0.622230
0.380757 0.278053 0.622822
0.505507 0.277044 0.623413
0.629302 0.276035 0.624005
0.752343 0.275025 0.624597
0.874762 0.274016 0.625188
0.996651 0.273006 0.625780
0.000000 0.403225 0.623037
0.127983 0.402231 0.623629
0.256062 0.401237 0.624220
0.382098 0.400244 0.624812
0.506836 0.399250 0.625404
0.630621 0.398256 0.625995
0.753655 0.397261 0.626587
0.876068 0.396267 0.627178
0.997952 0.395273 0.627770
0.000000 0.523822 0.625027
0.129369 0.522839 0.625619
0.257419 0.521856 0.626211
0.383438 0.520873 0.626802
0.508164 0.519890 0.627394
0.631941 0.518907 0.627985
0.754967 0.517924 0.628577
0.877374 0.516940 0.629168
0.999253 0.515957 0.629760
0.000000 0.643263 0.627018
0.130754 0.642288 0.627609
0.258775 0.641314 0.628201
0.384777 0.640339 0.628792
0.509492 0.639364 0.629384
0.633260 0.638390 0.629975
0.756279 0.637415 0.630567
0.878512 0.636861 0.630903
1.000000 0.636861 0.630903
0.000000 0.761781 0.629008
0.132139 0.760813 0.629599
0.260131 0.759845 0.630191
0.386117 0.758878 0.630782
0.510506 0.758680 0.630903
0.633875 0.758680 0.630903
0.756501 0.758680 0.630903
0.878512 0.758680 0.630903
1.000000 0.758680 0.630903
0.000000 0.879686 0.630903
0.133046 0.879686 0.630903
0.260616 0.879686 0.630903
0.386198 0.879686 0.630903
0.510506 0.879686 0.630903
0.633875 0.879686 0.630903
0.756501 0.879686 0.630903
0.878512 0.879686 0.630903
1.000000 0.879686 0.630903
0.000000 1.000000 0.630903
0.133046 1.000000 0.630903
0.260616 1.000000 0.630903
0.386198 1.000000 0.630903
0.510506 1.000000 0.630903
0.633875 1.000000 0.630903
0.756501 1.000000 0.630903
0.878512 1.000000 0.630903
1.000000 1.000000 0.630903
0.000000 0.026712 0.740741
0.123962 0.025598 0.741331
0.252128 0.024483 0.741920
0.378212 0.023365 0.742510
0.502984 0.022245 0.743099
0.626796 0.021123 0.743689
0.749851 0.019998 0.744279
0.872281 0.018871 0.744868
0.994181 0.017740 0.745458
0.000000 0.156246 0.742725
0.125350 0.155213 0.743314
0.253485 0.154179 0.743904
0.379552 0.153144 0.744493
0.504313 0.152110 0.745083
0.628116 0.151075 0.745672
0.751163 0.150039 0.746262
0.873587 0.149004 0.746851
0.995482 0.147968 0.747441
0.000000 0.280738 0.744708
0.126736 0.279729 0.745297
0.254842 0.278720 0.745887
0.380893 0.277711 0.746476
0.505641 0.276702 0.747066
0.629435 0.275692 0.747655
0.752475 0.274683 0.748245
0.874894 0.273673 0.748834
0.996783 0.272663 0.749424
0.000000 0.402887 0.746691
0.128123 0.401894 0.747280
0.256199 0.400900 0.747870
0.382233 0.399906 0.748459
0.506970 0.398912 0.749049
0.630755 0.397918 0.749638
0.753788 0.396924 0.750228
0.876200 0.395930 0.750817
0.998083 0.394935 0.751406
0.000000 0.523488 0.748674
0.129509 0.522505 0.749263
0.257556 0.521522 0.749853
0.383573 0.520539 0.750442
0.508298 0.519556 0.751032
0.632074 0.518573 0.751621
0.755100 0.517590 0.752210
0.877506 0.516606 0.752800
0.999384 0.515623 0.753389
0.000000 0.642932 0.750657
0.130894 0.641957 0.751246
0.258912 0.640983 0.751836
0.384913 0.640008 0.752425
0.509626 0.639033 0.753014
0.633393 0.638059 0.753604
0.756412 0.637084 0.754193
0.878512 0.636861 0.754328
1.000000 0.636861 0.754328
0.000000 0.761452 0.752640
0.132279 0.760484 0.753229
0.260268 0.759517 0.753818
0.386198 0.758680 0.754328
0.510506 0.758680 0.754328
0.633875 0.758680 0.754328
0.756501 0.758680 0.754328
0.878512 0.758680 0.754328
1.000000 0.758680 0.754328
0.000000 0.879686 0.754328
0.133046 0.879686 0.754328
0.260616 0.879686 0.754328
0.386198 0.879686 0.754328
0.510506 0.879686 0.754328
0.633875 0.879686 0.754328
0.756501 0.879686 0.754328
0.878512 0.879686 0.754328
1.000000 0.879686 0.754328
0.000000 1.000000 0.754328
0.133046 1.000000 0.754328
0.260616 1.000000 0.754328
0.386198 1.000000 0.754328
0.510506 1.000000 0.754328
0.633875 1.000000 0.754328
0.756501 1.000000 0.754328
0.878512 1.000000 0.754328
1.000000 1.000000 0.754328
0.000000 0.026334 0.863995
0.124102 0.025220 0.864583
0.252265 0.024103 0.865171
0.378347 0.022985 0.865758
0.503118 0.021864 0.866346
0.626929 0.020741 0.866934
0.749983 0.019615 0.867521
0.872413 0.018487 0.868109
0.994312 0.017356 0.868697
0.000000 0.155895 0.865972
0.125490 0.154862 0.866560
0.253622 0.153827 0.867148
0.379688 0.152793 0.867735
0.504447 0.151758 0.868323
0.628249 0.150723 0.868911
0.751296 0.149688 0.869498
0.873719 0.148652 0.870086
0.995613 0.147616 0.870674
0.000000 0.280395 0.867949
0.126876 0.279386 0.868537
0.254979 0.278377 0.869125
0.381028 0.277368 0.869712
0.505775 0.276359 0.870300
0.629568 0.275349 0.870888
0.752608 0.274340 0.871475
0.875025 0.273330 0.872063
0.996914 0.272320 0.872651
0.000000 0.402550 0.869926
0.128263 0.401556 0.870514
0.256336 0.400562 0.871102
0.382368 0.399569 0.871689
0.507104 0.398575 0.872277
0.630888 0.397580 0.872864
0.753920 0.396586 0.873452
0.876332 0.395592 0.874040
0.998215 0.394597 0.874627
0.000000 0.523155 0.871903
0.129648 0.522172 0.872491
0.257692 0.521189 0.873078
0.383708 0.520206 0.873666
0.508432 0.519222 0.874254
0.632207 0.518239 0.874841
0.755232 0.517256 0.875429
0.877638 0.516273 0.876016
0.999516 0.515289 0.876604
0.000000 0.642601 0.873880
0.131034 0.641626 0.874468
0.259049 0.640652 0.875055
0.385048 0.639677 0.875643
0.509760 0.638702 0.876230
0.633526 0.637728 0.876818
0.756501 0.636861 0.877340
0.878512 0.636861 0.877340
1.000000 0.636861 0.877340
0.000000 0.761123 0.875857
0.132419 0.760156 0.876444
0.260405 0.759188 0.877032
0.386198 0.758680 0.877340
0.510506 0.758680 0.877340
0.633875 0.758680 0.877340
0.756501 0.758680 0.877340
0.878512 0.758680 0.877340
1.000000 0.758680 0.877340
0.000000 0.879686 0.877340
0.133046 0.879686 0.877340
0.260616 0.879686 0.877340
0.386198 0.879686 0.877340
0.510506 0.879686 0.877340
0.633875 0.879686 0.877340
0.756501 0.879686 0.877340
0.878512 0.879686 0.877340
1.000000 0.879686 0.877340
0.000000 1.000000 0.877340
0.133046 1.000000 0.877340
0.260616 1.000000 0.877340
0.386198 1.000000 0.877340
0.510506 1.000000 0.877340
0.633875 1.000000 0.877340
0.756501 1.000000 0.877340
0.878512 1.000000 0.877340
1.000000 1.000000 0.877340
0.000000 0.025956 0.986890
0.124242 0.024841 0.987476
0.252402 0.023724 0.988063
0.378483 0.022605 0.988649
0.503252 0.021483 0.989235
0.627062 0.020359 0.989821
0.750116 0.019232 0.990407
0.872545 0.018103 0.990993
0.994443 0.016971 0.991579
0.000000 0.155544 0.988862
0.125630 0.154510 0.989448
0.253759 0.153476 0.990034
0.379823 0.152442 0.990620
0.504581 0.151407 0.991206
0.628382 0.150372 0.991792
0.751428 0.149336 0.992379
0.873851 0.148300 0.992965
0.995744 0.147264 0.993551
0.000000 0.280052 0.990834
0.127016 0.279044 0.991420
0.255116 0.278035 0.992006
0.381163 0.277025 0.992592
0.505910 0.276016 0.993178
0.629702 0.275006 0.993764
0.752740 0.273997 0.994350
0.875157 0.272987 0.994936
0.997045 0.271977 0.995522
0.000000 0.402213 0.992805
0.128403 0.401219 0.993391
0.256473 0.400225 0.993977
0.382503 0.399231 0.994563
0.507238 0.398237 0.995149
0.631021 0.397243 0.995736
0.754053 0.396248 0.996322
0.876463 0.395254 0.996908
0.998346 0.394260 0.997494
0.000000 0.522821 0.994777
0.129788 0.521838 0.995363
0.257829 0.520855 0.995949
0.383843 0.519872 0.996535
0.508566 0.518889 0.997121
0.632340 0.517905 0.997707
0.755365 0.516922 0.998293
0.877770 0.515939 0.998879
0.999647 0.514955 0.999465
0.000000 0.642270 0.996748
0.131174 0.641295 0.997334
0.259186 0.640321 0.997920
0.385183 0.639346 0.998506
0.509894 0.638371 0.999092
0.633660 0.637396 0.999678
0.756501 0.636861 1.000000
0.878512 0.636861 1.000000
1.000000 0.636861 1.000000
0.000000 0.760795 0.998720
0.132559 0.759827 0.999306
0.260542 0.758859 0.999892
0.386198 0.758680 1.000000
0.510506 0.758680 1.000000
0.633875 0.758680 1.000000
0.756501 0.758680 1.000000
0.878512 0.758680 1.000000
1.000000 0.758680 1.000000
0.000000 0.879686 1.000000
0.133046 0.879686 1.000000
0.260616 0.879686 1.000000
0.386198 0.879686 1.000000
0.510506 0.879686 1.000000
0.633875 0.879686 1.000000
0.756501 0.879686 1.000000
0.878512 0.879686 1.000000
1.000000 0.879686 1.000000
0.000000 1.000000 1.000000
0.133046 1.000000 1.000000
0.260616 1.000000 1.000000
0.386198 1.000000 1.000000
0.510506 1.000000 1.000000
0.633875 1.000000 1.000000
0.756501 1.000000 1.000000
0.878512 1.000000 1.000000
1.000000 1.000000 1.000000
