RapidRAW-Android/app/src/main/assets/built_in_luts/fuji_velvia_50.cube
TITLE "Fuji Velvia 50"
LUT_3D_SIZE 17
0.000000 0.000000 0.000000
0.087171 0.000000 0.000000
0.160428 0.000000 0.000000
0.229214 0.000000 0.000000
0.295248 0.000000 0.000000
0.359309 0.000000 0.000000
0.421840 0.000000 0.000000
0.483126 0.000000 0.000000
0.543367 0.000000 0.000000
0.602709 0.000000 0.000000
0.661263 0.000000 0.000000
0.719118 0.000000 0.000000
0.776343 0.000000 0.000000
0.832999 0.000000 0.000000
0.889134 0.000000 0.000000
0.944789 0.000000 0.000000
1.000000 0.000000 0.000000
0.000000 0.087171 0.000000
0.087171 0.087171 0.000000
0.160428 0.080214 0.000000
0.229214 0.076405 0.000000
0.295248 0.073812 0.000000
0.359309 0.071862 0.000000
0.421840 0.070307 0.000000
0.483126 0.069018 0.000000
0.543367 0.067921 0.000000
0.602709 0.066968 0.000000
0.661263 0.066126 0.000000
0.719118 0.065374 0.000000
0.776343 0.064695 0.000000
0.832999 0.064077 0.000000
0.889134 0.063510 0.000000
0.944789 0.062986 0.000000
1.000000 0.062500 0.000000
0.000000 0.160428 0.000000
0.080214 0.160428 0.000000
0.160428 0.160428 0.000000
0.229214 0.152809 0.000000
0.295248 0.147624 0.000000
0.359309 0.143724 0.000000
0.421840 0.140613 0.000000
0.483126 0.138036 0.000000
0.543367 0.135842 0.000000
0.602709 0.133935 0.000000
0.661263 0.132253 0.000000
0.719118 0.130749 0.000000
0.776343 0.129391 0.000000
0.832999 0.128154 0.000000
0.889134 0.127019 0.000000
0.944789 0.125972 0.000000
1.000000 0.125000 0.000000
0.000000 0.229214 0.000000
0.076405 0.229214 0.000000
0.152809 0.229214 0.000000
0.229214 0.229214 0.000000
0.295248 0.221436 0.000000
0.359309 0.215585 0.000000
0.421840 0.210920 0.000000
0.483126 0.207054 0.000000
0.543367 0.203763 0.000000
0.602709 0.200903 0.000000
0.661263 0.198379 0.000000
0.719118 0.196123 0.000000
0.776343 0.194086 0.000000
0.832999 0.192231 0.000000
0.889134 0.190529 0.000000
0.944789 0.188958 0.000000
1.000000 0.187500 0.000000
0.000000 0.295248 0.000000
0.073812 0.295248 0.000000
0.147624 0.295248 0.000000
0.221436 0.295248 0.000000
0.295248 0.295248 0.000000
0.359309 0.287447 0.000000
0.421840 0.281227 0.000000
0.483126 0.276072 0.000000
0.543367 0.271684 0.000000
0.602709 0.267871 0.000000
0.661263 0.264505 0.000000
0.719118 0.261497 0.000000
0.776343 0.258781 0.000000
0.832999 0.256307 0.000000
0.889134 0.254038 0.000000
0.944789 0.251944 0.000000
1.000000 0.250000 0.000000
0.000000 0.359309 0.000000
0.071862 0.359309 0.000000
0.143724 0.359309 0.000000
0.215585 0.359309 0.000000
0.287447 0.359309 0.000000
0.359309 0.359309 0.000000
0.421840 0.351533 0.000000
0.483126 0.345090 0.000000
0.543367 0.339605 0.000000
0.602709 0.334838 0.000000
0.661263 0.330632 0.000000
0.719118 0.326872 0.000000
0.776343 0.323476 0.000000
0.832999 0.320384 0.000000
0.889134 0.317548 0.000000
0.944789 0.314930 0.000000
1.000000 0.312500 0.000000
0.000000 0.421840 0.000000
0.070307 0.421840 0.000000
0.140613 0.421840 0.000000
0.210920 0.421840 0.000000
0.281227 0.421840 0.000000
0.351533 0.421840 0.000000
0.421840 0.421840 0.000000
0.483126 0.414108 0.000000
0.543367 0.407526 0.000000
0.602709 0.401806 0.000000
0.661263 0.396758 0.000000
0.719118 0.392246 0.000000
0.776343 0.388172 0.000000
0.832999 0.384461 0.000000
0.889134 0.381057 0.000000
0.944789 0.377916 0.000000
1.000000 0.375000 0.000000
0.000000 0.483126 0.000000
0.069018 0.483126 0.000000
0.138036 0.483126 0.000000
0.207054 0.483126 0.000000
0.276072 0.483126 0.000000
0.345090 0.483126 0.000000
0.414108 0.483126 0.000000
0.483126 0.483126 0.000000
0.543367 0.475447 0.000000
0.602709 0.468774 0.000000
0.661263 0.462884 0.000000
0.719118 0.457620 0.000000
0.776343 0.452867 0.000000
0.832999 0.448538 0.000000
0.889134 0.444567 0.000000
0.944789 0.440901 0.000000
1.000000 0.437500 0.000000
0.000000 0.543367 0.000000
0.067921 0.543367 0.000000
0.135842 0.543367 0.000000
0.203763 0.543367 0.000000
0.271684 0.543367 0.000000
0.339605 0.543367 0.000000
0.407526 0.543367 0.000000
0.475447 0.543367 0.000000
0.543367 0.543367 0.000000
0.602709 0.535742 0.000000
0.661263 0.529011 0.000000
0.719118 0.522995 0.000000
0.776343 0.517562 0.000000
0.832999 0.512615 0.000000
0.889134 0.508076 0.000000
0.944789 0.503887 0.000000
1.000000 0.500000 0.000000
0.000000 0.602709 0.000000
0.066968 0.602709 0.000000
0.133935 0.602709 0.000000
0.200903 0.602709 0.000000
0.267871 0.602709 0.000000
0.334838 0.602709 0.000000
0.401806 0.602709 0.000000
0.468774 0.602709 0.000000
0.535742 0.602709 0.000000
0.602709 0.602709 0.000000
0.661263 0.595137 0.000000
0.719118 0.588369 0.000000
0.776343 0.582258 0.000000
0.832999 0.576692 0.000000
0.889134 0.571586 0.000000
0.944789 0.566873 0.000000
1.000000 0.562500 0.000000
0.000000 0.661263 0.000000
0.066126 0.661263 0.000000
0.132253 0.661263 0.000000
0.198379 0.661263 0.000000
0.264505 0.661263 0.000000
0.330632 0.661263 0.000000
0.396758 0.661263 0.000000
0.462884 0.661263 0.000000
0.529011 0.661263 0.000000
0.595137 0.661263 0.000000
0.661263 0.661263 0.000000
0.719118 0.653743 0.000000
0.776343 0.646953 0.000000
0.832999 0.640769 0.000000
0.889134 0.635096 0.000000
0.944789 0.629859 0.000000
1.000000 0.625000 0.000000
0.000000 0.719118 0.000000
0.065374 0.719118 0.000000
0.130749 0.719118 0.000000
0.196123 0.719118 0.000000
0.261497 0.719118 0.000000
0.326872 0.719118 0.000000
0.392246 0.719118 0.000000
0.457620 0.719118 0.000000
0.522995 0.719118 0.000000
0.588369 0.719118 0.000000
0.653743 0.719118 0.000000
0.719118 0.719118 0.000000
0.776343 0.711648 0.000000
0.832999 0.704845 0.000000
0.889134 0.698605 0.000000
0.944789 0.692845 0.000000
1.000000 0.687500 0.000000
0.000000 0.776343 0.000000
0.064695 0.776343 0.000000
0.129391 0.776343 0.000000
0.194086 0.776343 0.000000
0.258781 0.776343 0.000000
0.323476 0.776343 0.000000
0.388172 0.776343 0.000000
0.452867 0.776343 0.000000
0.517562 0.776343 0.000000
0.582258 0.776343 0.000000
0.646953 0.776343 0.000000
0.711648 0.776343 0.000000
0.776343 0.776343 0.000000
0.832999 0.768922 0.000000
0.889134 0.762115 0.000000
0.944789 0.755831 0.000000
1.000000 0.750000 0.000000
0.000000 0.832999 0.000000
0.064077 0.832999 0.000000
0.128154 0.832999 0.000000
0.192231 0.832999 0.000000
0.256307 0.832999 0.000000
0.320384 0.832999 0.000000
0.384461 0.832999 0.000000
0.448538 0.832999 0.000000
0.512615 0.832999 0.000000
0.576692 0.832999 0.000000
0.640769 0.832999 0.000000
0.704845 0.832999 0.000000
0.768922 0.832999 0.000000
0.832999 0.832999 0.000000
0.889134 0.825624 0.000000
0.944789 0.818817 0.000000
1.000000 0.812500 0.000000
0.000000 0.889134 0.000000
0.063510 0.889134 0.000000
0.127019 0.889134 0.000000
0.190529 0.889134 0.000000
0.254038 0.889134 0.000000
0.317548 0.889134 0.000000
0.381057 0.889134 0.000000
0.444567 0.889134 0.000000
0.508076 0.889134 0.000000
0.571586 0.889134 0.000000
0.635096 0.889134 0.000000
0.698605 0.889134 0.000000
0.762115 0.889134 0.000000
0.825624 0.889134 0.000000
0.889134 0.889134 0.000000
0.944789 0.881803 0.000000
1.000000 0.875000 0.000000
0.000000 0.944789 0.000000
0.062986 0.944789 0.000000
0.125972 0.944789 0.000000
0.188958 0.944789 0.000000
0.251944 0.944789 0.000000
0.314930 0.944789 0.000000
0.377916 0.944789 0.000000
0.440901 0.944789 0.000000
0.503887 0.944789 0.000000
0.566873 0.944789 0.000000
0.629859 0.944789 0.000000
0.692845 0.944789 0.000000
0.755831 0.944789 0.000000
0.818817 0.944789 0.000000
0.881803 0.944789 0.000000
0.944789 0.944789 0.000000
1.000000 0.937500 0.000000
0.000000 1.000000 0.000000
0.062500 1.000000 0.000000
0.125000 1.000000 0.000000
0.187500 1.000000 0.000000
0.250000 1.000000 0.000000
0.312500 1.000000 0.000000
0.375000 1.000000 0.000000
0.437500 1.000000 0.000000
0.500000 1.000000 0.000000
0.562500 1.000000 0.000000
0.625000 1.000000 0.000000
0.687500 1.000000 0.000000
0.750000 1.000000 0.000000
0.812500 1.000000 0.000000
0.875000 1.000000 0.000000
0.937500 1.000000 0.000000
1.000000 1.000000 0.000000
0.000000 0.000000 0.087171
0.087171 0.000000 0.087171
0.160428 0.000000 0.080214
0.229214 0.000000 0.076405
0.295248 0.000000 0.073812
0.359309 0.000000 0.071862
0.421840 0.000000 0.070307
0.483126 0.000000 0.069018
0.543367 0.000000 0.067921
0.602709 0.000000 0.066968
0.661263 0.000000 0.066126
0.719118 0.000000 0.065374
0.776343 0.000000 0.064695
0.832999 0.000000 0.064077
0.889134 0.000000 0.063510
0.944789 0.000000 0.062986
1.000000 0.000000 0.062500
0.000000 0.087171 0.087171
0.087171 0.087171 0.087171
0.160428 0.060161 0.060161
0.229214 0.038202 0.038202
0.295248 0.018453 0.018453
0.359309 0.000000 0.000000
0.421840 0.000000 0.000000
0.483126 0.000000 0.000000
0.543367 0.000000 0.000000
0.602709 0.000000 0.000000
0.661263 0.000000 0.000000
0.719118 0.000000 0.000000
0.776343 0.000000 0.000000
0.832999 0.000000 0.000000
0.889134 0.000000 0.000000
0.944789 0.000000 0.000000
1.000000 0.000000 0.000000
0.000000 0.160428 0.080214
0.060161 0.160428 0.060161
0.160428 0.160428 0.060161
0.229214 0.133708 0.038202
0.295248 0.110718 0.018453
0.359309 0.089827 0.000000
0.421840 0.084368 0.000000
0.483126 0.080521 0.000000
0.543367 0.077624 0.000000
0.602709 0.075339 0.000000
0.661263 0.073474 0.000000
0.719118 0.071912 0.000000
0.776343 0.070577 0.000000
0.832999 0.069417 0.000000
0.889134 0.068395 0.000000
0.944789 0.067485 0.000000
1.000000 0.066667 0.000000
0.000000 0.229214 0.076405
0.038202 0.229214 0.038202
0.133708 0.229214 0.038202
0.229214 0.229214 0.038202
0.295248 0.202983 0.018453
0.359309 0.179654 0.000000
0.421840 0.168736 0.000000
0.483126 0.161042 0.000000
0.543367 0.155248 0.000000
0.602709 0.150677 0.000000
0.661263 0.146947 0.000000
0.719118 0.143824 0.000000
0.776343 0.141153 0.000000
0.832999 0.138833 0.000000
0.889134 0.136790 0.000000
0.944789 0.134970 0.000000
1.000000 0.133333 0.000000
0.000000 0.295248 0.073812
0.018453 0.295248 0.018453
0.110718 0.295248 0.018453
0.202983 0.295248 0.018453
0.295248 0.295248 0.018453
0.359309 0.269482 0.000000
0.421840 0.253104 0.000000
0.483126 0.241563 0.000000
0.543367 0.232872 0.000000
0.602709 0.226016 0.000000
0.661263 0.220421 0.000000
0.719118 0.215735 0.000000
0.776343 0.211730 0.000000
0.832999 0.208250 0.000000
0.889134 0.205185 0.000000
0.944789 0.202455 0.000000
1.000000 0.200000 0.000000
0.000000 0.359309 0.071862
0.000000 0.359309 0.000000
0.089827 0.359309 0.000000
0.179654 0.359309 0.000000
0.269482 0.359309 0.000000
0.359309 0.359309 0.000000
0.421840 0.337472 0.000000
0.483126 0.322084 0.000000
0.543367 0.310496 0.000000
0.602709 0.301355 0.000000
0.661263 0.293895 0.000000
0.719118 0.287647 0.000000
0.776343 0.282307 0.000000
0.832999 0.277666 0.000000
0.889134 0.273580 0.000000
0.944789 0.269940 0.000000
1.000000 0.266667 0.000000
0.000000 0.421840 0.070307
0.000000 0.421840 0.000000
0.084368 0.421840 0.000000
0.168736 0.421840 0.000000
0.253104 0.421840 0.000000
0.337472 0.421840 0.000000
0.421840 0.421840 0.000000
0.483126 0.402605 0.000000
0.543367 0.388120 0.000000
0.602709 0.376693 0.000000
0.661263 0.367368 0.000000
0.719118 0.359559 0.000000
0.776343 0.352883 0.000000
0.832999 0.347083 0.000000
0.889134 0.341975 0.000000
0.944789 0.337425 0.000000
1.000000 0.333333 0.000000
0.000000 0.483126 0.069018
0.000000 0.483126 0.000000
0.080521 0.483126 0.000000
0.161042 0.483126 0.000000
0.241563 0.483126 0.000000
0.322084 0.483126 0.000000
0.402605 0.483126 0.000000
0.483126 0.483126 0.000000
0.543367 0.465744 0.000000
0.602709 0.452032 0.000000
0.661263 0.440842 0.000000
0.719118 0.431471 0.000000
0.776343 0.423460 0.000000
0.832999 0.416500 0.000000
0.889134 0.410369 0.000000
0.944789 0.404909 0.000000
1.000000 0.400000 0.000000
0.000000 0.543367 0.067921
0.000000 0.543367 0.000000
0.077624 0.543367 0.000000
0.155248 0.543367 0.000000
0.232872 0.543367 0.000000
0.310496 0.543367 0.000000
0.388120 0.543367 0.000000
0.465744 0.543367 0.000000
0.543367 0.543367 0.000000
0.602709 0.527371 0.000000
0.661263 0.514316 0.000000
0.719118 0.503382 0.000000
0.776343 0.494037 0.000000
0.832999 0.485916 0.000000
0.889134 0.478764 0.000000
0.944789 0.472394 0.000000
1.000000 0.466667 0.000000
0.000000 0.602709 0.066968
0.000000 0.602709 0.000000
0.075339 0.602709 0.000000
0.150677 0.602709 0.000000
0.226016 0.602709 0.000000
0.301355 0.602709 0.000000
0.376693 0.602709 0.000000
0.452032 0.602709 0.000000
0.527371 0.602709 0.000000
0.602709 0.602709 0.000000
0.661263 0.587790 0.000000
0.719118 0.575294 0.000000
0.776343 0.564613 0.000000
0.832999 0.555333 0.000000
0.889134 0.547159 0.000000
0.944789 0.539879 0.000000
1.000000 0.533333 0.000000
0.000000 0.661263 0.066126
0.000000 0.661263 0.000000
0.073474 0.661263 0.000000
0.146947 0.661263 0.000000
0.220421 0.661263 0.000000
0.293895 0.661263 0.000000
0.367368 0.661263 0.000000
0.440842 0.661263 0.000000
0.514316 0.661263 0.000000
0.587790 0.661263 0.000000
0.661263 0.661263 0.000000
0.719118 0.647206 0.000000
0.776343 0.635190 0.000000
0.832999 0.624749 0.000000
0.889134 0.615554 0.000000
0.944789 0.607364 0.000000
1.000000 0.600000 0.000000
0.000000 0.719118 0.065374
0.000000 0.719118 0.000000
0.071912 0.719118 0.000000
0.143824 0.719118 0.000000
0.215735 0.719118 0.000000
0.287647 0.719118 0.000000
0.359559 0.719118 0.000000
0.431471 0.719118 0.000000
0.503382 0.719118 0.000000
0.575294 0.719118 0.000000
0.647206 0.719118 0.000000
0.719118 0.719118 0.000000
0.776343 0.705767 0.000000
0.832999 0.694166 0.000000
0.889134 0.683949 0.000000
0.944789 0.674849 0.000000
1.000000 0.666667 0.000000
0.000000 0.776343 0.064695
0.000000 0.776343 0.000000
0.070577 0.776343 0.000000
0.141153 0.776343 0.000000
0.211730 0.776343 0.000000
0.282307 0.776343 0.000000
0.352883 0.776343 0.000000
0.423460 0.776343 0.000000
0.494037 0.776343 0.000000
0.564613 0.776343 0.000000
0.635190 0.776343 0.000000
0.705767 0.776343 0.000000
0.776343 0.776343 0.000000
0.832999 0.763583 0.000000
0.889134 0.752344 0.000000
0.944789 0.742334 0.000000
1.000000 0.733333 0.000000
0.000000 0.832999 0.064077
0.000000 0.832999 0.000000
0.069417 0.832999 0.000000
0.138833 0.832999 0.000000
0.208250 0.832999 0.000000
0.277666 0.832999 0.000000
0.347083 0.832999 0.000000
0.416500 0.832999 0.000000
0.485916 0.832999 0.000000
0.555333 0.832999 0.000000
0.624749 0.832999 0.000000
0.694166 0.832999 0.000000
0.763583 0.832999 0.000000
0.832999 0.832999 0.000000
0.889134 0.820739 0.000000
0.944789 0.809819 0.000000
1.000000 0.800000 0.000000
0.000000 0.889134 0.063510
0.000000 0.889134 0.000000
0.068395 0.889134 0.000000
0.136790 0.889134 0.000000
0.205185 0.889134 0.000000
0.273580 0.889134 0.000000
0.341975 0.889134 0.000000
0.410369 0.889134 0.000000
0.478764 0.889134 0.000000
0.547159 0.889134 0.000000
0.615554 0.889134 0.000000
0.683949 0.889134 0.000000
0.752344 0.889134 0.000000
0.820739 0.889134 0.000000
0.889134 0.889134 0.000000
0.944789 0.877304 0.000000
1.000000 0.866667 0.000000
0.000000 0.944789 0.062986
0.000000 0.944789 0.000000
0.067485 0.944789 0.000000
0.134970 0.944789 0.000000
0.202455 0.944789 0.000000
0.269940 0.944789 0.000000
0.337425 0.944789 0.000000
0.404909 0.944789 0.000000
0.472394 0.944789 0.000000
0.539879 0.944789 0.000000
0.607364 0.944789 0.000000
0.674849 0.944789 0.000000
0.742334 0.944789 0.000000
0.809819 0.944789 0.000000
0.877304 0.944789 0.000000
0.944789 0.944789 0.000000
1.000000 0.933333 0.000000
0.000000 1.000000 0.062500
0.000000 1.000000 0.000000
0.066667 1.000000 0.000000
0.133333 1.000000 0.000000
0.200000 1.000000 0.000000
0.266667 1.000000 0.000000
0.333333 1.000000 0.000000
0.400000 1.000000 0.000000
0.466667 1.000000 0.000000
0.533333 1.000000 0.000000
0.600000 1.000000 0.000000
0.666667 1.000000 0.000000
0.733333 1.000000 0.000000
0.800000 1.000000 0.000000
0.866667 1.000000 0.000000
0.933333 1.000000 0.000000
1.000000 1.000000 0.000000
0.000000 0.000000 0.160428
0.080214 0.000000 0.160428
0.160428 0.000000 0.160428
0.229214 0.000000 0.152809
0.295248 0.000000 0.147624
0.359309 0.000000 0.143724
0.421840 0.000000 0.140613
0.483126 0.000000 0.138036
0.543367 0.000000 0.135842
0.602709 0.000000 0.133935
0.661263 0.000000 0.132253
0.719118 0.000000 0.130749
0.776343 0.000000 0.129391
0.832999 0.000000 0.128154
0.889134 0.000000 0.127019
0.944789 0.000000 0.125972
1.000000 0.000000 0.125000
0.000000 0.080214 0.160428
0.060161 0.060161 0.160428
0.160428 0.060161 0.160428
0.229214 0.038202 0.133708
0.295248 0.018453 0.110718
0.359309 0.000000 0.089827
0.421840 0.000000 0.084368
0.483126 0.000000 0.080521
0.543367 0.000000 0.077624
0.602709 0.000000 0.075339
0.661263 0.000000 0.073474
0.719118 0.000000 0.071912
0.776343 0.000000 0.070577
0.832999 0.000000 0.069417
0.889134 0.000000 0.068395
0.944789 0.000000 0.067485
1.000000 0.000000 0.066667
0.000000 0.160428 0.160428
0.060161 0.160428 0.160428
0.160428 0.160428 0.160428
0.229214 0.133708 0.133708
0.295248 0.110718 0.110718
0.359309 0.089827 0.089827
0.421840 0.070307 0.070307
0.483126 0.051764 0.051764
0.543367 0.033960 0.033960
0.602709 0.016742 0.016742
0.661263 0.000000 0.000000
0.719118 0.000000 0.000000
0.776343 0.000000 0.000000
0.832999 0.000000 0.000000
0.889134 0.000000 0.000000
0.944789 0.000000 0.000000
1.000000 0.000000 0.000000
0.000000 0.229214 0.152809
0.038202 0.229214 0.133708
0.133708 0.229214 0.133708
0.229214 0.229214 0.133708
0.295248 0.202983 0.110718
0.359309 0.179654 0.089827
0.421840 0.158190 0.070307
0.483126 0.138036 0.051764
0.543367 0.118862 0.033960
0.602709 0.100452 0.016742
0.661263 0.082658 0.000000
0.719118 0.079902 0.000000
0.776343 0.077634 0.000000
0.832999 0.075727 0.000000
0.889134 0.074094 0.000000
0.944789 0.072676 0.000000
1.000000 0.071429 0.000000
0.000000 0.295248 0.147624
0.018453 0.295248 0.110718
0.110718 0.295248 0.110718
0.202983 0.295248 0.110718
0.295248 0.295248 0.110718
0.359309 0.269482 0.089827
0.421840 0.246073 0.070307
0.483126 0.224309 0.051764
0.543367 0.203763 0.033960
0.602709 0.184161 0.016742
0.661263 0.165316 0.000000
0.719118 0.159804 0.000000
0.776343 0.155269 0.000000
0.832999 0.151454 0.000000
0.889134 0.148189 0.000000
0.944789 0.145352 0.000000
1.000000 0.142857 0.000000
0.000000 0.359309 0.143724
0.000000 0.359309 0.089827
0.089827 0.359309 0.089827
0.179654 0.359309 0.089827
0.269482 0.359309 0.089827
0.359309 0.359309 0.089827
0.421840 0.333956 0.070307
0.483126 0.310581 0.051764
0.543367 0.288664 0.033960
0.602709 0.267871 0.016742
0.661263 0.247974 0.000000
0.719118 0.239706 0.000000
0.776343 0.232903 0.000000
0.832999 0.227182 0.000000
0.889134 0.222283 0.000000
0.944789 0.218028 0.000000
1.000000 0.214286 0.000000
0.000000 0.421840 0.140613
0.000000 0.421840 0.084368
0.070307 0.421840 0.070307
0.158190 0.421840 0.070307
0.246073 0.421840 0.070307
0.333956 0.421840 0.070307
0.421840 0.421840 0.070307
0.483126 0.396854 0.051764
0.543367 0.373565 0.033960
0.602709 0.351580 0.016742
0.661263 0.330632 0.000000
0.719118 0.319608 0.000000
0.776343 0.310537 0.000000
0.832999 0.302909 0.000000
0.889134 0.296378 0.000000
0.944789 0.290704 0.000000
1.000000 0.285714 0.000000
0.000000 0.483126 0.138036
0.000000 0.483126 0.080521
0.051764 0.483126 0.051764
0.138036 0.483126 0.051764
0.224309 0.483126 0.051764
0.310581 0.483126 0.051764
0.396854 0.483126 0.051764
0.483126 0.483126 0.051764
0.543367 0.458466 0.033960
0.602709 0.435290 0.016742
0.661263 0.413290 0.000000
0.719118 0.399510 0.000000
0.776343 0.388172 0.000000
0.832999 0.378636 0.000000
0.889134 0.370472 0.000000
0.944789 0.363380 0.000000
1.000000 0.357143 0.000000
0.000000 0.543367 0.135842
0.000000 0.543367 0.077624
0.033960 0.543367 0.033960
0.118862 0.543367 0.033960
0.203763 0.543367 0.033960
0.288664 0.543367 0.033960
0.373565 0.543367 0.033960
0.458466 0.543367 0.033960
0.543367 0.543367 0.033960
0.602709 0.519000 0.016742
0.661263 0.495947 0.000000
0.719118 0.479412 0.000000
0.776343 0.465806 0.000000
0.832999 0.454363 0.000000
0.889134 0.444567 0.000000
0.944789 0.436056 0.000000
1.000000 0.428571 0.000000
0.000000 0.602709 0.133935
0.000000 0.602709 0.075339
0.016742 0.602709 0.016742
0.100452 0.602709 0.016742
0.184161 0.602709 0.016742
0.267871 0.602709 0.016742
0.351580 0.602709 0.016742
0.435290 0.602709 0.016742
0.519000 0.602709 0.016742
0.602709 0.602709 0.016742
0.661263 0.578605 0.000000
0.719118 0.559314 0.000000
0.776343 0.543440 0.000000
0.832999 0.530090 0.000000
0.889134 0.518661 0.000000
0.944789 0.508732 0.000000
1.000000 0.500000 0.000000
0.000000 0.661263 0.132253
0.000000 0.661263 0.073474
0.000000 0.661263 0.000000
0.082658 0.661263 0.000000
0.165316 0.661263 0.000000
0.247974 0.661263 0.000000
0.330632 0.661263 0.000000
0.413290 0.661263 0.000000
0.495947 0.661263 0.000000
0.578605 0.661263 0.000000
0.661263 0.661263 0.000000
0.719118 0.639216 0.000000
0.776343 0.621075 0.000000
0.832999 0.605818 0.000000
0.889134 0.592756 0.000000
0.944789 0.581408 0.000000
1.000000 0.571429 0.000000
0.000000 0.719118 0.130749
0.000000 0.719118 0.071912
0.000000 0.719118 0.000000
0.079902 0.719118 0.000000
0.159804 0.719118 0.000000
0.239706 0.719118 0.000000
0.319608 0.719118 0.000000
0.399510 0.719118 0.000000
0.479412 0.719118 0.000000
0.559314 0.719118 0.000000
0.639216 0.719118 0.000000
0.719118 0.719118 0.000000
0.776343 0.698709 0.000000
0.832999 0.681545 0.000000
0.889134 0.666850 0.000000
0.944789 0.654085 0.000000
1.000000 0.642857 0.000000
0.000000 0.776343 0.129391
0.000000 0.776343 0.070577
0.000000 0.776343 0.000000
0.077634 0.776343 0.000000
0.155269 0.776343 0.000000
0.232903 0.776343 0.000000
0.310537 0.776343 0.000000
0.388172 0.776343 0.000000
0.465806 0.776343 0.000000
0.543440 0.776343 0.000000
0.621075 0.776343 0.000000
0.698709 0.776343 0.000000
0.776343 0.776343 0.000000
0.832999 0.757272 0.000000
0.889134 0.740945 0.000000
0.944789 0.726761 0.000000
1.000000 0.714286 0.000000
0.000000 0.832999 0.128154
0.000000 0.832999 0.069417
0.000000 0.832999 0.000000
0.075727 0.832999 0.000000
0.151454 0.832999 0.000000
0.227182 0.832999 0.000000
0.302909 0.832999 0.000000
0.378636 0.832999 0.000000
0.454363 0.832999 0.000000
0.530090 0.832999 0.000000
0.605818 0.832999 0.000000
0.681545 0.832999 0.000000
0.757272 0.832999 0.000000
0.832999 0.832999 0.000000
0.889134 0.815039 0.000000
0.944789 0.799437 0.000000
1.000000 0.785714 0.000000
0.000000 0.889134 0.127019
0.000000 0.889134 0.068395
0.000000 0.889134 0.000000
0.074094 0.889134 0.000000
0.148189 0.889134 0.000000
0.222283 0.889134 0.000000
0.296378 0.889134 0.000000
0.370472 0.889134 0.000000
0.444567 0.889134 0.000000
0.518661 0.889134 0.000000
0.592756 0.889134 0.000000
0.666850 0.889134 0.000000
0.740945 0.889134 0.000000
0.815039 0.889134 0.000000
0.889134 0.889134 0.000000
0.944789 0.872113 0.000000
1.000000 0.857143 0.000000
0.000000 0.944789 0.125972
0.000000 0.944789 0.067485
0.000000 0.944789 0.000000
0.072676 0.944789 0.000000
0.145352 0.944789 0.000000
0.218028 0.944789 0.000000
0.290704 0.944789 0.000000
0.363380 0.944789 0.000000
0.436056 0.944789 0.000000
0.508732 0.944789 0.000000
0.581408 0.944789 0.000000
0.654085 0.944789 0.000000
0.726761 0.944789 0.000000
0.799437 0.944789 0.000000
0.872113 0.944789 0.000000
0.944789 0.944789 0.000000
1.000000 0.928571 0.000000
0.000000 1.000000 0.125000
0.000000 1.000000 0.066667
0.000000 1.000000 0.000000
0.071429 1.000000 0.000000
0.142857 1.000000 0.000000
0.214286 1.000000 0.000000
0.285714 1.000000 0.000000
0.357143 1.000000 0.000000
0.428571 1.000000 0.000000
0.500000 1.000000 0.000000
0.571429 1.000000 0.000000
0.642857 1.000000 0.000000
0.714286 1.000000 0.000000
0.785714 1.000000 0.000000
0.857143 1.000000 0.000000
0.928571 1.000000 0.000000
1.000000 1.000000 0.000000
0.000000 0.000000 0.229214
0.076405 0.000000 0.229214
0.152809 0.000000 0.229214
0.229214 0.000000 0.229214
0.295248 0.000000 0.221436
0.359309 0.000000 0.215585
0.421840 0.000000 0.210920
0.483126 0.000000 0.207054
0.543367 0.000000 0.203763
0.602709 0.000000 0.200903
0.661263 0.000000 0.198379
0.719118 0.000000 0.196123
0.776343 0.000000 0.194086
0.832999 0.000000 0.192231
0.889134 0.000000 0.190529
0.944789 0.000000 0.188958
1.000000 0.000000 0.187500
0.000000 0.076405 0.229214
0.038202 0.038202 0.229214
0.133708 0.038202 0.229214
