RapidRAW-Android/app/src/main/assets/built_in_luts/fuji_velvia_50.cube
TITLE "Fuji Velvia 50"
LUT_3D_SIZE 5
0.000000 0.000000 0.000000
0.295248 0.000000 0.000000
0.543367 0.000000 0.000000
0.776343 0.000000 0.000000
1.000000 0.000000 0.000000
0.000000 0.295248 0.000000
0.295248 0.295248 0.000000
0.543367 0.271684 0.000000
0.776343 0.258781 0.000000
1.000000 0.250000 0.000000
0.000000 0.543367 0.000000
0.271684 0.543367 0.000000
0.543367 0.543367 0.000000
0.776343 0.517562 0.000000
1.000000 0.500000 0.000000
0.000000 0.776343 0.000000
0.258781 0.776343 0.000000
0.517562 0.776343 0.000000
0.776343 0.776343 0.000000
1.000000 0.750000 0.000000
0.000000 1.000000 0.000000
0.250000 1.000000 0.000000
0.500000 1.000000 0.000000
0.750000 1.000000 0.000000
1.000000 1.000000 0.000000
0.000000 0.000000 0.295248
0.295248 0.000000 0.295248
0.543367 0.000000 0.271684
0.776343 0.000000 0.258781
1.000000 0.000000 0.250000
0.000000 0.295248 0.295248
0.295248 0.295248 0.295248
0.543367 0.203763 0.203763
0.776343 0.129391 0.129391
1.000000 0.062500 0.062500
0.000000 0.543367 0.271684
0.203763 0.543367 0.203763
0.543367 0.543367 0.203763
0.776343 0.452867 0.129391
1.000000 0.375000 0.062500
0.000000 0.776343 0.258781
0.129391 0.776343 0.129391
0.452867 0.776343 0.129391
0.776343 0.776343 0.129391
1.000000 0.687500 0.062500
0.000000 1.000000 0.250000
0.062500 1.000000 0.062500
0.375000 1.000000 0.062500
0.687500 1.000000 0.062500
1.000000 1.000000 0.062500
0.000000 0.000000 0.543367
0.271684 0.000000 0.543367
0.543367 0.000000 0.543367
0.776343 0.000000 0.517562
1.000000 0.000000 0.500000
0.000000 0.271684 0.543367
0.203763 0.203763 0.543367
0.543367 0.203763 0.543367
0.776343 0.129391 0.452867
1.000000 0.062500 0.375000
0.000000 0.543367 0.543367
0.203763 0.543367 0.543367
0.543367 0.543367 0.543367
0.776343 0.452867 0.452867
1.000000 0.375000 0.375000
0.000000 0.776343 0.517562
0.129391 0.776343 0.452867
0.452867 0.776343 0.452867
0.776343 0.776343 0.452867
1.000000 0.687500 0.375000
0.000000 1.000000 0.500000
0.062500 1.000000 0.375000
0.375000 1.000000 0.375000
0.687500 1.000000 0.375000
1.000000 1.000000 0.375000
0.000000 0.000000 0.776343
0.258781 0.000000 0.776343
0.517562 0.000000 0.776343
0.776343 0.000000 0.776343
1.000000 0.000000 0.750000
0.000000 0.258781 0.776343
0.129391 0.129391 0.776343
0.452867 0.129391 0.776343
0.776343 0.129391 0.776343
1.000000 0.062500 0.687500
0.000000 0.517562 0.776343
0.129391 0.452867 0.776343
0.452867 0.452867 0.776343
0.776343 0.452867 0.776343
1.000000 0.375000 0.687500
0.000000 0.776343 0.776343
0.129391 0.776343 0.776343
0.452867 0.776343 0.776343
0.776343 0.776343 0.776343
1.000000 0.687500 0.687500
0.000000 1.000000 0.750000
0.062500 1.000000 0.687500
0.375000 1.000000 0.687500
0.687500 1.000000 0.687500
1.000000 1.000000 0.687500
0.000000 0.000000 1.000000
0.250000 0.000000 1.000000
0.500000 0.000000 1.000000
0.750000 0.000000 1.000000
1.000000 0.000000 1.000000
0.000000 0.250000 1.000000
0.062500 0.062500 1.000000
0.375000 0.062500 1.000000
0.687500 0.062500 1.000000
1.000000 0.062500 1.000000
0.000000 0.500000 1.000000
0.062500 0.375000 1.000000
0.375000 0.375000 1.000000
0.687500 0.375000 1.000000
1.000000 0.375000 1.000000
0.000000 0.750000 1.000000
0.062500 0.687500 1.000000
0.375000 0.687500 1.000000
0.687500 0.687500 1.000000
1.000000 0.687500 1.000000
0.000000 1.000000 1.000000
0.062500 1.000000 1.000000
0.375000 1.000000 1.000000
0.687500 1.000000 1.000000
1.000000 1.000000 1.000000
