RapidRAW-Android/app/src/main/assets/built_in_luts/fuji_superia_400.cube
TITLE "Fuji Superia 400"
LUT_3D_SIZE 17
0.000000 0.028975 0.000000
0.057564 0.028420 0.000000
0.123122 0.027865 0.000000
0.187560 0.027310 0.000000
0.251305 0.026754 0.000000
0.314550 0.026197 0.000000
0.377400 0.025640 0.000000
0.439927 0.025083 0.000000
0.502179 0.024525 0.000000
0.564193 0.023966 0.000000
0.625997 0.023407 0.000000
0.687611 0.022847 0.000000
0.749056 0.022287 0.000000
0.810344 0.021726 0.000000
0.871490 0.021165 0.000000
0.932503 0.020603 0.000000
0.993393 0.020040 0.000000
0.000000 0.094681 0.000000
0.058274 0.094153 0.000000
0.123816 0.093625 0.000000
0.188244 0.093097 0.000000
0.251984 0.092569 0.000000
0.315224 0.092041 0.000000
0.378070 0.091513 0.000000
0.440594 0.090984 0.000000
0.502844 0.090455 0.000000
0.564855 0.089927 0.000000
0.626656 0.089398 0.000000
0.688269 0.088869 0.000000
0.749712 0.088339 0.000000
0.810999 0.087810 0.000000
0.872143 0.087281 0.000000
0.933155 0.086751 0.000000
0.994043 0.086221 0.000000
0.000000 0.158352 0.000000
0.058984 0.157835 0.000000
0.124509 0.157319 0.000000
0.188929 0.156802 0.000000
0.252663 0.156285 0.000000
0.315898 0.155769 0.000000
0.378741 0.155252 0.000000
0.441261 0.154735 0.000000
0.503508 0.154218 0.000000
0.565517 0.153700 0.000000
0.627316 0.153183 0.000000
0.688927 0.152666 0.000000
0.750368 0.152149 0.000000
0.811654 0.151631 0.000000
0.872796 0.151114 0.000000
0.933807 0.150596 0.000000
0.994694 0.150078 0.000000
0.000000 0.220943 0.000000
0.059694 0.220433 0.000000
0.125203 0.219924 0.000000
0.189614 0.219414 0.000000
0.253342 0.218905 0.000000
0.316572 0.218395 0.000000
0.379411 0.217885 0.000000
0.441928 0.217376 0.000000
0.504172 0.216866 0.000000
0.566179 0.216356 0.000000
0.627976 0.215846 0.000000
0.689585 0.215336 0.000000
0.751024 0.214826 0.000000
0.812308 0.214316 0.000000
0.873449 0.213806 0.000000
0.934458 0.213296 0.000000
0.995344 0.212786 0.000000
0.000000 0.282793 0.000000
0.060404 0.282288 0.000000
0.125896 0.281784 0.000000
0.190299 0.281280 0.000000
0.254020 0.280776 0.000000
0.317246 0.280271 0.000000
0.380081 0.279767 0.000000
0.442595 0.279262 0.000000
0.504837 0.278758 0.000000
0.566841 0.278253 0.000000
0.628636 0.277749 0.000000
0.690243 0.277244 0.000000
0.751681 0.276740 0.000000
0.812963 0.276235 0.000000
0.874102 0.275730 0.000000
0.935110 0.275225 0.000000
0.995995 0.274721 0.000000
0.000000 0.344079 0.000000
0.061113 0.343579 0.000000
0.126590 0.343079 0.000000
0.190983 0.342579 0.000000
0.254699 0.342079 0.000000
0.317919 0.341578 0.000000
0.380751 0.341078 0.000000
0.443262 0.340578 0.000000
0.505501 0.340078 0.000000
0.567503 0.339577 0.000000
0.629296 0.339077 0.000000
0.690901 0.338576 0.000000
0.752337 0.338076 0.000000
0.813617 0.337575 0.000000
0.874756 0.337075 0.000000
0.935762 0.336574 0.000000
0.996645 0.336074 0.000000
0.000000 0.404912 0.000000
0.061822 0.404415 0.000000
0.127283 0.403918 0.000000
0.191668 0.403422 0.000000
0.255377 0.402925 0.000000
0.318593 0.402428 0.000000
0.381421 0.401931 0.000000
0.443929 0.401434 0.000000
0.506165 0.400937 0.000000
0.568165 0.400440 0.000000
0.629955 0.399944 0.000000
0.691559 0.399447 0.000000
0.752993 0.398950 0.000000
0.814272 0.398452 0.000000
0.875409 0.397955 0.000000
0.936413 0.397458 0.000000
0.997296 0.396961 0.000000
0.000000 0.465365 0.000000
0.062530 0.464871 0.000000
0.127976 0.464377 0.000000
0.192352 0.463883 0.000000
0.256055 0.463389 0.000000
0.319267 0.462895 0.000000
0.382091 0.462401 0.000000
0.444596 0.461907 0.000000
0.506829 0.461413 0.000000
0.568827 0.460919 0.000000
0.630615 0.460425 0.000000
0.692217 0.459931 0.000000
0.753649 0.459437 0.000000
0.814926 0.458943 0.000000
0.876062 0.458449 0.000000
0.937065 0.457954 0.000000
0.997946 0.457460 0.000000
0.000000 0.525491 0.000000
0.063239 0.525000 0.000000
0.128669 0.524508 0.000000
0.193037 0.524017 0.000000
0.256734 0.523525 0.000000
0.319941 0.523034 0.000000
0.382761 0.522542 0.000000
0.445263 0.522051 0.000000
0.507494 0.521559 0.000000
0.569488 0.521068 0.000000
0.631275 0.520576 0.000000
0.692874 0.520085 0.000000
0.754305 0.519593 0.000000
0.815581 0.519102 0.000000
0.876715 0.518610 0.000000
0.937717 0.518118 0.000000
0.998596 0.517627 0.000000
0.000000 0.585331 0.000000
0.063947 0.584842 0.000000
0.129362 0.584353 0.000000
0.193721 0.583864 0.000000
0.257412 0.583374 0.000000
0.320614 0.582885 0.000000
0.383431 0.582396 0.000000
0.445930 0.581907 0.000000
0.508158 0.581417 0.000000
0.570150 0.580928 0.000000
0.631935 0.580439 0.000000
0.693532 0.579950 0.000000
0.754961 0.579460 0.000000
0.816235 0.578971 0.000000
0.877368 0.578481 0.000000
0.938369 0.577992 0.000000
0.999247 0.577503 0.000000
0.000000 0.644917 0.000000
0.064655 0.644430 0.000000
0.130055 0.643943 0.000000
0.194405 0.643456 0.000000
0.258090 0.642968 0.000000
0.321288 0.642481 0.000000
0.384101 0.641994 0.000000
0.446597 0.641507 0.000000
0.508822 0.641019 0.000000
0.570812 0.640532 0.000000
0.632594 0.640045 0.000000
0.694190 0.639557 0.000000
0.755617 0.639070 0.000000
0.816890 0.638583 0.000000
0.878021 0.638095 0.000000
0.939020 0.637608 0.000000
0.999897 0.637120 0.000000
0.000000 0.704274 0.000000
0.065363 0.703789 0.000000
0.130748 0.703304 0.000000
0.195089 0.702818 0.000000
0.258769 0.702333 0.000000
0.321962 0.701847 0.000000
0.384771 0.701362 0.000000
0.447263 0.700876 0.000000
0.509486 0.700391 0.000000
0.571474 0.699905 0.000000
0.633254 0.699420 0.000000
0.694848 0.698934 0.000000
0.756273 0.698449 0.000000
0.817544 0.697963 0.000000
0.878512 0.697882 0.000000
0.939317 0.697882 0.000000
1.000000 0.697882 0.000000
0.000000 0.763424 0.000000
0.066070 0.762940 0.000000
0.131440 0.762456 0.000000
0.195773 0.761972 0.000000
0.259447 0.761488 0.000000
0.322635 0.761005 0.000000
0.385441 0.760521 0.000000
0.447930 0.760037 0.000000
0.510150 0.759553 0.000000
0.572135 0.759069 0.000000
0.633875 0.758680 0.000000
0.695272 0.758680 0.000000
0.756501 0.758680 0.000000
0.817577 0.758680 0.000000
0.878512 0.758680 0.000000
0.939317 0.758680 0.000000
1.000000 0.758680 0.000000
0.000000 0.822382 0.000000
0.066778 0.821900 0.000000
0.132133 0.821418 0.000000
0.196457 0.820935 0.000000
0.260125 0.820453 0.000000
0.323309 0.819971 0.000000
0.386111 0.819488 0.000000
0.448486 0.819276 0.000000
0.510506 0.819276 0.000000
0.572294 0.819276 0.000000
0.633875 0.819276 0.000000
0.695272 0.819276 0.000000
0.756501 0.819276 0.000000
0.817577 0.819276 0.000000
0.878512 0.819276 0.000000
0.939317 0.819276 0.000000
1.000000 0.819276 0.000000
0.000000 0.881165 0.000000
0.067485 0.880684 0.000000
0.132825 0.880203 0.000000
0.197141 0.879722 0.000000
0.260616 0.879686 0.000000
0.323597 0.879686 0.000000
0.386198 0.879686 0.000000
0.448486 0.879686 0.000000
0.510506 0.879686 0.000000
0.572294 0.879686 0.000000
0.633875 0.879686 0.000000
0.695272 0.879686 0.000000
0.756501 0.879686 0.000000
0.817577 0.879686 0.000000
0.878512 0.879686 0.000000
0.939317 0.879686 0.000000
1.000000 0.879686 0.000000
0.000000 0.939923 0.000000
0.067921 0.939923 0.000000
0.133046 0.939923 0.000000
0.197157 0.939923 0.000000
0.260616 0.939923 0.000000
0.323597 0.939923 0.000000
0.386198 0.939923 0.000000
0.448486 0.939923 0.000000
0.510506 0.939923 0.000000
0.572294 0.939923 0.000000
0.633875 0.939923 0.000000
0.695272 0.939923 0.000000
0.756501 0.939923 0.000000
0.817577 0.939923 0.000000
0.878512 0.939923 0.000000
0.939317 0.939923 0.000000
1.000000 0.939923 0.000000
0.000000 1.000000 0.000000
0.067921 1.000000 0.000000
0.133046 1.000000 0.000000
0.197157 1.000000 0.000000
0.260616 1.000000 0.000000
0.323597 1.000000 0.000000
0.386198 1.000000 0.000000
0.448486 1.000000 0.000000
0.510506 1.000000 0.000000
0.572294 1.000000 0.000000
0.633875 1.000000 0.000000
0.695272 1.000000 0.000000
0.756501 1.000000 0.000000
0.817577 1.000000 0.000000
0.878512 1.000000 0.000000
0.939317 1.000000 0.000000
1.000000 1.000000 0.000000
0.000000 0.028787 0.050590
0.057636 0.028232 0.050902
0.123192 0.027677 0.051213
0.187629 0.027121 0.051524
0.251374 0.026565 0.051836
0.314618 0.026008 0.052147
0.377468 0.025451 0.052458
0.439994 0.024893 0.052769
0.502246 0.024335 0.053080
0.564260 0.023776 0.053391
0.626063 0.023217 0.053702
0.687678 0.022657 0.054013
0.749122 0.022097 0.054324
0.810411 0.021536 0.054635
0.871556 0.020974 0.054946
0.932569 0.020412 0.055257
0.993458 0.019849 0.055568
0.000000 0.094502 0.051638
0.058346 0.093974 0.051949
0.123886 0.093446 0.052260
0.188314 0.092918 0.052571
0.252053 0.092390 0.052882
0.315292 0.091862 0.053194
0.378138 0.091333 0.053505
0.440661 0.090804 0.053816
0.502911 0.090276 0.054127
0.564922 0.089747 0.054438
0.626723 0.089218 0.054748
0.688336 0.088689 0.055059
0.749778 0.088160 0.055370
0.811065 0.087630 0.055681
0.872209 0.087101 0.055992
0.933221 0.086571 0.056302
0.994109 0.086041 0.056613
0.000000 0.158177 0.052685
0.059056 0.157660 0.052996
0.124579 0.157143 0.053307
0.188998 0.156627 0.053618
0.252731 0.156110 0.053929
0.315966 0.155593 0.054240
0.378808 0.155076 0.054551
0.441329 0.154559 0.054862
0.503575 0.154042 0.055172
0.565584 0.153525 0.055483
0.627383 0.153008 0.055794
0.688994 0.152490 0.056105
0.750434 0.151973 0.056416
0.811720 0.151455 0.056726
0.872862 0.150938 0.057037
0.933872 0.150420 0.057347
0.994759 0.149903 0.057658
0.000000 0.220770 0.053731
0.059766 0.220260 0.054042
0.125273 0.219751 0.054353
0.189683 0.219241 0.054664
0.253410 0.218732 0.054975
0.316640 0.218222 0.055286
0.379478 0.217712 0.055596
0.441996 0.217202 0.055907
0.504239 0.216693 0.056218
0.566246 0.216183 0.056529
0.628043 0.215673 0.056839
0.689652 0.215163 0.057150
0.751091 0.214653 0.057461
0.812374 0.214143 0.057771
0.873515 0.213633 0.058082
0.934524 0.213123 0.058392
0.995410 0.212612 0.058703
0.000000 0.282621 0.054777
0.060475 0.282117 0.055088
0.125966 0.281613 0.055399
0.190368 0.281109 0.055710
0.254089 0.280604 0.056020
0.317314 0.280100 0.056331
0.380149 0.279595 0.056642
0.442663 0.279091 0.056952
0.504904 0.278586 0.057263
0.566908 0.278082 0.057574
0.628702 0.277577 0.057884
0.690310 0.277073 0.058195
0.751747 0.276568 0.058505
0.813029 0.276063 0.058816
0.874168 0.275559 0.059126
0.935176 0.275054 0.059436
0.996060 0.274549 0.059747
0.000000 0.343909 0.055823
0.061184 0.343409 0.056133
0.126660 0.342909 0.056444
0.191052 0.342409 0.056755
0.254767 0.341909 0.057065
0.317987 0.341409 0.057376
0.380819 0.340908 0.057687
0.443330 0.340408 0.057997
0.505568 0.339908 0.058308
0.567570 0.339407 0.058618
0.629362 0.338907 0.058929
0.690967 0.338406 0.059239
0.752403 0.337906 0.059549
0.813683 0.337406 0.059860
0.874821 0.336905 0.060170
0.935828 0.336404 0.060480
0.996711 0.335904 0.060791
0.000000 0.404743 0.056868
0.061893 0.404246 0.057179
0.127353 0.403750 0.057489
0.191737 0.403253 0.057800
0.255446 0.402756 0.058110
0.318661 0.402259 0.058421
0.381489 0.401762 0.058731
0.443996 0.401266 0.059042
0.506232 0.400769 0.059352
0.568232 0.400272 0.059662
0.630022 0.399775 0.059973
0.691625 0.399278 0.060283
0.753059 0.398781 0.060593
0.814338 0.398284 0.060903
0.875475 0.397787 0.061214
0.936479 0.397290 0.061524
0.997361 0.396792 0.061834
0.000000 0.465197 0.057913
0.062602 0.464703 0.058223
0.128046 0.464209 0.058534
0.192421 0.463715 0.058844
0.256124 0.463221 0.059155
0.319335 0.462727 0.059465
0.382159 0.462233 0.059775
0.444663 0.461739 0.060086
0.506896 0.461245 0.060396
0.568893 0.460751 0.060706
0.630682 0.460257 0.061016
0.692283 0.459763 0.061327
0.753715 0.459269 0.061637
0.814993 0.458775 0.061947
0.876128 0.458281 0.062257
0.937131 0.457787 0.062567
0.998012 0.457292 0.062877
0.000000 0.525324 0.058957
0.063310 0.524833 0.059268
0.128739 0.524341 0.059578
0.193106 0.523850 0.059888
0.256802 0.523358 0.060199
0.320009 0.522867 0.060509
0.382829 0.522376 0.060819
0.445330 0.521884 0.061129
0.507561 0.521393 0.061439
0.569555 0.520901 0.061750
0.631341 0.520409 0.062060
0.692941 0.519918 0.062370
0.754371 0.519426 0.062680
0.815647 0.518935 0.062990
0.876781 0.518443 0.063300
0.937783 0.517952 0.063610
0.998662 0.517460 0.063920
0.000000 0.585165 0.060001
0.064019 0.584676 0.060312
0.129432 0.584187 0.060622
0.193790 0.583698 0.060932
0.257481 0.583208 0.061242
0.320682 0.582719 0.061552
0.383499 0.582230 0.061863
0.445997 0.581741 0.062173
0.508225 0.581251 0.062483
0.570217 0.580762 0.062793
0.632001 0.580273 0.063103
0.693599 0.579783 0.063413
0.755027 0.579294 0.063723
0.816302 0.578805 0.064033
0.877434 0.578315 0.064342
0.938434 0.577826 0.064652
0.999312 0.577336 0.064962
0.000000 0.644752 0.061045
0.064727 0.644265 0.061355
0.130125 0.643777 0.061665
0.194474 0.643290 0.061975
0.258159 0.642803 0.062286
0.321356 0.642316 0.062596
0.384169 0.641828 0.062906
0.446664 0.641341 0.063216
0.508889 0.640854 0.063526
0.570879 0.640367 0.063835
0.632661 0.639879 0.064145
0.694256 0.639392 0.064455
0.755683 0.638905 0.064765
0.816956 0.638417 0.065075
0.878087 0.637930 0.065385
0.939086 0.637442 0.065694
0.999963 0.636955 0.066004
0.000000 0.704110 0.062088
0.065434 0.703624 0.062398
0.130817 0.703139 0.062708
0.195158 0.702653 0.063018
0.258837 0.702168 0.063328
0.322030 0.701682 0.063638
0.384839 0.701197 0.063948
0.447331 0.700711 0.064258
0.509553 0.700226 0.064568
0.571541 0.699740 0.064878
0.633320 0.699255 0.065188
0.694914 0.698769 0.065497
0.756339 0.698284 0.065807
0.817577 0.697882 0.066064
0.878512 0.697882 0.066064
0.939317 0.697882 0.066064
1.000000 0.697882 0.066064
0.000000 0.763259 0.063131
0.066142 0.762776 0.063441
0.131510 0.762292 0.063751
0.195842 0.761808 0.064061
0.259515 0.761324 0.064371
0.322703 0.760840 0.064681
0.385509 0.760356 0.064991
0.447997 0.759873 0.065300
0.510217 0.759389 0.065610
0.572202 0.758905 0.065920
0.633875 0.758680 0.066064
0.695272 0.758680 0.066064
0.756501 0.758680 0.066064
0.817577 0.758680 0.066064
0.878512 0.758680 0.066064
0.939317 0.758680 0.066064
1.000000 0.758680 0.066064
0.000000 0.822218 0.064174
0.066849 0.821736 0.064484
0.132202 0.821254 0.064794
0.196526 0.820772 0.065103
0.260193 0.820289 0.065413
0.323377 0.819807 0.065723
0.386178 0.819325 0.066033
0.448486 0.819276 0.066064
0.510506 0.819276 0.066064
0.572294 0.819276 0.066064
0.633875 0.819276 0.066064
0.695272 0.819276 0.066064
0.756501 0.819276 0.066064
0.817577 0.819276 0.066064
0.878512 0.819276 0.066064
0.939317 0.819276 0.066064
1.000000 0.819276 0.066064
0.000000 0.881002 0.065216
0.067556 0.880521 0.065526
0.132895 0.880040 0.065836
0.197157 0.879686 0.066064
0.260616 0.879686 0.066064
0.323597 0.879686 0.066064
0.386198 0.879686 0.066064
0.448486 0.879686 0.066064
0.510506 0.879686 0.066064
0.572294 0.879686 0.066064
0.633875 0.879686 0.066064
0.695272 0.879686 0.066064
0.756501 0.879686 0.066064
0.817577 0.879686 0.066064
0.878512 0.879686 0.066064
0.939317 0.879686 0.066064
1.000000 0.879686 0.066064
0.000000 0.939923 0.066064
0.067921 0.939923 0.066064
0.133046 0.939923 0.066064
0.197157 0.939923 0.066064
0.260616 0.939923 0.066064
0.323597 0.939923 0.066064
0.386198 0.939923 0.066064
0.448486 0.939923 0.066064
0.510506 0.939923 0.066064
0.572294 0.939923 0.066064
0.633875 0.939923 0.066064
0.695272 0.939923 0.066064
0.756501 0.939923 0.066064
0.817577 0.939923 0.066064
0.878512 0.939923 0.066064
0.939317 0.939923 0.066064
1.000000 0.939923 0.066064
0.000000 1.000000 0.066064
0.067921 1.000000 0.066064
0.133046 1.000000 0.066064
0.197157 1.000000 0.066064
0.260616 1.000000 0.066064
0.323597 1.000000 0.066064
0.386198 1.000000 0.066064
0.448486 1.000000 0.066064
0.510506 1.000000 0.066064
0.572294 1.000000 0.066064
0.633875 1.000000 0.066064
0.695272 1.000000 0.066064
0.756501 1.000000 0.066064
0.817577 1.000000 0.066064
0.878512 1.000000 0.066064
0.939317 1.000000 0.066064
1.000000 1.000000 0.066064
0.000000 0.028598 0.115173
0.057707 0.028043 0.115479
0.123262 0.027488 0.115785
0.187698 0.026932 0.116091
0.251443 0.026376 0.116397
0.314686 0.025819 0.116704
0.377535 0.025262 0.117010
0.440062 0.024704 0.117316
0.502313 0.024145 0.117622
0.564327 0.023586 0.117928
0.626130 0.023027 0.118234
0.687744 0.022467 0.118540
0.749188 0.021906 0.118846
0.810477 0.021345 0.119152
0.871622 0.020783 0.119458
0.932635 0.020221 0.119764
0.993524 0.019658 0.120070
0.000000 0.094323 0.116203
0.058418 0.093795 0.116509
0.123956 0.093267 0.116815
0.188383 0.092739 0.117121
0.252121 0.092210 0.117427
0.315360 0.091682 0.117733
0.378206 0.091154 0.118039
0.440729 0.090625 0.118345
0.502978 0.090096 0.118651
0.564989 0.089567 0.118957
0.626790 0.089038 0.119263
0.688402 0.088509 0.119569
0.749844 0.087980 0.119875
0.811131 0.087451 0.120181
0.872275 0.086921 0.120487
0.933286 0.086391 0.120793
0.994175 0.085862 0.121099
0.000000 0.158001 0.117233
0.059128 0.157485 0.117539
0.124649 0.156968 0.117845
0.189068 0.156451 0.118151
0.252800 0.155934 0.118457
0.316034 0.155417 0.118763
0.378876 0.154900 0.119069
0.441396 0.154383 0.119375
0.503642 0.153866 0.119681
0.565651 0.153349 0.119987
0.627449 0.152832 0.120293
0.689060 0.152315 0.120599
0.750501 0.151797 0.120904
0.811786 0.151280 0.121210
0.872928 0.150762 0.121516
0.933938 0.150244 0.121822
0.994825 0.149727 0.122128
0.000000 0.220597 0.118262
0.059837 0.220087 0.118568
0.125343 0.219578 0.118874
0.189752 0.219068 0.119180
0.253479 0.218559 0.119486
0.316708 0.218049 0.119792
0.379546 0.217539 0.120098
0.442063 0.217029 0.120404
0.504306 0.216520 0.120710
0.566313 0.216010 0.121016
0.628109 0.215500 0.121322
0.689718 0.214990 0.121628
0.751157 0.214480 0.121933
0.812440 0.213970 0.122239
0.873581 0.213460 0.122545
0.934590 0.212949 0.122851
0.995475 0.212439 0.123157
0.000000 0.282450 0.119292
0.060547 0.281946 0.119598
0.126036 0.281442 0.119904
0.190437 0.280937 0.120209
0.254157 0.280433 0.120515
0.317382 0.279929 0.120821
0.380216 0.279424 0.121127
0.442730 0.278920 0.121433
0.504971 0.278415 0.121739
0.566975 0.277911 0.122045
0.628769 0.277406 0.122351
0.690376 0.276901 0.122656
0.751813 0.276397 0.122962
0.813095 0.275892 0.123268
0.874234 0.275387 0.123574
0.935242 0.274883 0.123880
0.996126 0.274378 0.124185
0.000000 0.343740 0.120321
0.061256 0.343239 0.120627
0.126730 0.342739 0.120933
0.191121 0.342239 0.121239
0.254836 0.341739 0.121544
0.318055 0.341239 0.121850
0.380886 0.340738 0.122156
0.443397 0.340238 0.122462
0.505635 0.339738 0.122768
0.567637 0.339237 0.123074
0.629429 0.338737 0.123379
0.691034 0.338236 0.123685
0.752469 0.337736 0.123991
0.813750 0.337236 0.124297
0.874887 0.336735 0.124602
0.935893 0.336234 0.124908
0.996776 0.335734 0.125214
0.000000 0.404575 0.121350
0.061965 0.404078 0.121656
0.127423 0.403581 0.121962
0.191806 0.403084 0.122267
0.255514 0.402587 0.122573
0.318729 0.402091 0.122879
0.381556 0.401594 0.123185
0.444064 0.401097 0.123491
0.506299 0.400600 0.123796
0.568298 0.400103 0.124102
0.630089 0.399606 0.124408
0.691692 0.399109 0.124714
0.753125 0.398612 0.125019
0.814404 0.398115 0.125325
0.875540 0.397618 0.125631
0.936545 0.397121 0.125936
0.997427 0.396624 0.126242
0.000000 0.465029 0.122379
0.062674 0.464535 0.122685
0.128116 0.464041 0.122990
0.192490 0.463547 0.123296
0.256192 0.463054 0.123602
0.319403 0.462560 0.123908
0.382227 0.462066 0.124213
0.444731 0.461572 0.124519
0.506963 0.461078 0.124825
0.568960 0.460584 0.125131
0.630748 0.460090 0.125436
0.692349 0.459595 0.125742
0.753781 0.459101 0.126048
0.815059 0.458607 0.126353
0.876194 0.458113 0.126659
0.937197 0.457619 0.126964
0.998077 0.457125 0.127270
0.000000 0.525157 0.123408
0.063382 0.524666 0.123713
0.128809 0.524174 0.124019
0.193175 0.523683 0.124325
0.256871 0.523192 0.124631
0.320077 0.522700 0.124936
0.382897 0.522209 0.125242
0.445398 0.521717 0.125548
0.507628 0.521226 0.125853
0.569622 0.520734 0.126159
0.631408 0.520243 0.126464
0.693007 0.519751 0.126770
0.754437 0.519259 0.127076
0.815713 0.518768 0.127381
0.876847 0.518276 0.127687
0.937848 0.517785 0.127992
0.998728 0.517293 0.128298
0.000000 0.584999 0.124436
0.064090 0.584510 0.124742
0.129502 0.584021 0.125048
0.193859 0.583531 0.125353
0.257549 0.583042 0.125659
0.320750 0.582553 0.125965
0.383566 0.582064 0.126270
0.446064 0.581574 0.126576
0.508292 0.581085 0.126881
0.570284 0.580596 0.127187
0.632068 0.580107 0.127493
0.693665 0.579617 0.127798
0.755094 0.579128 0.128104
0.816368 0.578638 0.128409
0.877500 0.578149 0.128715
0.938500 0.577660 0.129020
0.999378 0.577170 0.129326
0.000000 0.644586 0.125464
0.064798 0.644099 0.125770
0.130195 0.643612 0.126076
0.194543 0.643125 0.126381
0.258227 0.642637 0.126687
0.321424 0.642150 0.126993
0.384236 0.641663 0.127298
0.446731 0.641176 0.127604
0.508956 0.640688 0.127909
0.570946 0.640201 0.128215
0.632727 0.639714 0.128520
0.694323 0.639226 0.128826
0.755750 0.638739 0.129131
0.817022 0.638252 0.129437
0.878153 0.637764 0.129742
0.939152 0.637277 0.130048
1.000000 0.636861 0.130308
0.000000 0.703945 0.126493
0.065506 0.703459 0.126798
0.130887 0.702974 0.127104
0.195227 0.702488 0.127409
0.258905 0.702003 0.127715
0.322098 0.701518 0.128021
0.384906 0.701032 0.128326
0.447398 0.700547 0.128632
0.509620 0.700061 0.128937
0.571607 0.699576 0.129243
0.633387 0.699090 0.129548
0.694981 0.698604 0.129854
0.756406 0.698119 0.130159
0.817577 0.697882 0.130308
0.878512 0.697882 0.130308
0.939317 0.697882 0.130308
1.000000 0.697882 0.130308
0.000000 0.763095 0.127521
0.066213 0.762611 0.127826
0.131580 0.762127 0.128132
0.195911 0.761644 0.128437
0.259584 0.761160 0.128743
0.322771 0.760676 0.129048
0.385576 0.760192 0.129354
0.448065 0.759708 0.129659
0.510284 0.759224 0.129965
0.572269 0.758741 0.130270
0.633875 0.758680 0.130308
0.695272 0.758680 0.130308
0.756501 0.758680 0.130308
0.817577 0.758680 0.130308
0.878512 0.758680 0.130308
0.939317 0.758680 0.130308
1.000000 0.758680 0.130308
0.000000 0.822055 0.128549
0.066921 0.821572 0.128854
0.132272 0.821090 0.129160
0.196595 0.820608 0.129465
0.260262 0.820125 0.129771
0.323445 0.819643 0.130076
0.386198 0.819276 0.130308
0.448486 0.819276 0.130308
0.510506 0.819276 0.130308
0.572294 0.819276 0.130308
0.633875 0.819276 0.130308
0.695272 0.819276 0.130308
0.756501 0.819276 0.130308
0.817577 0.819276 0.130308
0.878512 0.819276 0.130308
0.939317 0.819276 0.130308
1.000000 0.819276 0.130308
0.000000 0.880839 0.129576
0.067628 0.880358 0.129882
0.132965 0.879877 0.130187
0.197157 0.879686 0.130308
0.260616 0.879686 0.130308
0.323597 0.879686 0.130308
0.386198 0.879686 0.130308
0.448486 0.879686 0.130308
0.510506 0.879686 0.130308
0.572294 0.879686 0.130308
0.633875 0.879686 0.130308
0.695272 0.879686 0.130308
0.756501 0.879686 0.130308
0.817577 0.879686 0.130308
0.878512 0.879686 0.130308
0.939317 0.879686 0.130308
1.000000 0.879686 0.130308
0.000000 0.939923 0.130308
0.067921 0.939923 0.130308
0.133046 0.939923 0.130308
0.197157 0.939923 0.130308
0.260616 0.939923 0.130308
0.323597 0.939923 0.130308
0.386198 0.939923 0.130308
0.448486 0.939923 0.130308
0.510506 0.939923 0.130308
0.572294 0.939923 0.130308
0.633875 0.939923 0.130308
0.695272 0.939923 0.130308
0.756501 0.939923 0.130308
0.817577 0.939923 0.130308
0.878512 0.939923 0.130308
0.939317 0.939923 0.130308
1.000000 0.939923 0.130308
0.000000 1.000000 0.130308
0.067921 1.000000 0.130308
0.133046 1.000000 0.130308
0.197157 1.000000 0.130308
0.260616 1.000000 0.130308
0.323597 1.000000 0.130308
0.386198 1.000000 0.130308
0.448486 1.000000 0.130308
0.510506 1.000000 0.130308
0.572294 1.000000 0.130308
0.633875 1.000000 0.130308
0.695272 1.000000 0.130308
0.756501 1.000000 0.130308
0.817577 1.000000 0.130308
0.878512 1.000000 0.130308
0.939317 1.000000 0.130308
1.000000 1.000000 0.130308
0.000000 0.028410 0.178980
0.057779 0.027855 0.179283
0.123332 0.027299 0.179587
0.187767 0.026743 0.179890
0.251511 0.026187 0.180194
0.314754 0.025630 0.180497
0.377603 0.025072 0.180800
0.440129 0.024514 0.181104
0.502381 0.023956 0.181407
0.564394 0.023397 0.181711
0.626196 0.022837 0.182014
0.687811 0.022277 0.182317
0.749254 0.021716 0.182621
0.810543 0.021154 0.182924
0.871688 0.020592 0.183227
0.932700 0.020030 0.183531
0.993590 0.019466 0.183834
0.000000 0.094143 0.180001
0.058489 0.093615 0.180304
0.124026 0.093087 0.180607
