RapidRAW-Android/app/src/main/assets/built_in_luts/fuji_velvia_50.cube
TITLE "Fuji Velvia 50"
LUT_3D_SIZE 9
0.000000 0.000000 0.000000
0.160428 0.000000 0.000000
0.295248 0.000000 0.000000
0.421840 0.000000 0.000000
0.543367 0.000000 0.000000
0.661263 0.000000 0.000000
0.776343 0.000000 0.000000
0.889134 0.000000 0.000000
1.000000 0.000000 0.000000
0.000000 0.160428 0.000000
0.160428 0.160428 0.000000
0.295248 0.147624 0.000000
0.421840 0.140613 0.000000
0.543367 0.135842 0.000000
0.661263 0.132253 0.000000
0.776343 0.129391 0.000000
0.889134 0.127019 0.000000
1.000000 0.125000 0.000000
0.000000 0.295248 0.000000
0.147624 0.295248 0.000000
0.295248 0.295248 0.000000
0.421840 0.281227 0.000000
0.543367 0.271684 0.000000
0.661263 0.264505 0.000000
0.776343 0.258781 0.000000
0.889134 0.254038 0.000000
1.000000 0.250000 0.000000
0.000000 0.421840 0.000000
0.140613 0.421840 0.000000
0.281227 0.421840 0.000000
0.421840 0.421840 0.000000
0.543367 0.407526 0.000000
0.661263 0.396758 0.000000
0.776343 0.388172 0.000000
0.889134 0.381057 0.000000
1.000000 0.375000 0.000000
0.000000 0.543367 0.000000
0.135842 0.543367 0.000000
0.271684 0.543367 0.000000
0.407526 0.543367 0.000000
0.543367 0.543367 0.000000
0.661263 0.529011 0.000000
0.776343 0.517562 0.000000
0.889134 0.508076 0.000000
1.000000 0.500000 0.000000
0.000000 0.661263 0.000000
0.132253 0.661263 0.000000
0.264505 0.661263 0.000000
0.396758 0.661263 0.000000
0.529011 0.661263 0.000000
0.661263 0.661263 0.000000
0.776343 0.646953 0.000000
0.889134 0.635096 0.000000
1.000000 0.625000 0.000000
0.000000 0.776343 0.000000
0.129391 0.776343 0.000000
0.258781 0.776343 0.000000
0.388172 0.776343 0.000000
0.517562 0.776343 0.000000
0.646953 0.776343 0.000000
0.776343 0.776343 0.000000
0.889134 0.762115 0.000000
1.000000 0.750000 0.000000
0.000000 0.889134 0.000000
0.127019 0.889134 0.000000
0.254038 0.889134 0.000000
0.381057 0.889134 0.000000
0.508076 0.889134 0.000000
0.635096 0.889134 0.000000
0.762115 0.889134 0.000000
0.889134 0.889134 0.000000
1.000000 0.875000 0.000000
0.000000 1.000000 0.000000
0.125000 1.000000 0.000000
0.250000 1.000000 0.000000
0.375000 1.000000 0.000000
0.500000 1.000000 0.000000
0.625000 1.000000 0.000000
0.750000 1.000000 0.000000
0.875000 1.000000 0.000000
1.000000 1.000000 0.000000
0.000000 0.000000 0.160428
0.160428 0.000000 0.160428
0.295248 0.000000 0.147624
0.421840 0.000000 0.140613
0.543367 0.000000 0.135842
0.661263 0.000000 0.132253
0.776343 0.000000 0.129391
0.889134 0.000000 0.127019
1.000000 0.000000 0.125000
0.000000 0.160428 0.160428
0.160428 0.160428 0.160428
0.295248 0.110718 0.110718
0.421840 0.070307 0.070307
0.543367 0.033960 0.033960
0.661263 0.000000 0.000000
0.776343 0.000000 0.000000
0.889134 0.000000 0.000000
1.000000 0.000000 0.000000
0.000000 0.295248 0.147624
0.110718 0.295248 0.110718
0.295248 0.295248 0.110718
0.421840 0.246073 0.070307
0.543367 0.203763 0.033960
0.661263 0.165316 0.000000
0.776343 0.155269 0.000000
0.889134 0.148189 0.000000
1.000000 0.142857 0.000000
0.000000 0.421840 0.140613
0.070307 0.421840 0.070307
0.246073 0.421840 0.070307
0.421840 0.421840 0.070307
0.543367 0.373565 0.033960
0.661263 0.330632 0.000000
0.776343 0.310537 0.000000
0.889134 0.296378 0.000000
1.000000 0.285714 0.000000
0.000000 0.543367 0.135842
0.033960 0.543367 0.033960
0.203763 0.543367 0.033960
0.373565 0.543367 0.033960
0.543367 0.543367 0.033960
0.661263 0.495947 0.000000
0.776343 0.465806 0.000000
0.889134 0.444567 0.000000
1.000000 0.428571 0.000000
0.000000 0.661263 0.132253
0.000000 0.661263 0.000000
0.165316 0.661263 0.000000
0.330632 0.661263 0.000000
0.495947 0.661263 0.000000
0.661263 0.661263 0.000000
0.776343 0.621075 0.000000
0.889134 0.592756 0.000000
1.000000 0.571429 0.000000
0.000000 0.776343 0.129391
0.000000 0.776343 0.000000
0.155269 0.776343 0.000000
0.310537 0.776343 0.000000
0.465806 0.776343 0.000000
0.621075 0.776343 0.000000
0.776343 0.776343 0.000000
0.889134 0.740945 0.000000
1.000000 0.714286 0.000000
0.000000 0.889134 0.127019
0.000000 0.889134 0.000000
0.148189 0.889134 0.000000
0.296378 0.889134 0.000000
0.444567 0.889134 0.000000
0.592756 0.889134 0.000000
0.740945 0.889134 0.000000
0.889134 0.889134 0.000000
1.000000 0.857143 0.000000
0.000000 1.000000 0.125000
0.000000 1.000000 0.000000
0.142857 1.000000 0.000000
0.285714 1.000000 0.000000
0.428571 1.000000 0.000000
0.571429 1.000000 0.000000
0.714286 1.000000 0.000000
0.857143 1.000000 0.000000
1.000000 1.000000 0.000000
0.000000 0.000000 0.295248
0.147624 0.000000 0.295248
0.295248 0.000000 0.295248
0.421840 0.000000 0.281227
0.543367 0.000000 0.271684
0.661263 0.000000 0.264505
0.776343 0.000000 0.258781
0.889134 0.000000 0.254038
1.000000 0.000000 0.250000
0.000000 0.147624 0.295248
0.110718 0.110718 0.295248
0.295248 0.110718 0.295248
0.421840 0.070307 0.246073
0.543367 0.033960 0.203763
0.661263 0.000000 0.165316
0.776343 0.000000 0.155269
0.889134 0.000000 0.148189
1.000000 0.000000 0.142857
0.000000 0.295248 0.295248
0.110718 0.295248 0.295248
0.295248 0.295248 0.295248
0.421840 0.246073 0.246073
0.543367 0.203763 0.203763
0.661263 0.165316 0.165316
0.776343 0.129391 0.129391
0.889134 0.095264 0.095264
1.000000 0.062500 0.062500
0.000000 0.421840 0.281227
0.070307 0.421840 0.246073
0.246073 0.421840 0.246073
0.421840 0.421840 0.246073
0.543367 0.373565 0.203763
0.661263 0.330632 0.165316
0.776343 0.291129 0.129391
0.889134 0.254038 0.095264
1.000000 0.218750 0.062500
0.000000 0.543367 0.271684
0.033960 0.543367 0.203763
0.203763 0.543367 0.203763
0.373565 0.543367 0.203763
0.543367 0.543367 0.203763
0.661263 0.495947 0.165316
0.776343 0.452867 0.129391
0.889134 0.412812 0.095264
1.000000 0.375000 0.062500
0.000000 0.661263 0.264505
0.000000 0.661263 0.165316
0.165316 0.661263 0.165316
0.330632 0.661263 0.165316
0.495947 0.661263 0.165316
0.661263 0.661263 0.165316
0.776343 0.614605 0.129391
0.889134 0.571586 0.095264
1.000000 0.531250 0.062500
0.000000 0.776343 0.258781
0.000000 0.776343 0.155269
0.129391 0.776343 0.129391
0.291129 0.776343 0.129391
0.452867 0.776343 0.129391
0.614605 0.776343 0.129391
0.776343 0.776343 0.129391
0.889134 0.730360 0.095264
1.000000 0.687500 0.062500
0.000000 0.889134 0.254038
0.000000 0.889134 0.148189
0.095264 0.889134 0.095264
0.254038 0.889134 0.095264
0.412812 0.889134 0.095264
0.571586 0.889134 0.095264
0.730360 0.889134 0.095264
0.889134 0.889134 0.095264
1.000000 0.843750 0.062500
0.000000 1.000000 0.250000
0.000000 1.000000 0.142857
0.062500 1.000000 0.062500
0.218750 1.000000 0.062500
0.375000 1.000000 0.062500
0.531250 1.000000 0.062500
0.687500 1.000000 0.062500
0.843750 1.000000 0.062500
1.000000 1.000000 0.062500
0.000000 0.000000 0.421840
0.140613 0.000000 0.421840
0.281227 0.000000 0.421840
0.421840 0.000000 0.421840
0.543367 0.000000 0.407526
0.661263 0.000000 0.396758
0.776343 0.000000 0.388172
0.889134 0.000000 0.381057
1.000000 0.000000 0.375000
0.000000 0.140613 0.421840
0.070307 0.070307 0.421840
0.246073 0.070307 0.421840
0.421840 0.070307 0.421840
0.543367 0.033960 0.373565
0.661263 0.000000 0.330632
0.776343 0.000000 0.310537
0.889134 0.000000 0.296378
1.000000 0.000000 0.285714
0.000000 0.281227 0.421840
0.070307 0.246073 0.421840
0.246073 0.246073 0.421840
0.421840 0.246073 0.421840
0.543367 0.203763 0.373565
0.661263 0.165316 0.330632
0.776343 0.129391 0.291129
0.889134 0.095264 0.254038
1.000000 0.062500 0.218750
0.000000 0.421840 0.421840
0.070307 0.421840 0.421840
0.246073 0.421840 0.421840
0.421840 0.421840 0.421840
0.543367 0.373565 0.373565
0.661263 0.330632 0.330632
0.776343 0.291129 0.291129
0.889134 0.254038 0.254038
1.000000 0.218750 0.218750
0.000000 0.543367 0.407526
0.033960 0.543367 0.373565
0.203763 0.543367 0.373565
0.373565 0.543367 0.373565
0.543367 0.543367 0.373565
0.661263 0.495947 0.330632
0.776343 0.452867 0.291129
0.889134 0.412812 0.254038
1.000000 0.375000 0.218750
0.000000 0.661263 0.396758
0.000000 0.661263 0.330632
0.165316 0.661263 0.330632
0.330632 0.661263 0.330632
0.495947 0.661263 0.330632
0.661263 0.661263 0.330632
0.776343 0.614605 0.291129
0.889134 0.571586 0.254038
1.000000 0.531250 0.218750
0.000000 0.776343 0.388172
0.000000 0.776343 0.310537
0.129391 0.776343 0.291129
0.291129 0.776343 0.291129
0.452867 0.776343 0.291129
0.614605 0.776343 0.291129
0.776343 0.776343 0.291129
0.889134 0.730360 0.254038
1.000000 0.687500 0.218750
0.000000 0.889134 0.381057
0.000000 0.889134 0.296378
0.095264 0.889134 0.254038
0.254038 0.889134 0.254038
0.412812 0.889134 0.254038
0.571586 0.889134 0.254038
0.730360 0.889134 0.254038
0.889134 0.889134 0.254038
1.000000 0.843750 0.218750
0.000000 1.000000 0.375000
0.000000 1.000000 0.285714
0.062500 1.000000 0.218750
0.218750 1.000000 0.218750
0.375000 1.000000 0.218750
0.531250 1.000000 0.218750
0.687500 1.000000 0.218750
0.843750 1.000000 0.218750
1.000000 1.000000 0.218750
0.000000 0.000000 0.543367
0.135842 0.000000 0.543367
0.271684 0.000000 0.543367
0.407526 0.000000 0.543367
0.543367 0.000000 0.543367
0.661263 0.000000 0.529011
0.776343 0.000000 0.517562
0.889134 0.000000 0.508076
1.000000 0.000000 0.500000
0.000000 0.135842 0.543367
0.033960 0.033960 0.543367
0.203763 0.033960 0.543367
0.373565 0.033960 0.543367
0.543367 0.033960 0.543367
0.661263 0.000000 0.495947
0.776343 0.000000 0.465806
0.889134 0.000000 0.444567
1.000000 0.000000 0.428571
0.000000 0.271684 0.543367
0.033960 0.203763 0.543367
0.203763 0.203763 0.543367
0.373565 0.203763 0.543367
0.543367 0.203763 0.543367
0.661263 0.165316 0.495947
0.776343 0.129391 0.452867
0.889134 0.095264 0.412812
1.000000 0.062500 0.375000
0.000000 0.407526 0.543367
0.033960 0.373565 0.543367
0.203763 0.373565 0.543367
0.373565 0.373565 0.543367
0.543367 0.373565 0.543367
0.661263 0.330632 0.495947
0.776343 0.291129 0.452867
0.889134 0.254038 0.412812
1.000000 0.218750 0.375000
0.000000 0.543367 0.543367
0.033960 0.543367 0.543367
0.203763 0.543367 0.543367
0.373565 0.543367 0.543367
0.543367 0.543367 0.543367
0.661263 0.495947 0.495947
0.776343 0.452867 0.452867
0.889134 0.412812 0.412812
1.000000 0.375000 0.375000
0.000000 0.661263 0.529011
0.000000 0.661263 0.495947
0.165316 0.661263 0.495947
0.330632 0.661263 0.495947
0.495947 0.661263 0.495947
0.661263 0.661263 0.495947
0.776343 0.614605 0.452867
0.889134 0.571586 0.412812
1.000000 0.531250 0.375000
0.000000 0.776343 0.517562
0.000000 0.776343 0.465806
0.129391 0.776343 0.452867
0.291129 0.776343 0.452867
0.452867 0.776343 0.452867
0.614605 0.776343 0.452867
0.776343 0.776343 0.452867
0.889134 0.730360 0.412812
1.000000 0.687500 0.375000
0.000000 0.889134 0.508076
0.000000 0.889134 0.444567
0.095264 0.889134 0.412812
0.254038 0.889134 0.412812
0.412812 0.889134 0.412812
0.571586 0.889134 0.412812
0.730360 0.889134 0.412812
0.889134 0.889134 0.412812
1.000000 0.843750 0.375000
0.000000 1.000000 0.500000
0.000000 1.000000 0.428571
0.062500 1.000000 0.375000
0.218750 1.000000 0.375000
0.375000 1.000000 0.375000
0.531250 1.000000 0.375000
0.687500 1.000000 0.375000
0.843750 1.000000 0.375000
1.000000 1.000000 0.375000
0.000000 0.000000 0.661263
0.132253 0.000000 0.661263
0.264505 0.000000 0.661263
0.396758 0.000000 0.661263
0.529011 0.000000 0.661263
0.661263 0.000000 0.661263
0.776343 0.000000 0.646953
0.889134 0.000000 0.635096
1.000000 0.000000 0.625000
0.000000 0.132253 0.661263
0.000000 0.000000 0.661263
0.165316 0.000000 0.661263
0.330632 0.000000 0.661263
0.495947 0.000000 0.661263
0.661263 0.000000 0.661263
0.776343 0.000000 0.621075
0.889134 0.000000 0.592756
1.000000 0.000000 0.571429
0.000000 0.264505 0.661263
0.000000 0.165316 0.661263
0.165316 0.165316 0.661263
0.330632 0.165316 0.661263
0.495947 0.165316 0.661263
0.661263 0.165316 0.661263
0.776343 0.129391 0.614605
0.889134 0.095264 0.571586
1.000000 0.062500 0.531250
0.000000 0.396758 0.661263
0.000000 0.330632 0.661263
0.165316 0.330632 0.661263
0.330632 0.330632 0.661263
0.495947 0.330632 0.661263
0.661263 0.330632 0.661263
0.776343 0.291129 0.614605
0.889134 0.254038 0.571586
1.000000 0.218750 0.531250
0.000000 0.529011 0.661263
0.000000 0.495947 0.661263
0.165316 0.495947 0.661263
0.330632 0.495947 0.661263
0.495947 0.495947 0.661263
0.661263 0.495947 0.661263
0.776343 0.452867 0.614605
0.889134 0.412812 0.571586
1.000000 0.375000 0.531250
0.000000 0.661263 0.661263
0.000000 0.661263 0.661263
0.165316 0.661263 0.661263
0.330632 0.661263 0.661263
0.495947 0.661263 0.661263
0.661263 0.661263 0.661263
0.776343 0.614605 0.614605
0.889134 0.571586 0.571586
1.000000 0.531250 0.531250
0.000000 0.776343 0.646953
0.000000 0.776343 0.621075
0.129391 0.776343 0.614605
0.291129 0.776343 0.614605
0.452867 0.776343 0.614605
0.614605 0.776343 0.614605
0.776343 0.776343 0.614605
0.889134 0.730360 0.571586
1.000000 0.687500 0.531250
0.000000 0.889134 0.635096
0.000000 0.889134 0.592756
0.095264 0.889134 0.571586
0.254038 0.889134 0.571586
0.412812 0.889134 0.571586
0.571586 0.889134 0.571586
0.730360 0.889134 0.571586
0.889134 0.889134 0.571586
1.000000 0.843750 0.531250
0.000000 1.000000 0.625000
0.000000 1.000000 0.571429
0.062500 1.000000 0.531250
0.218750 1.000000 0.531250
0.375000 1.000000 0.531250
0.531250 1.000000 0.531250
0.687500 1.000000 0.531250
0.843750 1.000000 0.531250
1.000000 1.000000 0.531250
0.000000 0.000000 0.776343
0.129391 0.000000 0.776343
0.258781 0.000000 0.776343
0.388172 0.000000 0.776343
0.517562 0.000000 0.776343
0.646953 0.000000 0.776343
0.776343 0.000000 0.776343
0.889134 0.000000 0.762115
1.000000 0.000000 0.750000
0.000000 0.129391 0.776343
0.000000 0.000000 0.776343
0.155269 0.000000 0.776343
0.310537 0.000000 0.776343
0.465806 0.000000 0.776343
0.621075 0.000000 0.776343
0.776343 0.000000 0.776343
0.889134 0.000000 0.740945
1.000000 0.000000 0.714286
0.000000 0.258781 0.776343
0.000000 0.155269 0.776343
0.129391 0.129391 0.776343
0.291129 0.129391 0.776343
0.452867 0.129391 0.776343
0.614605 0.129391 0.776343
0.776343 0.129391 0.776343
0.889134 0.095264 0.730360
1.000000 0.062500 0.687500
0.000000 0.388172 0.776343
0.000000 0.310537 0.776343
0.129391 0.291129 0.776343
0.291129 0.291129 0.776343
0.452867 0.291129 0.776343
0.614605 0.291129 0.776343
0.776343 0.291129 0.776343
0.889134 0.254038 0.730360
1.000000 0.218750 0.687500
0.000000 0.517562 0.776343
0.000000 0.465806 0.776343
0.129391 0.452867 0.776343
0.291129 0.452867 0.776343
0.452867 0.452867 0.776343
0.614605 0.452867 0.776343
0.776343 0.452867 0.776343
0.889134 0.412812 0.730360
1.000000 0.375000 0.687500
0.000000 0.646953 0.776343
0.000000 0.621075 0.776343
0.129391 0.614605 0.776343
0.291129 0.614605 0.776343
0.452867 0.614605 0.776343
0.614605 0.614605 0.776343
0.776343 0.614605 0.776343
0.889134 0.571586 0.730360
1.000000 0.531250 0.687500
0.000000 0.776343 0.776343
0.000000 0.776343 0.776343
0.129391 0.776343 0.776343
0.291129 0.776343 0.776343
0.452867 0.776343 0.776343
0.614605 0.776343 0.776343
0.776343 0.776343 0.776343
0.889134 0.730360 0.730360
1.000000 0.687500 0.687500
0.000000 0.889134 0.762115
0.000000 0.889134 0.740945
0.095264 0.889134 0.730360
0.254038 0.889134 0.730360
0.412812 0.889134 0.730360
0.571586 0.889134 0.730360
0.730360 0.889134 0.730360
0.889134 0.889134 0.730360
1.000000 0.843750 0.687500
0.000000 1.000000 0.750000
0.000000 1.000000 0.714286
0.062500 1.000000 0.687500
0.218750 1.000000 0.687500
0.375000 1.000000 0.687500
0.531250 1.000000 0.687500
0.687500 1.000000 0.687500
0.843750 1.000000 0.687500
1.000000 1.000000 0.687500
0.000000 0.000000 0.889134
0.127019 0.000000 0.889134
0.254038 0.000000 0.889134
0.381057 0.000000 0.889134
0.508076 0.000000 0.889134
0.635096 0.000000 0.889134
0.762115 0.000000 0.889134
0.889134 0.000000 0.889134
1.000000 0.000000 0.875000
0.000000 0.127019 0.889134
0.000000 0.000000 0.889134
0.148189 0.000000 0.889134
0.296378 0.000000 0.889134
0.444567 0.000000 0.889134
0.592756 0.000000 0.889134
0.740945 0.000000 0.889134
0.889134 0.000000 0.889134
1.000000 0.000000 0.857143
0.000000 0.254038 0.889134
0.000000 0.148189 0.889134
0.095264 0.095264 0.889134
0.254038 0.095264 0.889134
0.412812 0.095264 0.889134
0.571586 0.095264 0.889134
0.730360 0.095264 0.889134
0.889134 0.095264 0.889134
1.000000 0.062500 0.843750
0.000000 0.381057 0.889134
0.000000 0.296378 0.889134
0.095264 0.254038 0.889134
0.254038 0.254038 0.889134
0.412812 0.254038 0.889134
0.571586 0.254038 0.889134
0.730360 0.254038 0.889134
0.889134 0.254038 0.889134
1.000000 0.218750 0.843750
0.000000 0.508076 0.889134
0.000000 0.444567 0.889134
0.095264 0.412812 0.889134
0.254038 0.412812 0.889134
0.412812 0.412812 0.889134
0.571586 0.412812 0.889134
0.730360 0.412812 0.889134
0.889134 0.412812 0.889134
1.000000 0.375000 0.843750
0.000000 0.635096 0.889134
0.000000 0.592756 0.889134
0.095264 0.571586 0.889134
0.254038 0.571586 0.889134
0.412812 0.571586 0.889134
0.571586 0.571586 0.889134
0.730360 0.571586 0.889134
0.889134 0.571586 0.889134
1.000000 0.531250 0.843750
0.000000 0.762115 0.889134
0.000000 0.740945 0.889134
0.095264 0.730360 0.889134
0.254038 0.730360 0.889134
0.412812 0.730360 0.889134
0.571586 0.730360 0.889134
0.730360 0.730360 0.889134
0.889134 0.730360 0.889134
1.000000 0.687500 0.843750
0.000000 0.889134 0.889134
0.000000 0.889134 0.889134
0.095264 0.889134 0.889134
0.254038 0.889134 0.889134
0.412812 0.889134 0.889134
0.571586 0.889134 0.889134
0.730360 0.889134 0.889134
0.889134 0.889134 0.889134
1.000000 0.843750 0.843750
0.000000 1.000000 0.875000
0.000000 1.000000 0.857143
0.062500 1.000000 0.843750
0.218750 1.000000 0.843750
0.375000 1.000000 0.843750
0.531250 1.000000 0.843750
0.687500 1.000000 0.843750
0.843750 1.000000 0.843750
1.000000 1.000000 0.843750
0.000000 0.000000 1.000000
0.125000 0.000000 1.000000
0.250000 0.000000 1.000000
0.375000 0.000000 1.000000
0.500000 0.000000 1.000000
0.625000 0.000000 1.000000
0.750000 0.000000 1.000000
0.875000 0.000000 1.000000
1.000000 0.000000 1.000000
0.000000 0.125000 1.000000
0.000000 0.000000 1.000000
0.142857 0.000000 1.000000
0.285714 0.000000 1.000000
0.428571 0.000000 1.000000
0.571429 0.000000 1.000000
0.714286 0.000000 1.000000
0.857143 0.000000 1.000000
1.000000 0.000000 1.000000
0.000000 0.250000 1.000000
0.000000 0.142857 1.000000
0.062500 0.062500 1.000000
0.218750 0.062500 1.000000
0.375000 0.062500 1.000000
0.531250 0.062500 1.000000
0.687500 0.062500 1.000000
0.843750 0.062500 1.000000
1.000000 0.062500 1.000000
0.000000 0.375000 1.000000
0.000000 0.285714 1.000000
0.062500 0.218750 1.000000
0.218750 0.218750 1.000000
0.375000 0.218750 1.000000
0.531250 0.218750 1.000000
0.687500 0.218750 1.000000
0.843750 0.218750 1.000000
1.000000 0.218750 1.000000
0.000000 0.500000 1.000000
0.000000 0.428571 1.000000
0.062500 0.375000 1.000000
0.218750 0.375000 1.000000
0.375000 0.375000 1.000000
0.531250 0.375000 1.000000
0.687500 0.375000 1.000000
0.843750 0.375000 1.000000
1.000000 0.375000 1.000000
0.000000 0.625000 1.000000
0.000000 0.571429 1.000000
0.062500 0.531250 1.000000
0.218750 0.531250 1.000000
0.375000 0.531250 1.000000
0.531250 0.531250 1.000000
0.687500 0.531250 1.000000
0.843750 0.531250 1.000000
1.000000 0.531250 1.000000
0.000000 0.750000 1.000000
0.000000 0.714286 1.000000
0.062500 0.687500 1.000000
0.218750 0.687500 1.000000
0.375000 0.687500 1.000000
0.531250 0.687500 1.000000
0.687500 0.687500 1.000000
0.843750 0.687500 1.000000
1.000000 0.687500 1.000000
0.000000 0.875000 1.000000
0.000000 0.857143 1.000000
0.062500 0.843750 1.000000
0.218750 0.843750 1.000000
0.375000 0.843750 1.000000
0.531250 0.843750 1.000000
0.687500 0.843750 1.000000
0.843750 0.843750 1.000000
1.000000 0.843750 1.000000
0.000000 1.000000 1.000000
0.000000 1.000000 1.000000
0.062500 1.000000 1.000000
0.218750 1.000000 1.000000
0.375000 1.000000 1.000000
0.531250 1.000000 1.000000
0.687500 1.000000 1.000000
0.843750 1.000000 1.000000
1.000000 1.000000 1.000000
