RapidRAW-Android/app/src/main/assets/built_in_luts/fuji_superia_400.cube
TITLE "Fuji Superia 400"
LUT_3D_SIZE 5
0.000000 0.028975 0.000000
0.251305 0.026754 0.000000
0.502179 0.024525 0.000000
0.749056 0.022287 0.000000
0.993393 0.020040 0.000000
0.000000 0.282793 0.000000
0.254020 0.280776 0.000000
0.504837 0.278758 0.000000
0.751681 0.276740 0.000000
0.995995 0.274721 0.000000
0.000000 0.525491 0.000000
0.256734 0.523525 0.000000
0.507494 0.521559 0.000000
0.754305 0.519593 0.000000
0.998596 0.517627 0.000000
0.000000 0.763424 0.000000
0.259447 0.761488 0.000000
0.510150 0.759553 0.000000
0.756501 0.758680 0.000000
1.000000 0.758680 0.000000
0.000000 1.000000 0.000000
0.260616 1.000000 0.000000
0.510506 1.000000 0.000000
0.756501 1.000000 0.000000
1.000000 1.000000 0.000000
0.000000 0.028221 0.242316
0.251580 0.025998 0.243522
0.502448 0.023766 0.244728
0.749321 0.021525 0.245934
0.993655 0.019275 0.247140
0.000000 0.282108 0.246373
0.254294 0.280090 0.247579
0.505105 0.278072 0.248785
0.751945 0.276054 0.249990
0.996257 0.274035 0.251196
0.000000 0.524823 0.250429
0.257008 0.522858 0.251635
0.507762 0.520892 0.252840
0.754570 0.518926 0.254045
0.998859 0.516959 0.255251
0.000000 0.762766 0.254484
0.259720 0.760831 0.255689
0.510418 0.758896 0.256894
0.756501 0.758680 0.257028
1.000000 0.758680 0.257028
0.000000 1.000000 0.257028
0.260616 1.000000 0.257028
0.510506 1.000000 0.257028
0.756501 1.000000 0.257028
1.000000 1.000000 0.257028
0.000000 0.027467 0.492878
0.251854 0.025241 0.494067
0.502716 0.023006 0.495255
0.749586 0.020762 0.496444
0.993918 0.018508 0.497633
0.000000 0.281423 0.496877
0.254568 0.279405 0.498066
0.505373 0.277387 0.499255
0.752210 0.275368 0.500443
0.996520 0.273349 0.501632
0.000000 0.524156 0.500876
0.257282 0.522190 0.502065
0.508030 0.520224 0.503253
0.754835 0.518258 0.504442
0.999122 0.516291 0.505630
0.000000 0.762109 0.504874
0.259994 0.760174 0.506063
0.510506 0.758680 0.506980
0.756501 0.758680 0.506980
1.000000 0.758680 0.506980
0.000000 1.000000 0.506980
0.260616 1.000000 0.506980
0.510506 1.000000 0.506980
0.756501 1.000000 0.506980
1.000000 1.000000 0.506980
0.000000 0.026712 0.740741
0.252128 0.024483 0.741920
0.502984 0.022245 0.743099
0.749851 0.019998 0.744279
0.994181 0.017740 0.745458
0.000000 0.280738 0.744708
0.254842 0.278720 0.745887
0.505641 0.276702 0.747066
0.752475 0.274683 0.748245
0.996783 0.272663 0.749424
0.000000 0.523488 0.748674
0.257556 0.521522 0.749853
0.508298 0.519556 0.751032
0.755100 0.517590 0.752210
0.999384 0.515623 0.753389
0.000000 0.761452 0.752640
0.260268 0.759517 0.753818
0.510506 0.758680 0.754328
0.756501 0.758680 0.754328
1.000000 0.758680 0.754328
0.000000 1.000000 0.754328
0.260616 1.000000 0.754328
0.510506 1.000000 0.754328
0.756501 1.000000 0.754328
1.000000 1.000000 0.754328
0.000000 0.025956 0.986890
0.252402 0.023724 0.988063
0.503252 0.021483 0.989235
0.750116 0.019232 0.990407
0.994443 0.016971 0.991579
0.000000 0.280052 0.990834
0.255116 0.278035 0.992006
0.505910 0.276016 0.993178
0.752740 0.273997 0.994350
0.997045 0.271977 0.995522
0.000000 0.522821 0.994777
0.257829 0.520855 0.995949
0.508566 0.518889 0.997121
0.755365 0.516922 0.998293
0.999647 0.514955 0.999465
0.000000 0.760795 0.998720
0.260542 0.758859 0.999892
0.510506 0.758680 1.000000
0.756501 0.758680 1.000000
1.000000 0.758680 1.000000
0.000000 1.000000 1.000000
0.260616 1.000000 1.000000
0.510506 1.000000 1.000000
0.756501 1.000000 1.000000
1.000000 1.000000 1.000000
