RapidRAW-Android/app/src/main/assets/built_in_luts/kodak_ektar_100.cube
TITLE "Kodak Ektar 100"
LUT_3D_SIZE 5
0.000000 0.000000 0.000000
0.293288 0.000000 0.000000
0.554934 0.000000 0.000000
0.805834 0.000000 0.000000
1.000000 0.000000 0.000000
0.000000 0.279322 0.000000
0.293288 0.279322 0.000000
0.554934 0.264255 0.000000
0.805834 0.255820 0.000000
1.000000 0.250000 0.000000
0.000000 0.528509 0.000000
0.277467 0.528509 0.000000
0.554934 0.528509 0.000000
0.805834 0.511641 0.000000
1.000000 0.500000 0.000000
0.000000 0.767461 0.000000
0.268611 0.767461 0.000000
0.537223 0.767461 0.000000
0.805834 0.767461 0.000000
1.000000 0.750000 0.000000
0.000000 1.000000 0.000000
0.262500 1.000000 0.000000
0.525000 1.000000 0.000000
0.787500 1.000000 0.000000
1.000000 1.000000 0.000000
0.000000 0.000000 0.270942
0.293288 0.000000 0.270942
0.554934 0.000000 0.256327
0.805834 0.000000 0.248146
1.000000 0.000000 0.242500
0.000000 0.279322 0.270942
0.293288 0.279322 0.270942
0.554934 0.224616 0.217878
0.805834 0.179074 0.173702
1.000000 0.137500 0.133375
0.000000 0.528509 0.256327
0.235847 0.528509 0.217878
0.554934 0.528509 0.217878
0.805834 0.473268 0.173702
1.000000 0.425000 0.133375
0.000000 0.767461 0.248146
0.188028 0.767461 0.173702
0.496931 0.767461 0.173702
0.805834 0.767461 0.173702
1.000000 0.712500 0.133375
0.000000 1.000000 0.242500
0.144375 1.000000 0.133375
0.446250 1.000000 0.133375
0.748125 1.000000 0.133375
1.000000 1.000000 0.133375
0.000000 0.000000 0.512654
0.277467 0.000000 0.512654
0.554934 0.000000 0.512654
0.805834 0.000000 0.496292
1.000000 0.000000 0.485000
0.000000 0.264255 0.512654
0.235847 0.224616 0.512654
0.554934 0.224616 0.512654
0.805834 0.179074 0.459070
1.000000 0.137500 0.412250
0.000000 0.528509 0.512654
0.235847 0.528509 0.512654
0.554934 0.528509 0.512654
0.805834 0.473268 0.459070
1.000000 0.425000 0.412250
0.000000 0.767461 0.496292
0.188028 0.767461 0.459070
0.496931 0.767461 0.459070
0.805834 0.767461 0.459070
1.000000 0.712500 0.412250
0.000000 1.000000 0.485000
0.144375 1.000000 0.412250
0.446250 1.000000 0.412250
0.748125 1.000000 0.412250
1.000000 1.000000 0.412250
0.000000 0.000000 0.744437
0.268611 0.000000 0.744437
0.537223 0.000000 0.744437
0.805834 0.000000 0.744437
1.000000 0.000000 0.727500
0.000000 0.255820 0.744437
0.188028 0.179074 0.744437
0.496931 0.179074 0.744437
0.805834 0.179074 0.744437
1.000000 0.137500 0.691125
0.000000 0.511641 0.744437
0.188028 0.473268 0.744437
0.496931 0.473268 0.744437
0.805834 0.473268 0.744437
1.000000 0.425000 0.691125
0.000000 0.767461 0.744437
0.188028 0.767461 0.744437
0.496931 0.767461 0.744437
0.805834 0.767461 0.744437
1.000000 0.712500 0.691125
0.000000 1.000000 0.727500
0.144375 1.000000 0.691125
0.446250 1.000000 0.691125
0.748125 1.000000 0.691125
1.000000 1.000000 0.691125
0.000000 0.000000 0.970000
0.262500 0.000000 0.970000
0.525000 0.000000 0.970000
0.787500 0.000000 0.970000
1.000000 0.000000 0.970000
0.000000 0.250000 0.970000
0.144375 0.137500 0.970000
0.446250 0.137500 0.970000
0.748125 0.137500 0.970000
1.000000 0.137500 0.970000
0.000000 0.500000 0.970000
0.144375 0.425000 0.970000
0.446250 0.425000 0.970000
0.748125 0.425000 0.970000
1.000000 0.425000 0.970000
0.000000 0.750000 0.970000
0.144375 0.712500 0.970000
0.446250 0.712500 0.970000
0.748125 0.712500 0.970000
1.000000 0.712500 0.970000
0.000000 1.000000 0.970000
0.144375 1.000000 0.970000
0.446250 1.000000 0.970000
0.748125 1.000000 0.970000
1.000000 1.000000 0.970000
