RapidRAW-Android/app/src/main/assets/built_in_luts/kodak_portra_400.cube
TITLE "Kodak Portra 400"
LUT_3D_SIZE 5
0.024321 0.018505 0.012589
0.283194 0.018505 0.012589
0.527463 0.018505 0.012589
0.765684 0.018505 0.012589
1.000000 0.018505 0.012589
0.024321 0.275574 0.012589
0.283194 0.275574 0.012589
0.527463 0.275574 0.012589
0.765684 0.275574 0.012589
1.000000 0.275574 0.012589
0.024321 0.517632 0.012589
0.283194 0.517632 0.012589
0.527463 0.517632 0.012589
0.765684 0.517632 0.012589
1.000000 0.517632 0.012589
0.024321 0.753636 0.012589
0.283194 0.753636 0.012589
0.527463 0.753636 0.012589
0.765684 0.753636 0.012589
1.000000 0.753636 0.012589
0.024321 0.985745 0.012589
0.283194 0.985745 0.012589
0.527463 0.985745 0.012589
0.765684 0.985745 0.012589
1.000000 0.985745 0.012589
0.024321 0.018505 0.262850
0.283194 0.018505 0.262850
0.527463 0.018505 0.262850
0.765684 0.018505 0.262850
1.000000 0.018505 0.262850
0.024321 0.275574 0.262850
0.283194 0.275574 0.262850
0.527463 0.275574 0.262850
0.765684 0.275574 0.262850
1.000000 0.275574 0.262850
0.024321 0.517632 0.262850
0.283194 0.517632 0.262850
0.527463 0.517632 0.262850
0.765684 0.517632 0.262850
1.000000 0.517632 0.262850
0.024321 0.753636 0.262850
0.283194 0.753636 0.262850
0.527463 0.753636 0.262850
0.765684 0.753636 0.262850
1.000000 0.753636 0.262850
0.024321 0.985745 0.262850
0.283194 0.985745 0.262850
0.527463 0.985745 0.262850
0.765684 0.985745 0.262850
1.000000 0.985745 0.262850
0.024321 0.018505 0.497942
0.283194 0.018505 0.497942
0.527463 0.018505 0.497942
0.765684 0.018505 0.497942
1.000000 0.018505 0.497942
0.024321 0.275574 0.497942
0.283194 0.275574 0.497942
0.527463 0.275574 0.497942
0.765684 0.275574 0.497942
1.000000 0.275574 0.497942
0.024321 0.517632 0.497942
0.283194 0.517632 0.497942
0.527463 0.517632 0.497942
0.765684 0.517632 0.497942
1.000000 0.517632 0.497942
0.024321 0.753636 0.497942
0.283194 0.753636 0.497942
0.527463 0.753636 0.497942
0.765684 0.753636 0.497942
1.000000 0.753636 0.497942
0.024321 0.985745 0.497942
0.283194 0.985745 0.497942
0.527463 0.985745 0.497942
0.765684 0.985745 0.497942
1.000000 0.985745 0.497942
0.024321 0.018505 0.727094
0.283194 0.018505 0.727094
0.527463 0.018505 0.727094
0.765684 0.018505 0.727094
1.000000 0.018505 0.727094
0.024321 0.275574 0.727094
0.283194 0.275574 0.727094
0.527463 0.275574 0.727094
0.765684 0.275574 0.727094
1.000000 0.275574 0.727094
0.024321 0.517632 0.727094
0.283194 0.517632 0.727094
0.527463 0.517632 0.727094
0.765684 0.517632 0.727094
1.000000 0.517632 0.727094
0.024321 0.753636 0.727094
0.283194 0.753636 0.727094
0.527463 0.753636 0.727094
0.765684 0.753636 0.727094
1.000000 0.753636 0.727094
0.024321 0.985745 0.727094
0.283194 0.985745 0.727094
0.527463 0.985745 0.727094
0.765684 0.985745 0.727094
1.000000 0.985745 0.727094
0.024321 0.018505 0.952440
0.283194 0.018505 0.952440
0.527463 0.018505 0.952440
0.765684 0.018505 0.952440
1.000000 0.018505 0.952440
0.024321 0.275574 0.952440
0.283194 0.275574 0.952440
0.527463 0.275574 0.952440
0.765684 0.275574 0.952440
1.000000 0.275574 0.952440
0.024321 0.517632 0.952440
0.283194 0.517632 0.952440
0.527463 0.517632 0.952440
0.765684 0.517632 0.952440
1.000000 0.517632 0.952440
0.024321 0.753636 0.952440
0.283194 0.753636 0.952440
0.527463 0.753636 0.952440
0.765684 0.753636 0.952440
1.000000 0.753636 0.952440
0.024321 0.985745 0.952440
0.283194 0.985745 0.952440
0.527463 0.985745 0.952440
0.765684 0.985745 0.952440
1.000000 0.985745 0.952440
