RapidRAW-Android/app/src/main/assets/built_in_luts/kodak_ektar_100.cube
TITLE "Kodak Ektar 100"
LUT_3D_SIZE 17
0.000000 0.000000 0.000000
0.081922 0.000000 0.000000
0.155005 0.000000 0.000000
0.225087 0.000000 0.000000
0.293288 0.000000 0.000000
0.360123 0.000000 0.000000
0.425891 0.000000 0.000000
0.490783 0.000000 0.000000
0.554934 0.000000 0.000000
0.618446 0.000000 0.000000
0.681395 0.000000 0.000000
0.743841 0.000000 0.000000
0.805834 0.000000 0.000000
0.867415 0.000000 0.000000
0.928617 0.000000 0.000000
0.989471 0.000000 0.000000
1.000000 0.000000 0.000000
0.000000 0.078021 0.000000
0.081922 0.078021 0.000000
0.155005 0.073812 0.000000
0.225087 0.071456 0.000000
0.293288 0.069830 0.000000
0.360123 0.068595 0.000000
0.425891 0.067602 0.000000
0.490783 0.066773 0.000000
0.554934 0.066064 0.000000
0.618446 0.065444 0.000000
0.681395 0.064895 0.000000
0.743841 0.064402 0.000000
0.805834 0.063955 0.000000
0.867415 0.063547 0.000000
0.928617 0.063171 0.000000
0.989471 0.062824 0.000000
1.000000 0.062500 0.000000
0.000000 0.147624 0.000000
0.077503 0.147624 0.000000
0.155005 0.147624 0.000000
0.225087 0.142912 0.000000
0.293288 0.139661 0.000000
0.360123 0.137190 0.000000
0.425891 0.135203 0.000000
0.490783 0.133546 0.000000
0.554934 0.132127 0.000000
0.618446 0.130888 0.000000
0.681395 0.129790 0.000000
0.743841 0.128804 0.000000
0.805834 0.127910 0.000000
0.867415 0.127094 0.000000
0.928617 0.126342 0.000000
0.989471 0.125647 0.000000
1.000000 0.125000 0.000000
0.000000 0.214369 0.000000
0.075029 0.214369 0.000000
0.150058 0.214369 0.000000
0.225087 0.214369 0.000000
0.293288 0.209491 0.000000
0.360123 0.205785 0.000000
0.425891 0.202805 0.000000
0.490783 0.200319 0.000000
0.554934 0.198191 0.000000
0.618446 0.196332 0.000000
0.681395 0.194684 0.000000
0.743841 0.193205 0.000000
0.805834 0.191865 0.000000
0.867415 0.190641 0.000000
0.928617 0.189514 0.000000
0.989471 0.188471 0.000000
1.000000 0.187500 0.000000
0.000000 0.279322 0.000000
0.073322 0.279322 0.000000
0.146644 0.279322 0.000000
0.219966 0.279322 0.000000
0.293288 0.279322 0.000000
0.360123 0.274380 0.000000
0.425891 0.270407 0.000000
0.490783 0.267093 0.000000
0.554934 0.264255 0.000000
0.618446 0.261776 0.000000
0.681395 0.259579 0.000000
0.743841 0.257607 0.000000
0.805834 0.255820 0.000000
0.867415 0.254187 0.000000
0.928617 0.252685 0.000000
0.989471 0.251294 0.000000
1.000000 0.250000 0.000000
0.000000 0.342975 0.000000
0.072025 0.342975 0.000000
0.144049 0.342975 0.000000
0.216074 0.342975 0.000000
0.288099 0.342975 0.000000
0.360123 0.342975 0.000000
0.425891 0.338008 0.000000
0.490783 0.333866 0.000000
0.554934 0.330318 0.000000
0.618446 0.327220 0.000000
0.681395 0.324474 0.000000
0.743841 0.322009 0.000000
0.805834 0.319775 0.000000
0.867415 0.317734 0.000000
0.928617 0.315856 0.000000
0.989471 0.314118 0.000000
1.000000 0.312500 0.000000
0.000000 0.405610 0.000000
0.070982 0.405610 0.000000
0.141964 0.405610 0.000000
0.212945 0.405610 0.000000
0.283927 0.405610 0.000000
0.354909 0.405610 0.000000
0.425891 0.405610 0.000000
0.490783 0.400639 0.000000
0.554934 0.396382 0.000000
0.618446 0.392664 0.000000
0.681395 0.389369 0.000000
0.743841 0.386411 0.000000
0.805834 0.383731 0.000000
0.867415 0.381281 0.000000
0.928617 0.379027 0.000000
0.989471 0.376941 0.000000
1.000000 0.375000 0.000000
0.000000 0.467412 0.000000
0.070112 0.467412 0.000000
0.140224 0.467412 0.000000
0.210335 0.467412 0.000000
0.280447 0.467412 0.000000
0.350559 0.467412 0.000000
0.420671 0.467412 0.000000
0.490783 0.467412 0.000000
0.554934 0.462445 0.000000
0.618446 0.458108 0.000000
0.681395 0.454263 0.000000
0.743841 0.450813 0.000000
0.805834 0.447686 0.000000
0.867415 0.444828 0.000000
0.928617 0.442199 0.000000
0.989471 0.439765 0.000000
1.000000 0.437500 0.000000
0.000000 0.528509 0.000000
0.069367 0.528509 0.000000
0.138734 0.528509 0.000000
0.208100 0.528509 0.000000
0.277467 0.528509 0.000000
0.346834 0.528509 0.000000
0.416201 0.528509 0.000000
0.485568 0.528509 0.000000
0.554934 0.528509 0.000000
0.618446 0.523552 0.000000
0.681395 0.519158 0.000000
0.743841 0.515215 0.000000
0.805834 0.511641 0.000000
0.867415 0.508375 0.000000
0.928617 0.505370 0.000000
0.989471 0.502588 0.000000
1.000000 0.500000 0.000000
0.000000 0.588997 0.000000
0.068716 0.588997 0.000000
0.137433 0.588997 0.000000
0.206149 0.588997 0.000000
0.274865 0.588997 0.000000
0.343581 0.588997 0.000000
0.412298 0.588997 0.000000
0.481014 0.588997 0.000000
0.549730 0.588997 0.000000
0.618446 0.588997 0.000000
0.681395 0.584053 0.000000
0.743841 0.579616 0.000000
0.805834 0.575596 0.000000
0.867415 0.571922 0.000000
0.928617 0.568541 0.000000
0.989471 0.565412 0.000000
1.000000 0.562500 0.000000
0.000000 0.648948 0.000000
0.068139 0.648948 0.000000
0.136279 0.648948 0.000000
0.204418 0.648948 0.000000
0.272558 0.648948 0.000000
0.340697 0.648948 0.000000
0.408837 0.648948 0.000000
0.476976 0.648948 0.000000
0.545116 0.648948 0.000000
0.613255 0.648948 0.000000
0.681395 0.648948 0.000000
0.743841 0.644018 0.000000
0.805834 0.639551 0.000000
0.867415 0.635469 0.000000
0.928617 0.631712 0.000000
0.989471 0.628235 0.000000
1.000000 0.625000 0.000000
0.000000 0.708420 0.000000
0.067622 0.708420 0.000000
0.135244 0.708420 0.000000
0.202866 0.708420 0.000000
0.270488 0.708420 0.000000
0.338110 0.708420 0.000000
0.405732 0.708420 0.000000
0.473353 0.708420 0.000000
0.540975 0.708420 0.000000
0.608597 0.708420 0.000000
0.676219 0.708420 0.000000
0.743841 0.708420 0.000000
0.805834 0.703506 0.000000
0.867415 0.699016 0.000000
0.928617 0.694884 0.000000
0.989471 0.691059 0.000000
1.000000 0.687500 0.000000
0.000000 0.767461 0.000000
0.067153 0.767461 0.000000
0.134306 0.767461 0.000000
0.201459 0.767461 0.000000
0.268611 0.767461 0.000000
0.335764 0.767461 0.000000
0.402917 0.767461 0.000000
0.470070 0.767461 0.000000
0.537223 0.767461 0.000000
0.604376 0.767461 0.000000
0.671528 0.767461 0.000000
0.738681 0.767461 0.000000
0.805834 0.767461 0.000000
0.867415 0.762562 0.000000
0.928617 0.758055 0.000000
0.989471 0.753882 0.000000
1.000000 0.750000 0.000000
0.000000 0.826109 0.000000
0.066724 0.826109 0.000000
0.133448 0.826109 0.000000
0.200173 0.826109 0.000000
0.266897 0.826109 0.000000
0.333621 0.826109 0.000000
0.400345 0.826109 0.000000
0.467069 0.826109 0.000000
0.533794 0.826109 0.000000
0.600518 0.826109 0.000000
0.667242 0.826109 0.000000
0.733966 0.826109 0.000000
0.800691 0.826109 0.000000
0.867415 0.826109 0.000000
0.928617 0.821226 0.000000
0.989471 0.816706 0.000000
1.000000 0.812500 0.000000
0.000000 0.884397 0.000000
0.066330 0.884397 0.000000
0.132660 0.884397 0.000000
0.198989 0.884397 0.000000
0.265319 0.884397 0.000000
0.331649 0.884397 0.000000
0.397979 0.884397 0.000000
0.464309 0.884397 0.000000
0.530638 0.884397 0.000000
0.596968 0.884397 0.000000
0.663298 0.884397 0.000000
0.729628 0.884397 0.000000
0.795958 0.884397 0.000000
0.862287 0.884397 0.000000
0.928617 0.884397 0.000000
0.989471 0.879529 0.000000
1.000000 0.875000 0.000000
0.000000 0.942353 0.000000
0.065965 0.942353 0.000000
0.131929 0.942353 0.000000
0.197894 0.942353 0.000000
0.263859 0.942353 0.000000
0.329824 0.942353 0.000000
0.395788 0.942353 0.000000
0.461753 0.942353 0.000000
0.527718 0.942353 0.000000
0.593682 0.942353 0.000000
0.659647 0.942353 0.000000
0.725612 0.942353 0.000000
0.791576 0.942353 0.000000
0.857541 0.942353 0.000000
0.923506 0.942353 0.000000
0.989471 0.942353 0.000000
1.000000 0.937500 0.000000
0.000000 1.000000 0.000000
0.065625 1.000000 0.000000
0.131250 1.000000 0.000000
0.196875 1.000000 0.000000
0.262500 1.000000 0.000000
0.328125 1.000000 0.000000
0.393750 1.000000 0.000000
0.459375 1.000000 0.000000
0.525000 1.000000 0.000000
0.590625 1.000000 0.000000
0.656250 1.000000 0.000000
0.721875 1.000000 0.000000
0.787500 1.000000 0.000000
0.853125 1.000000 0.000000
0.918750 1.000000 0.000000
0.984375 1.000000 0.000000
1.000000 1.000000 0.000000
0.000000 0.000000 0.075680
0.081922 0.000000 0.075680
0.155005 0.000000 0.071598
0.225087 0.000000 0.069313
0.293288 0.000000 0.067736
0.360123 0.000000 0.066537
0.425891 0.000000 0.065574
0.490783 0.000000 0.064770
0.554934 0.000000 0.064082
0.618446 0.000000 0.063481
0.681395 0.000000 0.062948
0.743841 0.000000 0.062470
0.805834 0.000000 0.062036
0.867415 0.000000 0.061640
0.928617 0.000000 0.061276
0.989471 0.000000 0.060939
1.000000 0.000000 0.060625
0.000000 0.078021 0.075680
0.081922 0.078021 0.075680
0.155005 0.062740 0.060858
0.225087 0.050019 0.048519
0.293288 0.038407 0.037255
0.360123 0.027438 0.026615
0.425891 0.016900 0.016393
0.490783 0.006677 0.006477
0.554934 0.000000 0.000000
0.618446 0.000000 0.000000
0.681395 0.000000 0.000000
0.743841 0.000000 0.000000
0.805834 0.000000 0.000000
0.867415 0.000000 0.000000
0.928617 0.000000 0.000000
0.989471 0.000000 0.000000
1.000000 0.000000 0.000000
0.000000 0.147624 0.071598
0.065877 0.147624 0.060858
0.155005 0.147624 0.060858
0.225087 0.132194 0.048519
0.293288 0.118712 0.037255
0.360123 0.106322 0.026615
0.425891 0.094642 0.016393
0.490783 0.083466 0.006477
0.554934 0.075501 0.000000
0.618446 0.073625 0.000000
0.681395 0.072105 0.000000
0.743841 0.070842 0.000000
0.805834 0.069769 0.000000
0.867415 0.068842 0.000000
0.928617 0.068031 0.000000
0.989471 0.067311 0.000000
1.000000 0.066667 0.000000
0.000000 0.214369 0.069313
0.052520 0.214369 0.048519
0.138804 0.214369 0.048519
0.225087 0.214369 0.048519
0.293288 0.199017 0.037255
0.360123 0.185206 0.026615
0.425891 0.172384 0.016393
0.490783 0.160256 0.006477
0.554934 0.151003 0.000000
0.618446 0.147249 0.000000
0.681395 0.144211 0.000000
0.743841 0.141684 0.000000
0.805834 0.139538 0.000000
0.867415 0.137685 0.000000
0.928617 0.136061 0.000000
0.989471 0.134622 0.000000
1.000000 0.133333 0.000000
0.000000 0.279322 0.067736
0.040327 0.279322 0.037255
0.124647 0.279322 0.037255
0.208968 0.279322 0.037255
0.293288 0.279322 0.037255
0.360123 0.264090 0.026615
0.425891 0.250126 0.016393
0.490783 0.237045 0.006477
0.554934 0.226504 0.000000
0.618446 0.220874 0.000000
0.681395 0.216316 0.000000
0.743841 0.212526 0.000000
0.805834 0.209308 0.000000
0.867415 0.206527 0.000000
0.928617 0.204092 0.000000
0.989471 0.201933 0.000000
1.000000 0.200000 0.000000
0.000000 0.342975 0.066537
0.028810 0.342975 0.026615
0.111638 0.342975 0.026615
0.194467 0.342975 0.026615
0.277295 0.342975 0.026615
0.360123 0.342975 0.026615
0.425891 0.327868 0.016393
0.490783 0.313834 0.006477
0.554934 0.302005 0.000000
0.618446 0.294498 0.000000
0.681395 0.288421 0.000000
0.743841 0.283368 0.000000
0.805834 0.279077 0.000000
0.867415 0.275370 0.000000
0.928617 0.272122 0.000000
0.989471 0.269244 0.000000
1.000000 0.266667 0.000000
0.000000 0.405610 0.065574
0.017745 0.405610 0.016393
0.099374 0.405610 0.016393
0.181004 0.405610 0.016393
0.262633 0.405610 0.016393
0.344262 0.405610 0.016393
0.425891 0.405610 0.016393
0.490783 0.390623 0.006477
0.554934 0.377506 0.000000
0.618446 0.368123 0.000000
0.681395 0.360526 0.000000
0.743841 0.354210 0.000000
0.805834 0.348846 0.000000
0.867415 0.344212 0.000000
0.928617 0.340153 0.000000
0.989471 0.336555 0.000000
1.000000 0.333333 0.000000
0.000000 0.467412 0.064770
0.007011 0.467412 0.006477
0.087640 0.467412 0.006477
0.168268 0.467412 0.006477
0.248897 0.467412 0.006477
0.329525 0.467412 0.006477
0.410154 0.467412 0.006477
0.490783 0.467412 0.006477
0.554934 0.453008 0.000000
0.618446 0.441747 0.000000
0.681395 0.432632 0.000000
0.743841 0.425052 0.000000
0.805834 0.418615 0.000000
0.867415 0.413055 0.000000
0.928617 0.408183 0.000000
0.989471 0.403866 0.000000
1.000000 0.400000 0.000000
0.000000 0.528509 0.064082
0.000000 0.528509 0.000000
0.079276 0.528509 0.000000
0.158553 0.528509 0.000000
0.237829 0.528509 0.000000
0.317105 0.528509 0.000000
0.396382 0.528509 0.000000
0.475658 0.528509 0.000000
0.554934 0.528509 0.000000
0.618446 0.515372 0.000000
0.681395 0.504737 0.000000
0.743841 0.495894 0.000000
0.805834 0.488384 0.000000
0.867415 0.481897 0.000000
0.928617 0.476214 0.000000
0.989471 0.471176 0.000000
1.000000 0.466667 0.000000
0.000000 0.588997 0.063481
0.000000 0.588997 0.000000
0.077306 0.588997 0.000000
0.154612 0.588997 0.000000
0.231917 0.588997 0.000000
0.309223 0.588997 0.000000
0.386529 0.588997 0.000000
0.463835 0.588997 0.000000
0.541141 0.588997 0.000000
0.618446 0.588997 0.000000
0.681395 0.576842 0.000000
0.743841 0.566736 0.000000
0.805834 0.558154 0.000000
0.867415 0.550740 0.000000
0.928617 0.544244 0.000000
0.989471 0.538487 0.000000
1.000000 0.533333 0.000000
0.000000 0.648948 0.062948
0.000000 0.648948 0.000000
0.075711 0.648948 0.000000
0.151421 0.648948 0.000000
0.227132 0.648948 0.000000
0.302842 0.648948 0.000000
0.378553 0.648948 0.000000
0.454263 0.648948 0.000000
0.529974 0.648948 0.000000
0.605684 0.648948 0.000000
0.681395 0.648948 0.000000
0.743841 0.637578 0.000000
0.805834 0.627923 0.000000
0.867415 0.619582 0.000000
0.928617 0.612275 0.000000
0.989471 0.605798 0.000000
1.000000 0.600000 0.000000
0.000000 0.708420 0.062470
0.000000 0.708420 0.000000
0.074384 0.708420 0.000000
0.148768 0.708420 0.000000
0.223152 0.708420 0.000000
0.297536 0.708420 0.000000
0.371921 0.708420 0.000000
0.446305 0.708420 0.000000
0.520689 0.708420 0.000000
0.595073 0.708420 0.000000
0.669457 0.708420 0.000000
0.743841 0.708420 0.000000
0.805834 0.697692 0.000000
0.867415 0.688424 0.000000
0.928617 0.680306 0.000000
0.989471 0.673109 0.000000
1.000000 0.666667 0.000000
0.000000 0.767461 0.062036
0.000000 0.767461 0.000000
0.073258 0.767461 0.000000
0.146515 0.767461 0.000000
0.219773 0.767461 0.000000
0.293031 0.767461 0.000000
0.366288 0.767461 0.000000
0.439546 0.767461 0.000000
0.512804 0.767461 0.000000
0.586061 0.767461 0.000000
0.659319 0.767461 0.000000
0.732576 0.767461 0.000000
0.805834 0.767461 0.000000
0.867415 0.757267 0.000000
0.928617 0.748336 0.000000
0.989471 0.740420 0.000000
1.000000 0.733333 0.000000
0.000000 0.826109 0.061640
0.000000 0.826109 0.000000
0.072285 0.826109 0.000000
0.144569 0.826109 0.000000
0.216854 0.826109 0.000000
0.289138 0.826109 0.000000
0.361423 0.826109 0.000000
0.433707 0.826109 0.000000
0.505992 0.826109 0.000000
0.578276 0.826109 0.000000
0.650561 0.826109 0.000000
0.722846 0.826109 0.000000
0.795130 0.826109 0.000000
0.867415 0.826109 0.000000
0.928617 0.816367 0.000000
0.989471 0.807731 0.000000
1.000000 0.800000 0.000000
0.000000 0.884397 0.061276
0.000000 0.884397 0.000000
0.071432 0.884397 0.000000
0.142864 0.884397 0.000000
0.214296 0.884397 0.000000
0.285728 0.884397 0.000000
0.357160 0.884397 0.000000
0.428593 0.884397 0.000000
0.500025 0.884397 0.000000
0.571457 0.884397 0.000000
0.642889 0.884397 0.000000
0.714321 0.884397 0.000000
0.785753 0.884397 0.000000
0.857185 0.884397 0.000000
0.928617 0.884397 0.000000
0.989471 0.875042 0.000000
1.000000 0.866667 0.000000
0.000000 0.942353 0.060939
0.000000 0.942353 0.000000
0.070676 0.942353 0.000000
0.141353 0.942353 0.000000
0.212029 0.942353 0.000000
0.282706 0.942353 0.000000
0.353382 0.942353 0.000000
0.424059 0.942353 0.000000
0.494735 0.942353 0.000000
0.565412 0.942353 0.000000
0.636088 0.942353 0.000000
0.706765 0.942353 0.000000
0.777441 0.942353 0.000000
0.848118 0.942353 0.000000
0.918794 0.942353 0.000000
0.989471 0.942353 0.000000
1.000000 0.933333 0.000000
0.000000 1.000000 0.060625
0.000000 1.000000 0.000000
0.070000 1.000000 0.000000
0.140000 1.000000 0.000000
0.210000 1.000000 0.000000
0.280000 1.000000 0.000000
0.350000 1.000000 0.000000
0.420000 1.000000 0.000000
0.490000 1.000000 0.000000
0.560000 1.000000 0.000000
0.630000 1.000000 0.000000
0.700000 1.000000 0.000000
0.770000 1.000000 0.000000
0.840000 1.000000 0.000000
0.910000 1.000000 0.000000
0.980000 1.000000 0.000000
1.000000 1.000000 0.000000
0.000000 0.000000 0.143195
0.077503 0.000000 0.143195
0.155005 0.000000 0.143195
0.225087 0.000000 0.138625
0.293288 0.000000 0.135471
0.360123 0.000000 0.133074
0.425891 0.000000 0.131147
0.490783 0.000000 0.129540
0.554934 0.000000 0.128163
0.618446 0.000000 0.126961
0.681395 0.000000 0.125896
0.743841 0.000000 0.124940
0.805834 0.000000 0.124073
0.867415 0.000000 0.123281
0.928617 0.000000 0.122552
0.989471 0.000000 0.121878
1.000000 0.000000 0.121250
0.000000 0.073812 0.143195
0.065877 0.062740 0.143195
0.155005 0.062740 0.143195
0.225087 0.050019 0.128228
0.293288 0.038407 0.115150
0.360123 0.027438 0.103132
0.425891 0.016900 0.091803
0.490783 0.006677 0.080962
0.554934 0.000000 0.073236
0.618446 0.000000 0.071416
0.681395 0.000000 0.069942
0.743841 0.000000 0.068717
0.805834 0.000000 0.067676
0.867415 0.000000 0.066777
0.928617 0.000000 0.065990
0.989471 0.000000 0.065292
1.000000 0.000000 0.064667
0.000000 0.147624 0.143195
0.065877 0.147624 0.143195
0.155005 0.147624 0.143195
0.225087 0.132194 0.128228
0.293288 0.118712 0.115150
0.360123 0.106322 0.103132
0.425891 0.094642 0.091803
0.490783 0.083466 0.080962
0.554934 0.072670 0.070490
0.618446 0.062172 0.060307
0.681395 0.051916 0.050358
0.743841 0.041861 0.040605
0.805834 0.031978 0.031018
0.867415 0.022241 0.021574
0.928617 0.012634 0.012255
0.989471 0.003141 0.003047
1.000000 0.000000 0.000000
0.000000 0.214369 0.138625
0.052520 0.214369 0.128228
0.138804 0.214369 0.128228
0.225087 0.214369 0.128228
0.293288 0.199017 0.115150
0.360123 0.185206 0.103132
0.425891 0.172384 0.091803
0.490783 0.160256 0.080962
0.554934 0.148643 0.070490
0.618446 0.137433 0.060307
0.681395 0.126545 0.050358
0.743841 0.115923 0.040605
0.805834 0.105526 0.031018
0.867415 0.095320 0.021574
0.928617 0.085281 0.012255
0.989471 0.075388 0.003047
1.000000 0.071429 0.000000
0.000000 0.279322 0.135471
0.040327 0.279322 0.115150
0.124647 0.279322 0.115150
0.208968 0.279322 0.115150
0.293288 0.279322 0.115150
0.360123 0.264090 0.103132
0.425891 0.250126 0.091803
0.490783 0.237045 0.080962
0.554934 0.224616 0.070490
0.618446 0.212693 0.060307
0.681395 0.201174 0.050358
0.743841 0.189985 0.040605
0.805834 0.179074 0.031018
0.867415 0.168399 0.021574
0.928617 0.157928 0.012255
0.989471 0.147635 0.003047
1.000000 0.142857 0.000000
0.000000 0.342975 0.133074
0.028810 0.342975 0.103132
0.111638 0.342975 0.103132
0.194467 0.342975 0.103132
0.277295 0.342975 0.103132
0.360123 0.342975 0.103132
0.425891 0.327868 0.091803
0.490783 0.313834 0.080962
0.554934 0.300590 0.070490
0.618446 0.287954 0.060307
0.681395 0.275803 0.050358
0.743841 0.264047 0.040605
0.805834 0.252623 0.031018
0.867415 0.241478 0.021574
0.928617 0.230575 0.012255
0.989471 0.219882 0.003047
1.000000 0.214286 0.000000
0.000000 0.405610 0.131147
0.017745 0.405610 0.091803
0.099374 0.405610 0.091803
0.181004 0.405610 0.091803
0.262633 0.405610 0.091803
0.344262 0.405610 0.091803
0.425891 0.405610 0.091803
0.490783 0.390623 0.080962
0.554934 0.376563 0.070490
0.618446 0.363215 0.060307
0.681395 0.350432 0.050358
0.743841 0.338110 0.040605
0.805834 0.326171 0.031018
0.867415 0.314557 0.021574
0.928617 0.303222 0.012255
0.989471 0.292129 0.003047
1.000000 0.285714 0.000000
0.000000 0.467412 0.129540
0.007011 0.467412 0.080962
0.087640 0.467412 0.080962
0.168268 0.467412 0.080962
0.248897 0.467412 0.080962
0.329525 0.467412 0.080962
0.410154 0.467412 0.080962
0.490783 0.467412 0.080962
0.554934 0.452536 0.070490
0.618446 0.438475 0.060307
0.681395 0.425061 0.050358
0.743841 0.412172 0.040605
0.805834 0.399719 0.031018
0.867415 0.387636 0.021574
0.928617 0.375869 0.012255
0.989471 0.364376 0.003047
1.000000 0.357143 0.000000
0.000000 0.528509 0.128163
0.000000 0.528509 0.073236
0.076303 0.528509 0.070490
0.156075 0.528509 0.070490
0.235847 0.528509 0.070490
0.315619 0.528509 0.070490
0.395391 0.528509 0.070490
0.475163 0.528509 0.070490
0.554934 0.528509 0.070490
0.618446 0.513736 0.060307
0.681395 0.499690 0.050358
0.743841 0.486234 0.040605
0.805834 0.473268 0.031018
0.867415 0.460715 0.021574
0.928617 0.448516 0.012255
0.989471 0.436624 0.003047
1.000000 0.428571 0.000000
0.000000 0.588997 0.126961
0.000000 0.588997 0.071416
0.065280 0.588997 0.060307
0.144304 0.588997 0.060307
0.223328 0.588997 0.060307
0.302352 0.588997 0.060307
0.381375 0.588997 0.060307
0.460399 0.588997 0.060307
0.539423 0.588997 0.060307
0.618446 0.588997 0.060307
0.681395 0.574319 0.050358
0.743841 0.560296 0.040605
0.805834 0.546816 0.031018
0.867415 0.533794 0.021574
0.928617 0.521163 0.012255
0.989471 0.508871 0.003047
1.000000 0.500000 0.000000
0.000000 0.648948 0.125896
0.000000 0.648948 0.069942
0.054512 0.648948 0.050358
0.132872 0.648948 0.050358
0.211232 0.648948 0.050358
0.289593 0.648948 0.050358
0.367953 0.648948 0.050358
0.446314 0.648948 0.050358
0.524674 0.648948 0.050358
0.603035 0.648948 0.050358
0.681395 0.648948 0.050358
0.743841 0.634358 0.040605
0.805834 0.620364 0.031018
0.867415 0.606873 0.021574
0.928617 0.593810 0.012255
0.989471 0.581118 0.003047
1.000000 0.571429 0.000000
0.000000 0.708420 0.124940
0.000000 0.708420 0.068717
0.043954 0.708420 0.040605
0.121719 0.708420 0.040605
0.199485 0.708420 0.040605
0.277250 0.708420 0.040605
0.355015 0.708420 0.040605
0.432780 0.708420 0.040605
0.510545 0.708420 0.040605
0.588311 0.708420 0.040605
0.666076 0.708420 0.040605
0.743841 0.708420 0.040605
0.805834 0.693913 0.031018
0.867415 0.679951 0.021574
0.928617 0.666457 0.012255
0.989471 0.653365 0.003047
1.000000 0.642857 0.000000
0.000000 0.767461 0.124073
0.000000 0.767461 0.067676
0.033576 0.767461 0.031018
0.110802 0.767461 0.031018
0.188028 0.767461 0.031018
0.265254 0.767461 0.031018
0.342480 0.767461 0.031018
0.419705 0.767461 0.031018
0.496931 0.767461 0.031018
0.574157 0.767461 0.031018
0.651383 0.767461 0.031018
0.728608 0.767461 0.031018
0.805834 0.767461 0.031018
0.867415 0.753030 0.021574
0.928617 0.739103 0.012255
0.989471 0.725612 0.003047
1.000000 0.714286 0.000000
0.000000 0.826109 0.123281
0.000000 0.826109 0.066777
0.023353 0.826109 0.021574
0.100086 0.826109 0.021574
0.176819 0.826109 0.021574
0.253552 0.826109 0.021574
0.330285 0.826109 0.021574
0.407018 0.826109 0.021574
0.483751 0.826109 0.021574
0.560483 0.826109 0.021574
0.637216 0.826109 0.021574
0.713949 0.826109 0.021574
0.790682 0.826109 0.021574
0.867415 0.826109 0.021574
0.928617 0.811750 0.012255
0.989471 0.797859 0.003047
1.000000 0.785714 0.000000
0.000000 0.884397 0.122552
0.000000 0.884397 0.065990
0.013266 0.884397 0.012255
0.089545 0.884397 0.012255
0.165824 0.884397 0.012255
0.242104 0.884397 0.012255
0.318383 0.884397 0.012255
0.394662 0.884397 0.012255
0.470942 0.884397 0.012255
0.547221 0.884397 0.012255
0.623500 0.884397 0.012255
0.699779 0.884397 0.012255
0.776059 0.884397 0.012255
0.852338 0.884397 0.012255
0.928617 0.884397 0.012255
0.989471 0.870106 0.003047
1.000000 0.857143 0.000000
0.000000 0.942353 0.121878
0.000000 0.942353 0.065292
0.003298 0.942353 0.003047
0.079158 0.942353 0.003047
0.155017 0.942353 0.003047
0.230876 0.942353 0.003047
0.306736 0.942353 0.003047
0.382595 0.942353 0.003047
0.458455 0.942353 0.003047
0.534314 0.942353 0.003047
0.610174 0.942353 0.003047
0.686033 0.942353 0.003047
0.761892 0.942353 0.003047
0.837752 0.942353 0.003047
0.913611 0.942353 0.003047
0.989471 0.942353 0.003047
1.000000 0.928571 0.000000
0.000000 1.000000 0.121250
0.000000 1.000000 0.064667
0.000000 1.000000 0.000000
0.075000 1.000000 0.000000
0.150000 1.000000 0.000000
0.225000 1.000000 0.000000
0.300000 1.000000 0.000000
0.375000 1.000000 0.000000
0.450000 1.000000 0.000000
0.525000 1.000000 0.000000
0.600000 1.000000 0.000000
0.675000 1.000000 0.000000
0.750000 1.000000 0.000000
0.825000 1.000000 0.000000
0.900000 1.000000 0.000000
0.975000 1.000000 0.000000
1.000000 1.000000 0.000000
0.000000 0.000000 0.207938
0.075029 0.000000 0.207938
0.150058 0.000000 0.207938
0.225087 0.000000 0.207938
0.293288 0.000000 0.203207
0.360123 0.000000 0.199611
0.425891 0.000000 0.196721
0.490783 0.000000 0.194310
0.554934 0.000000 0.192245
0.618446 0.000000 0.190442
0.681395 0.000000 0.188844
0.743841 0.000000 0.187409
0.805834 0.000000 0.186109
0.867415 0.000000 0.184921
0.928617 0.000000 0.183828
0.989471 0.000000 0.182816
1.000000 0.000000 0.181875
0.000000 0.071456 0.207938
0.052520 0.050019 0.207938
0.138804 0.050019 0.207938
