RapidRAW-Android/app/src/main/assets/built_in_luts/kodak_portra_400.cube
TITLE "Kodak Portra 400"
LUT_3D_SIZE 9
0.024321 0.018505 0.012589
0.157081 0.018505 0.012589
0.283194 0.018505 0.012589
0.406311 0.018505 0.012589
0.527463 0.018505 0.012589
0.647154 0.018505 0.012589
0.765684 0.018505 0.012589
0.883252 0.018505 0.012589
1.000000 0.018505 0.012589
0.024321 0.150529 0.012589
0.157081 0.150529 0.012589
0.283194 0.150529 0.012589
0.406311 0.150529 0.012589
0.527463 0.150529 0.012589
0.647154 0.150529 0.012589
0.765684 0.150529 0.012589
0.883252 0.150529 0.012589
1.000000 0.150529 0.012589
0.024321 0.275574 0.012589
0.157081 0.275574 0.012589
0.283194 0.275574 0.012589
0.406311 0.275574 0.012589
0.527463 0.275574 0.012589
0.647154 0.275574 0.012589
0.765684 0.275574 0.012589
0.883252 0.275574 0.012589
1.000000 0.275574 0.012589
0.024321 0.397590 0.012589
0.157081 0.397590 0.012589
0.283194 0.397590 0.012589
0.406311 0.397590 0.012589
0.527463 0.397590 0.012589
0.647154 0.397590 0.012589
0.765684 0.397590 0.012589
0.883252 0.397590 0.012589
1.000000 0.397590 0.012589
0.024321 0.517632 0.012589
0.157081 0.517632 0.012589
0.283194 0.517632 0.012589
0.406311 0.517632 0.012589
0.527463 0.517632 0.012589
0.647154 0.517632 0.012589
0.765684 0.517632 0.012589
0.883252 0.517632 0.012589
1.000000 0.517632 0.012589
0.024321 0.636214 0.012589
0.157081 0.636214 0.012589
0.283194 0.636214 0.012589
0.406311 0.636214 0.012589
0.527463 0.636214 0.012589
0.647154 0.636214 0.012589
0.765684 0.636214 0.012589
0.883252 0.636214 0.012589
1.000000 0.636214 0.012589
0.024321 0.753636 0.012589
0.157081 0.753636 0.012589
0.283194 0.753636 0.012589
0.406311 0.753636 0.012589
0.527463 0.753636 0.012589
0.647154 0.753636 0.012589
0.765684 0.753636 0.012589
0.883252 0.753636 0.012589
1.000000 0.753636 0.012589
0.024321 0.870099 0.012589
0.157081 0.870099 0.012589
0.283194 0.870099 0.012589
0.406311 0.870099 0.012589
0.527463 0.870099 0.012589
0.647154 0.870099 0.012589
0.765684 0.870099 0.012589
0.883252 0.870099 0.012589
1.000000 0.870099 0.012589
0.024321 0.985745 0.012589
0.157081 0.985745 0.012589
0.283194 0.985745 0.012589
0.406311 0.985745 0.012589
0.527463 0.985745 0.012589
0.647154 0.985745 0.012589
0.765684 0.985745 0.012589
0.883252 0.985745 0.012589
1.000000 0.985745 0.012589
0.024321 0.018505 0.141330
0.157081 0.018505 0.141330
0.283194 0.018505 0.141330
0.406311 0.018505 0.141330
0.527463 0.018505 0.141330
0.647154 0.018505 0.141330
0.765684 0.018505 0.141330
0.883252 0.018505 0.141330
1.000000 0.018505 0.141330
0.024321 0.150529 0.141330
0.157081 0.150529 0.141330
0.283194 0.150529 0.141330
0.406311 0.150529 0.141330
0.527463 0.150529 0.141330
0.647154 0.150529 0.141330
0.765684 0.150529 0.141330
0.883252 0.150529 0.141330
1.000000 0.150529 0.141330
0.024321 0.275574 0.141330
0.157081 0.275574 0.141330
0.283194 0.275574 0.141330
0.406311 0.275574 0.141330
0.527463 0.275574 0.141330
0.647154 0.275574 0.141330
0.765684 0.275574 0.141330
0.883252 0.275574 0.141330
1.000000 0.275574 0.141330
0.024321 0.397590 0.141330
0.157081 0.397590 0.141330
0.283194 0.397590 0.141330
0.406311 0.397590 0.141330
0.527463 0.397590 0.141330
0.647154 0.397590 0.141330
0.765684 0.397590 0.141330
0.883252 0.397590 0.141330
1.000000 0.397590 0.141330
0.024321 0.517632 0.141330
0.157081 0.517632 0.141330
0.283194 0.517632 0.141330
0.406311 0.517632 0.141330
0.527463 0.517632 0.141330
0.647154 0.517632 0.141330
0.765684 0.517632 0.141330
0.883252 0.517632 0.141330
1.000000 0.517632 0.141330
0.024321 0.636214 0.141330
0.157081 0.636214 0.141330
0.283194 0.636214 0.141330
0.406311 0.636214 0.141330
0.527463 0.636214 0.141330
0.647154 0.636214 0.141330
0.765684 0.636214 0.141330
0.883252 0.636214 0.141330
1.000000 0.636214 0.141330
0.024321 0.753636 0.141330
0.157081 0.753636 0.141330
0.283194 0.753636 0.141330
0.406311 0.753636 0.141330
0.527463 0.753636 0.141330
0.647154 0.753636 0.141330
0.765684 0.753636 0.141330
0.883252 0.753636 0.141330
1.000000 0.753636 0.141330
0.024321 0.870099 0.141330
0.157081 0.870099 0.141330
0.283194 0.870099 0.141330
0.406311 0.870099 0.141330
0.527463 0.870099 0.141330
0.647154 0.870099 0.141330
0.765684 0.870099 0.141330
0.883252 0.870099 0.141330
1.000000 0.870099 0.141330
0.024321 0.985745 0.141330
0.157081 0.985745 0.141330
0.283194 0.985745 0.141330
0.406311 0.985745 0.141330
0.527463 0.985745 0.141330
0.647154 0.985745 0.141330
0.765684 0.985745 0.141330
0.883252 0.985745 0.141330
1.000000 0.985745 0.141330
0.024321 0.018505 0.262850
0.157081 0.018505 0.262850
0.283194 0.018505 0.262850
0.406311 0.018505 0.262850
0.527463 0.018505 0.262850
0.647154 0.018505 0.262850
0.765684 0.018505 0.262850
0.883252 0.018505 0.262850
1.000000 0.018505 0.262850
0.024321 0.150529 0.262850
0.157081 0.150529 0.262850
0.283194 0.150529 0.262850
0.406311 0.150529 0.262850
0.527463 0.150529 0.262850
0.647154 0.150529 0.262850
0.765684 0.150529 0.262850
0.883252 0.150529 0.262850
1.000000 0.150529 0.262850
0.024321 0.275574 0.262850
0.157081 0.275574 0.262850
0.283194 0.275574 0.262850
0.406311 0.275574 0.262850
0.527463 0.275574 0.262850
0.647154 0.275574 0.262850
0.765684 0.275574 0.262850
0.883252 0.275574 0.262850
1.000000 0.275574 0.262850
0.024321 0.397590 0.262850
0.157081 0.397590 0.262850
0.283194 0.397590 0.262850
0.406311 0.397590 0.262850
0.527463 0.397590 0.262850
0.647154 0.397590 0.262850
0.765684 0.397590 0.262850
0.883252 0.397590 0.262850
1.000000 0.397590 0.262850
0.024321 0.517632 0.262850
0.157081 0.517632 0.262850
0.283194 0.517632 0.262850
0.406311 0.517632 0.262850
0.527463 0.517632 0.262850
0.647154 0.517632 0.262850
0.765684 0.517632 0.262850
0.883252 0.517632 0.262850
1.000000 0.517632 0.262850
0.024321 0.636214 0.262850
0.157081 0.636214 0.262850
0.283194 0.636214 0.262850
0.406311 0.636214 0.262850
0.527463 0.636214 0.262850
0.647154 0.636214 0.262850
0.765684 0.636214 0.262850
0.883252 0.636214 0.262850
1.000000 0.636214 0.262850
0.024321 0.753636 0.262850
0.157081 0.753636 0.262850
0.283194 0.753636 0.262850
0.406311 0.753636 0.262850
0.527463 0.753636 0.262850
0.647154 0.753636 0.262850
0.765684 0.753636 0.262850
0.883252 0.753636 0.262850
1.000000 0.753636 0.262850
0.024321 0.870099 0.262850
0.157081 0.870099 0.262850
0.283194 0.870099 0.262850
0.406311 0.870099 0.262850
0.527463 0.870099 0.262850
0.647154 0.870099 0.262850
0.765684 0.870099 0.262850
0.883252 0.870099 0.262850
1.000000 0.870099 0.262850
0.024321 0.985745 0.262850
0.157081 0.985745 0.262850
0.283194 0.985745 0.262850
0.406311 0.985745 0.262850
0.527463 0.985745 0.262850
0.647154 0.985745 0.262850
0.765684 0.985745 0.262850
0.883252 0.985745 0.262850
1.000000 0.985745 0.262850
0.024321 0.018505 0.381367
0.157081 0.018505 0.381367
0.283194 0.018505 0.381367
0.406311 0.018505 0.381367
0.527463 0.018505 0.381367
0.647154 0.018505 0.381367
0.765684 0.018505 0.381367
0.883252 0.018505 0.381367
1.000000 0.018505 0.381367
0.024321 0.150529 0.381367
0.157081 0.150529 0.381367
0.283194 0.150529 0.381367
0.406311 0.150529 0.381367
0.527463 0.150529 0.381367
0.647154 0.150529 0.381367
0.765684 0.150529 0.381367
0.883252 0.150529 0.381367
1.000000 0.150529 0.381367
0.024321 0.275574 0.381367
0.157081 0.275574 0.381367
0.283194 0.275574 0.381367
0.406311 0.275574 0.381367
0.527463 0.275574 0.381367
0.647154 0.275574 0.381367
0.765684 0.275574 0.381367
0.883252 0.275574 0.381367
1.000000 0.275574 0.381367
0.024321 0.397590 0.381367
0.157081 0.397590 0.381367
0.283194 0.397590 0.381367
0.406311 0.397590 0.381367
0.527463 0.397590 0.381367
0.647154 0.397590 0.381367
0.765684 0.397590 0.381367
0.883252 0.397590 0.381367
1.000000 0.397590 0.381367
0.024321 0.517632 0.381367
0.157081 0.517632 0.381367
0.283194 0.517632 0.381367
0.406311 0.517632 0.381367
0.527463 0.517632 0.381367
0.647154 0.517632 0.381367
0.765684 0.517632 0.381367
0.883252 0.517632 0.381367
1.000000 0.517632 0.381367
0.024321 0.636214 0.381367
0.157081 0.636214 0.381367
0.283194 0.636214 0.381367
0.406311 0.636214 0.381367
0.527463 0.636214 0.381367
0.647154 0.636214 0.381367
0.765684 0.636214 0.381367
0.883252 0.636214 0.381367
1.000000 0.636214 0.381367
0.024321 0.753636 0.381367
0.157081 0.753636 0.381367
0.283194 0.753636 0.381367
0.406311 0.753636 0.381367
0.527463 0.753636 0.381367
0.647154 0.753636 0.381367
0.765684 0.753636 0.381367
0.883252 0.753636 0.381367
1.000000 0.753636 0.381367
0.024321 0.870099 0.381367
0.157081 0.870099 0.381367
0.283194 0.870099 0.381367
0.406311 0.870099 0.381367
0.527463 0.870099 0.381367
0.647154 0.870099 0.381367
0.765684 0.870099 0.381367
0.883252 0.870099 0.381367
1.000000 0.870099 0.381367
0.024321 0.985745 0.381367
0.157081 0.985745 0.381367
0.283194 0.985745 0.381367
0.406311 0.985745 0.381367
0.527463 0.985745 0.381367
0.647154 0.985745 0.381367
0.765684 0.985745 0.381367
0.883252 0.985745 0.381367
1.000000 0.985745 0.381367
0.024321 0.018505 0.497942
0.157081 0.018505 0.497942
0.283194 0.018505 0.497942
0.406311 0.018505 0.497942
0.527463 0.018505 0.497942
0.647154 0.018505 0.497942
0.765684 0.018505 0.497942
0.883252 0.018505 0.497942
1.000000 0.018505 0.497942
0.024321 0.150529 0.497942
0.157081 0.150529 0.497942
0.283194 0.150529 0.497942
0.406311 0.150529 0.497942
0.527463 0.150529 0.497942
0.647154 0.150529 0.497942
0.765684 0.150529 0.497942
0.883252 0.150529 0.497942
1.000000 0.150529 0.497942
0.024321 0.275574 0.497942
0.157081 0.275574 0.497942
0.283194 0.275574 0.497942
0.406311 0.275574 0.497942
0.527463 0.275574 0.497942
0.647154 0.275574 0.497942
0.765684 0.275574 0.497942
0.883252 0.275574 0.497942
1.000000 0.275574 0.497942
0.024321 0.397590 0.497942
0.157081 0.397590 0.497942
0.283194 0.397590 0.497942
0.406311 0.397590 0.497942
0.527463 0.397590 0.497942
0.647154 0.397590 0.497942
0.765684 0.397590 0.497942
0.883252 0.397590 0.497942
1.000000 0.397590 0.497942
0.024321 0.517632 0.497942
0.157081 0.517632 0.497942
0.283194 0.517632 0.497942
0.406311 0.517632 0.497942
0.527463 0.517632 0.497942
0.647154 0.517632 0.497942
0.765684 0.517632 0.497942
0.883252 0.517632 0.497942
1.000000 0.517632 0.497942
0.024321 0.636214 0.497942
0.157081 0.636214 0.497942
0.283194 0.636214 0.497942
0.406311 0.636214 0.497942
0.527463 0.636214 0.497942
0.647154 0.636214 0.497942
0.765684 0.636214 0.497942
0.883252 0.636214 0.497942
1.000000 0.636214 0.497942
0.024321 0.753636 0.497942
0.157081 0.753636 0.497942
0.283194 0.753636 0.497942
0.406311 0.753636 0.497942
0.527463 0.753636 0.497942
0.647154 0.753636 0.497942
0.765684 0.753636 0.497942
0.883252 0.753636 0.497942
1.000000 0.753636 0.497942
0.024321 0.870099 0.497942
0.157081 0.870099 0.497942
0.283194 0.870099 0.497942
0.406311 0.870099 0.497942
0.527463 0.870099 0.497942
0.647154 0.870099 0.497942
0.765684 0.870099 0.497942
0.883252 0.870099 0.497942
1.000000 0.870099 0.497942
0.024321 0.985745 0.497942
0.157081 0.985745 0.497942
0.283194 0.985745 0.497942
0.406311 0.985745 0.497942
0.527463 0.985745 0.497942
0.647154 0.985745 0.497942
0.765684 0.985745 0.497942
0.883252 0.985745 0.497942
1.000000 0.985745 0.497942
0.024321 0.018505 0.613085
0.157081 0.018505 0.613085
0.283194 0.018505 0.613085
0.406311 0.018505 0.613085
0.527463 0.018505 0.613085
0.647154 0.018505 0.613085
0.765684 0.018505 0.613085
0.883252 0.018505 0.613085
1.000000 0.018505 0.613085
0.024321 0.150529 0.613085
0.157081 0.150529 0.613085
0.283194 0.150529 0.613085
0.406311 0.150529 0.613085
0.527463 0.150529 0.613085
0.647154 0.150529 0.613085
0.765684 0.150529 0.613085
0.883252 0.150529 0.613085
1.000000 0.150529 0.613085
0.024321 0.275574 0.613085
0.157081 0.275574 0.613085
0.283194 0.275574 0.613085
0.406311 0.275574 0.613085
0.527463 0.275574 0.613085
0.647154 0.275574 0.613085
0.765684 0.275574 0.613085
0.883252 0.275574 0.613085
1.000000 0.275574 0.613085
0.024321 0.397590 0.613085
0.157081 0.397590 0.613085
0.283194 0.397590 0.613085
0.406311 0.397590 0.613085
0.527463 0.397590 0.613085
0.647154 0.397590 0.613085
0.765684 0.397590 0.613085
0.883252 0.397590 0.613085
1.000000 0.397590 0.613085
0.024321 0.517632 0.613085
0.157081 0.517632 0.613085
0.283194 0.517632 0.613085
0.406311 0.517632 0.613085
0.527463 0.517632 0.613085
0.647154 0.517632 0.613085
0.765684 0.517632 0.613085
0.883252 0.517632 0.613085
1.000000 0.517632 0.613085
0.024321 0.636214 0.613085
0.157081 0.636214 0.613085
0.283194 0.636214 0.613085
0.406311 0.636214 0.613085
0.527463 0.636214 0.613085
0.647154 0.636214 0.613085
0.765684 0.636214 0.613085
0.883252 0.636214 0.613085
1.000000 0.636214 0.613085
0.024321 0.753636 0.613085
0.157081 0.753636 0.613085
0.283194 0.753636 0.613085
0.406311 0.753636 0.613085
0.527463 0.753636 0.613085
0.647154 0.753636 0.613085
0.765684 0.753636 0.613085
0.883252 0.753636 0.613085
1.000000 0.753636 0.613085
0.024321 0.870099 0.613085
0.157081 0.870099 0.613085
0.283194 0.870099 0.613085
0.406311 0.870099 0.613085
0.527463 0.870099 0.613085
0.647154 0.870099 0.613085
0.765684 0.870099 0.613085
0.883252 0.870099 0.613085
1.000000 0.870099 0.613085
0.024321 0.985745 0.613085
0.157081 0.985745 0.613085
0.283194 0.985745 0.613085
0.406311 0.985745 0.613085
0.527463 0.985745 0.613085
0.647154 0.985745 0.613085
0.765684 0.985745 0.613085
0.883252 0.985745 0.613085
1.000000 0.985745 0.613085
0.024321 0.018505 0.727094
0.157081 0.018505 0.727094
0.283194 0.018505 0.727094
0.406311 0.018505 0.727094
0.527463 0.018505 0.727094
0.647154 0.018505 0.727094
0.765684 0.018505 0.727094
0.883252 0.018505 0.727094
1.000000 0.018505 0.727094
0.024321 0.150529 0.727094
0.157081 0.150529 0.727094
0.283194 0.150529 0.727094
0.406311 0.150529 0.727094
0.527463 0.150529 0.727094
0.647154 0.150529 0.727094
0.765684 0.150529 0.727094
0.883252 0.150529 0.727094
1.000000 0.150529 0.727094
0.024321 0.275574 0.727094
0.157081 0.275574 0.727094
0.283194 0.275574 0.727094
0.406311 0.275574 0.727094
0.527463 0.275574 0.727094
0.647154 0.275574 0.727094
0.765684 0.275574 0.727094
0.883252 0.275574 0.727094
1.000000 0.275574 0.727094
0.024321 0.397590 0.727094
0.157081 0.397590 0.727094
0.283194 0.397590 0.727094
0.406311 0.397590 0.727094
0.527463 0.397590 0.727094
0.647154 0.397590 0.727094
0.765684 0.397590 0.727094
0.883252 0.397590 0.727094
1.000000 0.397590 0.727094
0.024321 0.517632 0.727094
0.157081 0.517632 0.727094
0.283194 0.517632 0.727094
0.406311 0.517632 0.727094
0.527463 0.517632 0.727094
0.647154 0.517632 0.727094
0.765684 0.517632 0.727094
0.883252 0.517632 0.727094
1.000000 0.517632 0.727094
0.024321 0.636214 0.727094
0.157081 0.636214 0.727094
0.283194 0.636214 0.727094
0.406311 0.636214 0.727094
0.527463 0.636214 0.727094
0.647154 0.636214 0.727094
0.765684 0.636214 0.727094
0.883252 0.636214 0.727094
1.000000 0.636214 0.727094
0.024321 0.753636 0.727094
0.157081 0.753636 0.727094
0.283194 0.753636 0.727094
0.406311 0.753636 0.727094
0.527463 0.753636 0.727094
0.647154 0.753636 0.727094
0.765684 0.753636 0.727094
0.883252 0.753636 0.727094
1.000000 0.753636 0.727094
0.024321 0.870099 0.727094
0.157081 0.870099 0.727094
0.283194 0.870099 0.727094
0.406311 0.870099 0.727094
0.527463 0.870099 0.727094
0.647154 0.870099 0.727094
0.765684 0.870099 0.727094
0.883252 0.870099 0.727094
1.000000 0.870099 0.727094
0.024321 0.985745 0.727094
0.157081 0.985745 0.727094
0.283194 0.985745 0.727094
0.406311 0.985745 0.727094
0.527463 0.985745 0.727094
0.647154 0.985745 0.727094
0.765684 0.985745 0.727094
0.883252 0.985745 0.727094
1.000000 0.985745 0.727094
0.024321 0.018505 0.840166
0.157081 0.018505 0.840166
0.283194 0.018505 0.840166
0.406311 0.018505 0.840166
0.527463 0.018505 0.840166
0.647154 0.018505 0.840166
0.765684 0.018505 0.840166
0.883252 0.018505 0.840166
1.000000 0.018505 0.840166
0.024321 0.150529 0.840166
0.157081 0.150529 0.840166
0.283194 0.150529 0.840166
0.406311 0.150529 0.840166
0.527463 0.150529 0.840166
0.647154 0.150529 0.840166
0.765684 0.150529 0.840166
0.883252 0.150529 0.840166
1.000000 0.150529 0.840166
0.024321 0.275574 0.840166
0.157081 0.275574 0.840166
0.283194 0.275574 0.840166
0.406311 0.275574 0.840166
0.527463 0.275574 0.840166
0.647154 0.275574 0.840166
0.765684 0.275574 0.840166
0.883252 0.275574 0.840166
1.000000 0.275574 0.840166
0.024321 0.397590 0.840166
0.157081 0.397590 0.840166
0.283194 0.397590 0.840166
0.406311 0.397590 0.840166
0.527463 0.397590 0.840166
0.647154 0.397590 0.840166
0.765684 0.397590 0.840166
0.883252 0.397590 0.840166
1.000000 0.397590 0.840166
0.024321 0.517632 0.840166
0.157081 0.517632 0.840166
0.283194 0.517632 0.840166
0.406311 0.517632 0.840166
0.527463 0.517632 0.840166
0.647154 0.517632 0.840166
0.765684 0.517632 0.840166
0.883252 0.517632 0.840166
1.000000 0.517632 0.840166
0.024321 0.636214 0.840166
0.157081 0.636214 0.840166
0.283194 0.636214 0.840166
0.406311 0.636214 0.840166
0.527463 0.636214 0.840166
0.647154 0.636214 0.840166
0.765684 0.636214 0.840166
0.883252 0.636214 0.840166
1.000000 0.636214 0.840166
0.024321 0.753636 0.840166
0.157081 0.753636 0.840166
0.283194 0.753636 0.840166
0.406311 0.753636 0.840166
0.527463 0.753636 0.840166
0.647154 0.753636 0.840166
0.765684 0.753636 0.840166
0.883252 0.753636 0.840166
1.000000 0.753636 0.840166
0.024321 0.870099 0.840166
0.157081 0.870099 0.840166
0.283194 0.870099 0.840166
0.406311 0.870099 0.840166
0.527463 0.870099 0.840166
0.647154 0.870099 0.840166
0.765684 0.870099 0.840166
0.883252 0.870099 0.840166
1.000000 0.870099 0.840166
0.024321 0.985745 0.840166
0.157081 0.985745 0.840166
0.283194 0.985745 0.840166
0.406311 0.985745 0.840166
0.527463 0.985745 0.840166
0.647154 0.985745 0.840166
0.765684 0.985745 0.840166
0.883252 0.985745 0.840166
1.000000 0.985745 0.840166
0.024321 0.018505 0.952440
0.157081 0.018505 0.952440
0.283194 0.018505 0.952440
0.406311 0.018505 0.952440
0.527463 0.018505 0.952440
0.647154 0.018505 0.952440
0.765684 0.018505 0.952440
0.883252 0.018505 0.952440
1.000000 0.018505 0.952440
0.024321 0.150529 0.952440
0.157081 0.150529 0.952440
0.283194 0.150529 0.952440
0.406311 0.150529 0.952440
0.527463 0.150529 0.952440
0.647154 0.150529 0.952440
0.765684 0.150529 0.952440
0.883252 0.150529 0.952440
1.000000 0.150529 0.952440
0.024321 0.275574 0.952440
0.157081 0.275574 0.952440
0.283194 0.275574 0.952440
0.406311 0.275574 0.952440
0.527463 0.275574 0.952440
0.647154 0.275574 0.952440
0.765684 0.275574 0.952440
0.883252 0.275574 0.952440
1.000000 0.275574 0.952440
0.024321 0.397590 0.952440
0.157081 0.397590 0.952440
0.283194 0.397590 0.952440
0.406311 0.397590 0.952440
0.527463 0.397590 0.952440
0.647154 0.397590 0.952440
0.765684 0.397590 0.952440
0.883252 0.397590 0.952440
1.000000 0.397590 0.952440
0.024321 0.517632 0.952440
0.157081 0.517632 0.952440
0.283194 0.517632 0.952440
0.406311 0.517632 0.952440
0.527463 0.517632 0.952440
0.647154 0.517632 0.952440
0.765684 0.517632 0.952440
0.883252 0.517632 0.952440
1.000000 0.517632 0.952440
0.024321 0.636214 0.952440
0.157081 0.636214 0.952440
0.283194 0.636214 0.952440
0.406311 0.636214 0.952440
0.527463 0.636214 0.952440
0.647154 0.636214 0.952440
0.765684 0.636214 0.952440
0.883252 0.636214 0.952440
1.000000 0.636214 0.952440
0.024321 0.753636 0.952440
0.157081 0.753636 0.952440
0.283194 0.753636 0.952440
0.406311 0.753636 0.952440
0.527463 0.753636 0.952440
0.647154 0.753636 0.952440
0.765684 0.753636 0.952440
0.883252 0.753636 0.952440
1.000000 0.753636 0.952440
0.024321 0.870099 0.952440
0.157081 0.870099 0.952440
0.283194 0.870099 0.952440
0.406311 0.870099 0.952440
0.527463 0.870099 0.952440
0.647154 0.870099 0.952440
0.765684 0.870099 0.952440
0.883252 0.870099 0.952440
1.000000 0.870099 0.952440
0.024321 0.985745 0.952440
0.157081 0.985745 0.952440
0.283194 0.985745 0.952440
0.406311 0.985745 0.952440
0.527463 0.985745 0.952440
0.647154 0.985745 0.952440
0.765684 0.985745 0.952440
0.883252 0.985745 0.952440
1.000000 0.985745 0.952440
