RapidRAW-Android/app/src/main/assets/built_in_luts/kodak_portra_400.cube
TITLE "Kodak Portra 400"
LUT_3D_SIZE 17
0.024321 0.018505 0.012589
0.092115 0.018505 0.012589
0.157081 0.018505 0.012589
0.220619 0.018505 0.012589
0.283194 0.018505 0.012589
0.345043 0.018505 0.012589
0.406311 0.018505 0.012589
0.467094 0.018505 0.012589
0.527463 0.018505 0.012589
0.587469 0.018505 0.012589
0.647154 0.018505 0.012589
0.706550 0.018505 0.012589
0.765684 0.018505 0.012589
0.824579 0.018505 0.012589
0.883252 0.018505 0.012589
0.941721 0.018505 0.012589
1.000000 0.018505 0.012589
0.024321 0.086046 0.012589
0.092115 0.086046 0.012589
0.157081 0.086046 0.012589
0.220619 0.086046 0.012589
0.283194 0.086046 0.012589
0.345043 0.086046 0.012589
0.406311 0.086046 0.012589
0.467094 0.086046 0.012589
0.527463 0.086046 0.012589
0.587469 0.086046 0.012589
0.647154 0.086046 0.012589
0.706550 0.086046 0.012589
0.765684 0.086046 0.012589
0.824579 0.086046 0.012589
0.883252 0.086046 0.012589
0.941721 0.086046 0.012589
1.000000 0.086046 0.012589
0.024321 0.150529 0.012589
0.092115 0.150529 0.012589
0.157081 0.150529 0.012589
0.220619 0.150529 0.012589
0.283194 0.150529 0.012589
0.345043 0.150529 0.012589
0.406311 0.150529 0.012589
0.467094 0.150529 0.012589
0.527463 0.150529 0.012589
0.587469 0.150529 0.012589
0.647154 0.150529 0.012589
0.706550 0.150529 0.012589
0.765684 0.150529 0.012589
0.824579 0.150529 0.012589
0.883252 0.150529 0.012589
0.941721 0.150529 0.012589
1.000000 0.150529 0.012589
0.024321 0.213541 0.012589
0.092115 0.213541 0.012589
0.157081 0.213541 0.012589
0.220619 0.213541 0.012589
0.283194 0.213541 0.012589
0.345043 0.213541 0.012589
0.406311 0.213541 0.012589
0.467094 0.213541 0.012589
0.527463 0.213541 0.012589
0.587469 0.213541 0.012589
0.647154 0.213541 0.012589
0.706550 0.213541 0.012589
0.765684 0.213541 0.012589
0.824579 0.213541 0.012589
0.883252 0.213541 0.012589
0.941721 0.213541 0.012589
1.000000 0.213541 0.012589
0.024321 0.275574 0.012589
0.092115 0.275574 0.012589
0.157081 0.275574 0.012589
0.220619 0.275574 0.012589
0.283194 0.275574 0.012589
0.345043 0.275574 0.012589
0.406311 0.275574 0.012589
0.467094 0.275574 0.012589
0.527463 0.275574 0.012589
0.587469 0.275574 0.012589
0.647154 0.275574 0.012589
0.706550 0.275574 0.012589
0.765684 0.275574 0.012589
0.824579 0.275574 0.012589
0.883252 0.275574 0.012589
0.941721 0.275574 0.012589
1.000000 0.275574 0.012589
0.024321 0.336874 0.012589
0.092115 0.336874 0.012589
0.157081 0.336874 0.012589
0.220619 0.336874 0.012589
0.283194 0.336874 0.012589
0.345043 0.336874 0.012589
0.406311 0.336874 0.012589
0.467094 0.336874 0.012589
0.527463 0.336874 0.012589
0.587469 0.336874 0.012589
0.647154 0.336874 0.012589
0.706550 0.336874 0.012589
0.765684 0.336874 0.012589
0.824579 0.336874 0.012589
0.883252 0.336874 0.012589
0.941721 0.336874 0.012589
1.000000 0.336874 0.012589
0.024321 0.397590 0.012589
0.092115 0.397590 0.012589
0.157081 0.397590 0.012589
0.220619 0.397590 0.012589
0.283194 0.397590 0.012589
0.345043 0.397590 0.012589
0.406311 0.397590 0.012589
0.467094 0.397590 0.012589
0.527463 0.397590 0.012589
0.587469 0.397590 0.012589
0.647154 0.397590 0.012589
0.706550 0.397590 0.012589
0.765684 0.397590 0.012589
0.824579 0.397590 0.012589
0.883252 0.397590 0.012589
0.941721 0.397590 0.012589
1.000000 0.397590 0.012589
0.024321 0.457819 0.012589
0.092115 0.457819 0.012589
0.157081 0.457819 0.012589
0.220619 0.457819 0.012589
0.283194 0.457819 0.012589
0.345043 0.457819 0.012589
0.406311 0.457819 0.012589
0.467094 0.457819 0.012589
0.527463 0.457819 0.012589
0.587469 0.457819 0.012589
0.647154 0.457819 0.012589
0.706550 0.457819 0.012589
0.765684 0.457819 0.012589
0.824579 0.457819 0.012589
0.883252 0.457819 0.012589
0.941721 0.457819 0.012589
1.000000 0.457819 0.012589
0.024321 0.517632 0.012589
0.092115 0.517632 0.012589
0.157081 0.517632 0.012589
0.220619 0.517632 0.012589
0.283194 0.517632 0.012589
0.345043 0.517632 0.012589
0.406311 0.517632 0.012589
0.467094 0.517632 0.012589
0.527463 0.517632 0.012589
0.587469 0.517632 0.012589
0.647154 0.517632 0.012589
0.706550 0.517632 0.012589
0.765684 0.517632 0.012589
0.824579 0.517632 0.012589
0.883252 0.517632 0.012589
0.941721 0.517632 0.012589
1.000000 0.517632 0.012589
0.024321 0.577084 0.012589
0.092115 0.577084 0.012589
0.157081 0.577084 0.012589
0.220619 0.577084 0.012589
0.283194 0.577084 0.012589
0.345043 0.577084 0.012589
0.406311 0.577084 0.012589
0.467094 0.577084 0.012589
0.527463 0.577084 0.012589
0.587469 0.577084 0.012589
0.647154 0.577084 0.012589
0.706550 0.577084 0.012589
0.765684 0.577084 0.012589
0.824579 0.577084 0.012589
0.883252 0.577084 0.012589
0.941721 0.577084 0.012589
1.000000 0.577084 0.012589
0.024321 0.636214 0.012589
0.092115 0.636214 0.012589
0.157081 0.636214 0.012589
0.220619 0.636214 0.012589
0.283194 0.636214 0.012589
0.345043 0.636214 0.012589
0.406311 0.636214 0.012589
0.467094 0.636214 0.012589
0.527463 0.636214 0.012589
0.587469 0.636214 0.012589
0.647154 0.636214 0.012589
0.706550 0.636214 0.012589
0.765684 0.636214 0.012589
0.824579 0.636214 0.012589
0.883252 0.636214 0.012589
0.941721 0.636214 0.012589
1.000000 0.636214 0.012589
0.024321 0.695056 0.012589
0.092115 0.695056 0.012589
0.157081 0.695056 0.012589
0.220619 0.695056 0.012589
0.283194 0.695056 0.012589
0.345043 0.695056 0.012589
0.406311 0.695056 0.012589
0.467094 0.695056 0.012589
0.527463 0.695056 0.012589
0.587469 0.695056 0.012589
0.647154 0.695056 0.012589
0.706550 0.695056 0.012589
0.765684 0.695056 0.012589
0.824579 0.695056 0.012589
0.883252 0.695056 0.012589
0.941721 0.695056 0.012589
1.000000 0.695056 0.012589
0.024321 0.753636 0.012589
0.092115 0.753636 0.012589
0.157081 0.753636 0.012589
0.220619 0.753636 0.012589
0.283194 0.753636 0.012589
0.345043 0.753636 0.012589
0.406311 0.753636 0.012589
0.467094 0.753636 0.012589
0.527463 0.753636 0.012589
0.587469 0.753636 0.012589
0.647154 0.753636 0.012589
0.706550 0.753636 0.012589
0.765684 0.753636 0.012589
0.824579 0.753636 0.012589
0.883252 0.753636 0.012589
0.941721 0.753636 0.012589
1.000000 0.753636 0.012589
0.024321 0.811977 0.012589
0.092115 0.811977 0.012589
0.157081 0.811977 0.012589
0.220619 0.811977 0.012589
0.283194 0.811977 0.012589
0.345043 0.811977 0.012589
0.406311 0.811977 0.012589
0.467094 0.811977 0.012589
0.527463 0.811977 0.012589
0.587469 0.811977 0.012589
0.647154 0.811977 0.012589
0.706550 0.811977 0.012589
0.765684 0.811977 0.012589
0.824579 0.811977 0.012589
0.883252 0.811977 0.012589
0.941721 0.811977 0.012589
1.000000 0.811977 0.012589
0.024321 0.870099 0.012589
0.092115 0.870099 0.012589
0.157081 0.870099 0.012589
0.220619 0.870099 0.012589
0.283194 0.870099 0.012589
0.345043 0.870099 0.012589
0.406311 0.870099 0.012589
0.467094 0.870099 0.012589
0.527463 0.870099 0.012589
0.587469 0.870099 0.012589
0.647154 0.870099 0.012589
0.706550 0.870099 0.012589
0.765684 0.870099 0.012589
0.824579 0.870099 0.012589
0.883252 0.870099 0.012589
0.941721 0.870099 0.012589
1.000000 0.870099 0.012589
0.024321 0.928017 0.012589
0.092115 0.928017 0.012589
0.157081 0.928017 0.012589
0.220619 0.928017 0.012589
0.283194 0.928017 0.012589
0.345043 0.928017 0.012589
0.406311 0.928017 0.012589
0.467094 0.928017 0.012589
0.527463 0.928017 0.012589
0.587469 0.928017 0.012589
0.647154 0.928017 0.012589
0.706550 0.928017 0.012589
0.765684 0.928017 0.012589
0.824579 0.928017 0.012589
0.883252 0.928017 0.012589
0.941721 0.928017 0.012589
1.000000 0.928017 0.012589
0.024321 0.985745 0.012589
0.092115 0.985745 0.012589
0.157081 0.985745 0.012589
0.220619 0.985745 0.012589
0.283194 0.985745 0.012589
0.345043 0.985745 0.012589
0.406311 0.985745 0.012589
0.467094 0.985745 0.012589
0.527463 0.985745 0.012589
0.587469 0.985745 0.012589
0.647154 0.985745 0.012589
0.706550 0.985745 0.012589
0.765684 0.985745 0.012589
0.824579 0.985745 0.012589
0.883252 0.985745 0.012589
0.941721 0.985745 0.012589
1.000000 0.985745 0.012589
0.024321 0.018505 0.078598
0.092115 0.018505 0.078598
0.157081 0.018505 0.078598
0.220619 0.018505 0.078598
0.283194 0.018505 0.078598
0.345043 0.018505 0.078598
0.406311 0.018505 0.078598
0.467094 0.018505 0.078598
0.527463 0.018505 0.078598
0.587469 0.018505 0.078598
0.647154 0.018505 0.078598
0.706550 0.018505 0.078598
0.765684 0.018505 0.078598
0.824579 0.018505 0.078598
0.883252 0.018505 0.078598
0.941721 0.018505 0.078598
1.000000 0.018505 0.078598
0.024321 0.086046 0.078598
0.092115 0.086046 0.078598
0.157081 0.086046 0.078598
0.220619 0.086046 0.078598
0.283194 0.086046 0.078598
0.345043 0.086046 0.078598
0.406311 0.086046 0.078598
0.467094 0.086046 0.078598
0.527463 0.086046 0.078598
0.587469 0.086046 0.078598
0.647154 0.086046 0.078598
0.706550 0.086046 0.078598
0.765684 0.086046 0.078598
0.824579 0.086046 0.078598
0.883252 0.086046 0.078598
0.941721 0.086046 0.078598
1.000000 0.086046 0.078598
0.024321 0.150529 0.078598
0.092115 0.150529 0.078598
0.157081 0.150529 0.078598
0.220619 0.150529 0.078598
0.283194 0.150529 0.078598
0.345043 0.150529 0.078598
0.406311 0.150529 0.078598
0.467094 0.150529 0.078598
0.527463 0.150529 0.078598
0.587469 0.150529 0.078598
0.647154 0.150529 0.078598
0.706550 0.150529 0.078598
0.765684 0.150529 0.078598
0.824579 0.150529 0.078598
0.883252 0.150529 0.078598
0.941721 0.150529 0.078598
1.000000 0.150529 0.078598
0.024321 0.213541 0.078598
0.092115 0.213541 0.078598
0.157081 0.213541 0.078598
0.220619 0.213541 0.078598
0.283194 0.213541 0.078598
0.345043 0.213541 0.078598
0.406311 0.213541 0.078598
0.467094 0.213541 0.078598
0.527463 0.213541 0.078598
0.587469 0.213541 0.078598
0.647154 0.213541 0.078598
0.706550 0.213541 0.078598
0.765684 0.213541 0.078598
0.824579 0.213541 0.078598
0.883252 0.213541 0.078598
0.941721 0.213541 0.078598
1.000000 0.213541 0.078598
0.024321 0.275574 0.078598
0.092115 0.275574 0.078598
0.157081 0.275574 0.078598
0.220619 0.275574 0.078598
0.283194 0.275574 0.078598
0.345043 0.275574 0.078598
0.406311 0.275574 0.078598
0.467094 0.275574 0.078598
0.527463 0.275574 0.078598
0.587469 0.275574 0.078598
0.647154 0.275574 0.078598
0.706550 0.275574 0.078598
0.765684 0.275574 0.078598
0.824579 0.275574 0.078598
0.883252 0.275574 0.078598
0.941721 0.275574 0.078598
1.000000 0.275574 0.078598
0.024321 0.336874 0.078598
0.092115 0.336874 0.078598
0.157081 0.336874 0.078598
0.220619 0.336874 0.078598
0.283194 0.336874 0.078598
0.345043 0.336874 0.078598
0.406311 0.336874 0.078598
0.467094 0.336874 0.078598
0.527463 0.336874 0.078598
0.587469 0.336874 0.078598
0.647154 0.336874 0.078598
0.706550 0.336874 0.078598
0.765684 0.336874 0.078598
0.824579 0.336874 0.078598
0.883252 0.336874 0.078598
0.941721 0.336874 0.078598
1.000000 0.336874 0.078598
0.024321 0.397590 0.078598
0.092115 0.397590 0.078598
0.157081 0.397590 0.078598
0.220619 0.397590 0.078598
0.283194 0.397590 0.078598
0.345043 0.397590 0.078598
0.406311 0.397590 0.078598
0.467094 0.397590 0.078598
0.527463 0.397590 0.078598
0.587469 0.397590 0.078598
0.647154 0.397590 0.078598
0.706550 0.397590 0.078598
0.765684 0.397590 0.078598
0.824579 0.397590 0.078598
0.883252 0.397590 0.078598
0.941721 0.397590 0.078598
1.000000 0.397590 0.078598
0.024321 0.457819 0.078598
0.092115 0.457819 0.078598
0.157081 0.457819 0.078598
0.220619 0.457819 0.078598
0.283194 0.457819 0.078598
0.345043 0.457819 0.078598
0.406311 0.457819 0.078598
0.467094 0.457819 0.078598
0.527463 0.457819 0.078598
0.587469 0.457819 0.078598
0.647154 0.457819 0.078598
0.706550 0.457819 0.078598
0.765684 0.457819 0.078598
0.824579 0.457819 0.078598
0.883252 0.457819 0.078598
0.941721 0.457819 0.078598
1.000000 0.457819 0.078598
0.024321 0.517632 0.078598
0.092115 0.517632 0.078598
0.157081 0.517632 0.078598
0.220619 0.517632 0.078598
0.283194 0.517632 0.078598
0.345043 0.517632 0.078598
0.406311 0.517632 0.078598
0.467094 0.517632 0.078598
0.527463 0.517632 0.078598
0.587469 0.517632 0.078598
0.647154 0.517632 0.078598
0.706550 0.517632 0.078598
0.765684 0.517632 0.078598
0.824579 0.517632 0.078598
0.883252 0.517632 0.078598
0.941721 0.517632 0.078598
1.000000 0.517632 0.078598
0.024321 0.577084 0.078598
0.092115 0.577084 0.078598
0.157081 0.577084 0.078598
0.220619 0.577084 0.078598
0.283194 0.577084 0.078598
0.345043 0.577084 0.078598
0.406311 0.577084 0.078598
0.467094 0.577084 0.078598
0.527463 0.577084 0.078598
0.587469 0.577084 0.078598
0.647154 0.577084 0.078598
0.706550 0.577084 0.078598
0.765684 0.577084 0.078598
0.824579 0.577084 0.078598
0.883252 0.577084 0.078598
0.941721 0.577084 0.078598
1.000000 0.577084 0.078598
0.024321 0.636214 0.078598
0.092115 0.636214 0.078598
0.157081 0.636214 0.078598
0.220619 0.636214 0.078598
0.283194 0.636214 0.078598
0.345043 0.636214 0.078598
0.406311 0.636214 0.078598
0.467094 0.636214 0.078598
0.527463 0.636214 0.078598
0.587469 0.636214 0.078598
0.647154 0.636214 0.078598
0.706550 0.636214 0.078598
0.765684 0.636214 0.078598
0.824579 0.636214 0.078598
0.883252 0.636214 0.078598
0.941721 0.636214 0.078598
1.000000 0.636214 0.078598
0.024321 0.695056 0.078598
0.092115 0.695056 0.078598
0.157081 0.695056 0.078598
0.220619 0.695056 0.078598
0.283194 0.695056 0.078598
0.345043 0.695056 0.078598
0.406311 0.695056 0.078598
0.467094 0.695056 0.078598
0.527463 0.695056 0.078598
0.587469 0.695056 0.078598
0.647154 0.695056 0.078598
0.706550 0.695056 0.078598
0.765684 0.695056 0.078598
0.824579 0.695056 0.078598
0.883252 0.695056 0.078598
0.941721 0.695056 0.078598
1.000000 0.695056 0.078598
0.024321 0.753636 0.078598
0.092115 0.753636 0.078598
0.157081 0.753636 0.078598
0.220619 0.753636 0.078598
0.283194 0.753636 0.078598
0.345043 0.753636 0.078598
0.406311 0.753636 0.078598
0.467094 0.753636 0.078598
0.527463 0.753636 0.078598
0.587469 0.753636 0.078598
0.647154 0.753636 0.078598
0.706550 0.753636 0.078598
0.765684 0.753636 0.078598
0.824579 0.753636 0.078598
0.883252 0.753636 0.078598
0.941721 0.753636 0.078598
1.000000 0.753636 0.078598
0.024321 0.811977 0.078598
0.092115 0.811977 0.078598
0.157081 0.811977 0.078598
0.220619 0.811977 0.078598
0.283194 0.811977 0.078598
0.345043 0.811977 0.078598
0.406311 0.811977 0.078598
0.467094 0.811977 0.078598
0.527463 0.811977 0.078598
0.587469 0.811977 0.078598
0.647154 0.811977 0.078598
0.706550 0.811977 0.078598
0.765684 0.811977 0.078598
0.824579 0.811977 0.078598
0.883252 0.811977 0.078598
0.941721 0.811977 0.078598
1.000000 0.811977 0.078598
0.024321 0.870099 0.078598
0.092115 0.870099 0.078598
0.157081 0.870099 0.078598
0.220619 0.870099 0.078598
0.283194 0.870099 0.078598
0.345043 0.870099 0.078598
0.406311 0.870099 0.078598
0.467094 0.870099 0.078598
0.527463 0.870099 0.078598
0.587469 0.870099 0.078598
0.647154 0.870099 0.078598
0.706550 0.870099 0.078598
0.765684 0.870099 0.078598
0.824579 0.870099 0.078598
0.883252 0.870099 0.078598
0.941721 0.870099 0.078598
1.000000 0.870099 0.078598
0.024321 0.928017 0.078598
0.092115 0.928017 0.078598
0.157081 0.928017 0.078598
0.220619 0.928017 0.078598
0.283194 0.928017 0.078598
0.345043 0.928017 0.078598
0.406311 0.928017 0.078598
0.467094 0.928017 0.078598
0.527463 0.928017 0.078598
0.587469 0.928017 0.078598
0.647154 0.928017 0.078598
0.706550 0.928017 0.078598
0.765684 0.928017 0.078598
0.824579 0.928017 0.078598
0.883252 0.928017 0.078598
0.941721 0.928017 0.078598
1.000000 0.928017 0.078598
0.024321 0.985745 0.078598
0.092115 0.985745 0.078598
0.157081 0.985745 0.078598
0.220619 0.985745 0.078598
0.283194 0.985745 0.078598
0.345043 0.985745 0.078598
0.406311 0.985745 0.078598
0.467094 0.985745 0.078598
0.527463 0.985745 0.078598
0.587469 0.985745 0.078598
0.647154 0.985745 0.078598
0.706550 0.985745 0.078598
0.765684 0.985745 0.078598
0.824579 0.985745 0.078598
0.883252 0.985745 0.078598
0.941721 0.985745 0.078598
1.000000 0.985745 0.078598
0.024321 0.018505 0.141330
0.092115 0.018505 0.141330
0.157081 0.018505 0.141330
0.220619 0.018505 0.141330
0.283194 0.018505 0.141330
0.345043 0.018505 0.141330
0.406311 0.018505 0.141330
0.467094 0.018505 0.141330
0.527463 0.018505 0.141330
0.587469 0.018505 0.141330
0.647154 0.018505 0.141330
0.706550 0.018505 0.141330
0.765684 0.018505 0.141330
0.824579 0.018505 0.141330
0.883252 0.018505 0.141330
0.941721 0.018505 0.141330
1.000000 0.018505 0.141330
0.024321 0.086046 0.141330
0.092115 0.086046 0.141330
0.157081 0.086046 0.141330
0.220619 0.086046 0.141330
0.283194 0.086046 0.141330
0.345043 0.086046 0.141330
0.406311 0.086046 0.141330
0.467094 0.086046 0.141330
0.527463 0.086046 0.141330
0.587469 0.086046 0.141330
0.647154 0.086046 0.141330
0.706550 0.086046 0.141330
0.765684 0.086046 0.141330
0.824579 0.086046 0.141330
0.883252 0.086046 0.141330
0.941721 0.086046 0.141330
1.000000 0.086046 0.141330
0.024321 0.150529 0.141330
0.092115 0.150529 0.141330
0.157081 0.150529 0.141330
0.220619 0.150529 0.141330
0.283194 0.150529 0.141330
0.345043 0.150529 0.141330
0.406311 0.150529 0.141330
0.467094 0.150529 0.141330
0.527463 0.150529 0.141330
0.587469 0.150529 0.141330
0.647154 0.150529 0.141330
0.706550 0.150529 0.141330
0.765684 0.150529 0.141330
0.824579 0.150529 0.141330
0.883252 0.150529 0.141330
0.941721 0.150529 0.141330
1.000000 0.150529 0.141330
0.024321 0.213541 0.141330
0.092115 0.213541 0.141330
0.157081 0.213541 0.141330
0.220619 0.213541 0.141330
0.283194 0.213541 0.141330
0.345043 0.213541 0.141330
0.406311 0.213541 0.141330
0.467094 0.213541 0.141330
0.527463 0.213541 0.141330
0.587469 0.213541 0.141330
0.647154 0.213541 0.141330
0.706550 0.213541 0.141330
0.765684 0.213541 0.141330
0.824579 0.213541 0.141330
0.883252 0.213541 0.141330
0.941721 0.213541 0.141330
1.000000 0.213541 0.141330
0.024321 0.275574 0.141330
0.092115 0.275574 0.141330
0.157081 0.275574 0.141330
0.220619 0.275574 0.141330
0.283194 0.275574 0.141330
0.345043 0.275574 0.141330
0.406311 0.275574 0.141330
0.467094 0.275574 0.141330
0.527463 0.275574 0.141330
0.587469 0.275574 0.141330
0.647154 0.275574 0.141330
0.706550 0.275574 0.141330
0.765684 0.275574 0.141330
0.824579 0.275574 0.141330
0.883252 0.275574 0.141330
0.941721 0.275574 0.141330
1.000000 0.275574 0.141330
0.024321 0.336874 0.141330
0.092115 0.336874 0.141330
0.157081 0.336874 0.141330
0.220619 0.336874 0.141330
0.283194 0.336874 0.141330
0.345043 0.336874 0.141330
0.406311 0.336874 0.141330
0.467094 0.336874 0.141330
0.527463 0.336874 0.141330
0.587469 0.336874 0.141330
0.647154 0.336874 0.141330
0.706550 0.336874 0.141330
0.765684 0.336874 0.141330
0.824579 0.336874 0.141330
0.883252 0.336874 0.141330
0.941721 0.336874 0.141330
1.000000 0.336874 0.141330
0.024321 0.397590 0.141330
0.092115 0.397590 0.141330
0.157081 0.397590 0.141330
0.220619 0.397590 0.141330
0.283194 0.397590 0.141330
0.345043 0.397590 0.141330
0.406311 0.397590 0.141330
0.467094 0.397590 0.141330
0.527463 0.397590 0.141330
0.587469 0.397590 0.141330
0.647154 0.397590 0.141330
0.706550 0.397590 0.141330
0.765684 0.397590 0.141330
0.824579 0.397590 0.141330
0.883252 0.397590 0.141330
0.941721 0.397590 0.141330
1.000000 0.397590 0.141330
0.024321 0.457819 0.141330
0.092115 0.457819 0.141330
0.157081 0.457819 0.141330
0.220619 0.457819 0.141330
0.283194 0.457819 0.141330
0.345043 0.457819 0.141330
0.406311 0.457819 0.141330
0.467094 0.457819 0.141330
0.527463 0.457819 0.141330
0.587469 0.457819 0.141330
0.647154 0.457819 0.141330
0.706550 0.457819 0.141330
0.765684 0.457819 0.141330
0.824579 0.457819 0.141330
0.883252 0.457819 0.141330
0.941721 0.457819 0.141330
1.000000 0.457819 0.141330
0.024321 0.517632 0.141330
0.092115 0.517632 0.141330
0.157081 0.517632 0.141330
0.220619 0.517632 0.141330
0.283194 0.517632 0.141330
0.345043 0.517632 0.141330
0.406311 0.517632 0.141330
0.467094 0.517632 0.141330
0.527463 0.517632 0.141330
0.587469 0.517632 0.141330
0.647154 0.517632 0.141330
0.706550 0.517632 0.141330
0.765684 0.517632 0.141330
0.824579 0.517632 0.141330
0.883252 0.517632 0.141330
0.941721 0.517632 0.141330
1.000000 0.517632 0.141330
0.024321 0.577084 0.141330
0.092115 0.577084 0.141330
0.157081 0.577084 0.141330
0.220619 0.577084 0.141330
0.283194 0.577084 0.141330
0.345043 0.577084 0.141330
0.406311 0.577084 0.141330
0.467094 0.577084 0.141330
0.527463 0.577084 0.141330
0.587469 0.577084 0.141330
0.647154 0.577084 0.141330
0.706550 0.577084 0.141330
0.765684 0.577084 0.141330
0.824579 0.577084 0.141330
0.883252 0.577084 0.141330
0.941721 0.577084 0.141330
1.000000 0.577084 0.141330
0.024321 0.636214 0.141330
0.092115 0.636214 0.141330
0.157081 0.636214 0.141330
0.220619 0.636214 0.141330
0.283194 0.636214 0.141330
0.345043 0.636214 0.141330
0.406311 0.636214 0.141330
0.467094 0.636214 0.141330
0.527463 0.636214 0.141330
0.587469 0.636214 0.141330
0.647154 0.636214 0.141330
0.706550 0.636214 0.141330
0.765684 0.636214 0.141330
0.824579 0.636214 0.141330
0.883252 0.636214 0.141330
0.941721 0.636214 0.141330
1.000000 0.636214 0.141330
0.024321 0.695056 0.141330
0.092115 0.695056 0.141330
0.157081 0.695056 0.141330
0.220619 0.695056 0.141330
0.283194 0.695056 0.141330
0.345043 0.695056 0.141330
0.406311 0.695056 0.141330
0.467094 0.695056 0.141330
0.527463 0.695056 0.141330
0.587469 0.695056 0.141330
0.647154 0.695056 0.141330
0.706550 0.695056 0.141330
0.765684 0.695056 0.141330
0.824579 0.695056 0.141330
0.883252 0.695056 0.141330
0.941721 0.695056 0.141330
1.000000 0.695056 0.141330
0.024321 0.753636 0.141330
0.092115 0.753636 0.141330
0.157081 0.753636 0.141330
0.220619 0.753636 0.141330
0.283194 0.753636 0.141330
0.345043 0.753636 0.141330
0.406311 0.753636 0.141330
0.467094 0.753636 0.141330
0.527463 0.753636 0.141330
0.587469 0.753636 0.141330
0.647154 0.753636 0.141330
0.706550 0.753636 0.141330
0.765684 0.753636 0.141330
0.824579 0.753636 0.141330
0.883252 0.753636 0.141330
0.941721 0.753636 0.141330
1.000000 0.753636 0.141330
0.024321 0.811977 0.141330
0.092115 0.811977 0.141330
0.157081 0.811977 0.141330
0.220619 0.811977 0.141330
0.283194 0.811977 0.141330
0.345043 0.811977 0.141330
0.406311 0.811977 0.141330
0.467094 0.811977 0.141330
0.527463 0.811977 0.141330
0.587469 0.811977 0.141330
0.647154 0.811977 0.141330
0.706550 0.811977 0.141330
0.765684 0.811977 0.141330
0.824579 0.811977 0.141330
0.883252 0.811977 0.141330
0.941721 0.811977 0.141330
1.000000 0.811977 0.141330
0.024321 0.870099 0.141330
0.092115 0.870099 0.141330
0.157081 0.870099 0.141330
0.220619 0.870099 0.141330
0.283194 0.870099 0.141330
0.345043 0.870099 0.141330
0.406311 0.870099 0.141330
0.467094 0.870099 0.141330
0.527463 0.870099 0.141330
0.587469 0.870099 0.141330
0.647154 0.870099 0.141330
0.706550 0.870099 0.141330
0.765684 0.870099 0.141330
0.824579 0.870099 0.141330
0.883252 0.870099 0.141330
0.941721 0.870099 0.141330
1.000000 0.870099 0.141330
0.024321 0.928017 0.141330
0.092115 0.928017 0.141330
0.157081 0.928017 0.141330
0.220619 0.928017 0.141330
0.283194 0.928017 0.141330
0.345043 0.928017 0.141330
0.406311 0.928017 0.141330
0.467094 0.928017 0.141330
0.527463 0.928017 0.141330
0.587469 0.928017 0.141330
0.647154 0.928017 0.141330
0.706550 0.928017 0.141330
0.765684 0.928017 0.141330
0.824579 0.928017 0.141330
0.883252 0.928017 0.141330
0.941721 0.928017 0.141330
1.000000 0.928017 0.141330
0.024321 0.985745 0.141330
0.092115 0.985745 0.141330
0.157081 0.985745 0.141330
0.220619 0.985745 0.141330
0.283194 0.985745 0.141330
0.345043 0.985745 0.141330
0.406311 0.985745 0.141330
0.467094 0.985745 0.141330
0.527463 0.985745 0.141330
0.587469 0.985745 0.141330
0.647154 0.985745 0.141330
0.706550 0.985745 0.141330
0.765684 0.985745 0.141330
0.824579 0.985745 0.141330
0.883252 0.985745 0.141330
0.941721 0.985745 0.141330
1.000000 0.985745 0.141330
0.024321 0.018505 0.202578
0.092115 0.018505 0.202578
0.157081 0.018505 0.202578
0.220619 0.018505 0.202578
0.283194 0.018505 0.202578
0.345043 0.018505 0.202578
0.406311 0.018505 0.202578
0.467094 0.018505 0.202578
0.527463 0.018505 0.202578
0.587469 0.018505 0.202578
0.647154 0.018505 0.202578
0.706550 0.018505 0.202578
0.765684 0.018505 0.202578
0.824579 0.018505 0.202578
0.883252 0.018505 0.202578
0.941721 0.018505 0.202578
1.000000 0.018505 0.202578
0.024321 0.086046 0.202578
0.092115 0.086046 0.202578
0.157081 0.086046 0.202578
