RapidRAW-Android/app/src/main/assets/built_in_luts/kodak_ektar_100.cube
TITLE "Kodak Ektar 100"
LUT_3D_SIZE 9
0.000000 0.000000 0.000000
0.155005 0.000000 0.000000
0.293288 0.000000 0.000000
0.425891 0.000000 0.000000
0.554934 0.000000 0.000000
0.681395 0.000000 0.000000
0.805834 0.000000 0.000000
0.928617 0.000000 0.000000
1.000000 0.000000 0.000000
0.000000 0.147624 0.000000
0.155005 0.147624 0.000000
0.293288 0.139661 0.000000
0.425891 0.135203 0.000000
0.554934 0.132127 0.000000
0.681395 0.129790 0.000000
0.805834 0.127910 0.000000
0.928617 0.126342 0.000000
1.000000 0.125000 0.000000
0.000000 0.279322 0.000000
0.146644 0.279322 0.000000
0.293288 0.279322 0.000000
0.425891 0.270407 0.000000
0.554934 0.264255 0.000000
0.681395 0.259579 0.000000
0.805834 0.255820 0.000000
0.928617 0.252685 0.000000
1.000000 0.250000 0.000000
0.000000 0.405610 0.000000
0.141964 0.405610 0.000000
0.283927 0.405610 0.000000
0.425891 0.405610 0.000000
0.554934 0.396382 0.000000
0.681395 0.389369 0.000000
0.805834 0.383731 0.000000
0.928617 0.379027 0.000000
1.000000 0.375000 0.000000
0.000000 0.528509 0.000000
0.138734 0.528509 0.000000
0.277467 0.528509 0.000000
0.416201 0.528509 0.000000
0.554934 0.528509 0.000000
0.681395 0.519158 0.000000
0.805834 0.511641 0.000000
0.928617 0.505370 0.000000
1.000000 0.500000 0.000000
0.000000 0.648948 0.000000
0.136279 0.648948 0.000000
0.272558 0.648948 0.000000
0.408837 0.648948 0.000000
0.545116 0.648948 0.000000
0.681395 0.648948 0.000000
0.805834 0.639551 0.000000
0.928617 0.631712 0.000000
1.000000 0.625000 0.000000
0.000000 0.767461 0.000000
0.134306 0.767461 0.000000
0.268611 0.767461 0.000000
0.402917 0.767461 0.000000
0.537223 0.767461 0.000000
0.671528 0.767461 0.000000
0.805834 0.767461 0.000000
0.928617 0.758055 0.000000
1.000000 0.750000 0.000000
0.000000 0.884397 0.000000
0.132660 0.884397 0.000000
0.265319 0.884397 0.000000
0.397979 0.884397 0.000000
0.530638 0.884397 0.000000
0.663298 0.884397 0.000000
0.795958 0.884397 0.000000
0.928617 0.884397 0.000000
1.000000 0.875000 0.000000
0.000000 1.000000 0.000000
0.131250 1.000000 0.000000
0.262500 1.000000 0.000000
0.393750 1.000000 0.000000
0.525000 1.000000 0.000000
0.656250 1.000000 0.000000
0.787500 1.000000 0.000000
0.918750 1.000000 0.000000
1.000000 1.000000 0.000000
0.000000 0.000000 0.143195
0.155005 0.000000 0.143195
0.293288 0.000000 0.135471
0.425891 0.000000 0.131147
0.554934 0.000000 0.128163
0.681395 0.000000 0.125896
0.805834 0.000000 0.124073
0.928617 0.000000 0.122552
1.000000 0.000000 0.121250
0.000000 0.147624 0.143195
0.155005 0.147624 0.143195
0.293288 0.118712 0.115150
0.425891 0.094642 0.091803
0.554934 0.072670 0.070490
0.681395 0.051916 0.050358
0.805834 0.031978 0.031018
0.928617 0.012634 0.012255
1.000000 0.000000 0.000000
0.000000 0.279322 0.135471
0.124647 0.279322 0.115150
0.293288 0.279322 0.115150
0.425891 0.250126 0.091803
0.554934 0.224616 0.070490
0.681395 0.201174 0.050358
0.805834 0.179074 0.031018
0.928617 0.157928 0.012255
1.000000 0.142857 0.000000
0.000000 0.405610 0.131147
0.099374 0.405610 0.091803
0.262633 0.405610 0.091803
0.425891 0.405610 0.091803
0.554934 0.376563 0.070490
0.681395 0.350432 0.050358
0.805834 0.326171 0.031018
0.928617 0.303222 0.012255
1.000000 0.285714 0.000000
0.000000 0.528509 0.128163
0.076303 0.528509 0.070490
0.235847 0.528509 0.070490
0.395391 0.528509 0.070490
0.554934 0.528509 0.070490
0.681395 0.499690 0.050358
0.805834 0.473268 0.031018
0.928617 0.448516 0.012255
1.000000 0.428571 0.000000
0.000000 0.648948 0.125896
0.054512 0.648948 0.050358
0.211232 0.648948 0.050358
0.367953 0.648948 0.050358
0.524674 0.648948 0.050358
0.681395 0.648948 0.050358
0.805834 0.620364 0.031018
0.928617 0.593810 0.012255
1.000000 0.571429 0.000000
0.000000 0.767461 0.124073
0.033576 0.767461 0.031018
0.188028 0.767461 0.031018
0.342480 0.767461 0.031018
0.496931 0.767461 0.031018
0.651383 0.767461 0.031018
0.805834 0.767461 0.031018
0.928617 0.739103 0.012255
1.000000 0.714286 0.000000
0.000000 0.884397 0.122552
0.013266 0.884397 0.012255
0.165824 0.884397 0.012255
0.318383 0.884397 0.012255
0.470942 0.884397 0.012255
0.623500 0.884397 0.012255
0.776059 0.884397 0.012255
0.928617 0.884397 0.012255
1.000000 0.857143 0.000000
0.000000 1.000000 0.121250
0.000000 1.000000 0.000000
0.150000 1.000000 0.000000
0.300000 1.000000 0.000000
0.450000 1.000000 0.000000
0.600000 1.000000 0.000000
0.750000 1.000000 0.000000
0.900000 1.000000 0.000000
1.000000 1.000000 0.000000
0.000000 0.000000 0.270942
0.146644 0.000000 0.270942
0.293288 0.000000 0.270942
0.425891 0.000000 0.262295
0.554934 0.000000 0.256327
0.681395 0.000000 0.251792
0.805834 0.000000 0.248146
0.928617 0.000000 0.245104
1.000000 0.000000 0.242500
0.000000 0.139661 0.270942
0.124647 0.118712 0.270942
0.293288 0.118712 0.270942
0.425891 0.094642 0.242622
0.554934 0.072670 0.217878
0.681395 0.051916 0.195139
0.805834 0.031978 0.173702
0.928617 0.012634 0.153190
1.000000 0.000000 0.138571
0.000000 0.279322 0.270942
0.124647 0.279322 0.270942
0.293288 0.279322 0.270942
0.425891 0.250126 0.242622
0.554934 0.224616 0.217878
0.681395 0.201174 0.195139
0.805834 0.179074 0.173702
0.928617 0.157928 0.153190
1.000000 0.137500 0.133375
0.000000 0.405610 0.262295
0.099374 0.405610 0.242622
0.262633 0.405610 0.242622
0.425891 0.405610 0.242622
0.554934 0.376563 0.217878
0.681395 0.350432 0.195139
0.805834 0.326171 0.173702
0.928617 0.303222 0.153190
1.000000 0.281250 0.133375
0.000000 0.528509 0.256327
0.076303 0.528509 0.217878
0.235847 0.528509 0.217878
0.395391 0.528509 0.217878
0.554934 0.528509 0.217878
0.681395 0.499690 0.195139
0.805834 0.473268 0.173702
0.928617 0.448516 0.153190
1.000000 0.425000 0.133375
0.000000 0.648948 0.251792
0.054512 0.648948 0.195139
0.211232 0.648948 0.195139
0.367953 0.648948 0.195139
0.524674 0.648948 0.195139
0.681395 0.648948 0.195139
0.805834 0.620364 0.173702
0.928617 0.593810 0.153190
1.000000 0.568750 0.133375
0.000000 0.767461 0.248146
0.033576 0.767461 0.173702
0.188028 0.767461 0.173702
0.342480 0.767461 0.173702
0.496931 0.767461 0.173702
0.651383 0.767461 0.173702
0.805834 0.767461 0.173702
0.928617 0.739103 0.153190
1.000000 0.712500 0.133375
0.000000 0.884397 0.245104
0.013266 0.884397 0.153190
0.165824 0.884397 0.153190
0.318383 0.884397 0.153190
0.470942 0.884397 0.153190
0.623500 0.884397 0.153190
0.776059 0.884397 0.153190
0.928617 0.884397 0.153190
1.000000 0.856250 0.133375
0.000000 1.000000 0.242500
0.000000 1.000000 0.138571
0.144375 1.000000 0.133375
0.295313 1.000000 0.133375
0.446250 1.000000 0.133375
0.597188 1.000000 0.133375
0.748125 1.000000 0.133375
0.899062 1.000000 0.133375
1.000000 1.000000 0.133375
0.000000 0.000000 0.393442
0.141964 0.000000 0.393442
0.283927 0.000000 0.393442
0.425891 0.000000 0.393442
0.554934 0.000000 0.384490
0.681395 0.000000 0.377687
0.805834 0.000000 0.372219
0.928617 0.000000 0.367657
1.000000 0.000000 0.363750
0.000000 0.135203 0.393442
0.099374 0.094642 0.393442
0.262633 0.094642 0.393442
0.425891 0.094642 0.393442
0.554934 0.072670 0.365266
0.681395 0.051916 0.339919
0.805834 0.031978 0.316386
0.928617 0.012634 0.294125
1.000000 0.000000 0.277143
0.000000 0.270407 0.393442
0.099374 0.250126 0.393442
0.262633 0.250126 0.393442
0.425891 0.250126 0.393442
0.554934 0.224616 0.365266
0.681395 0.201174 0.339919
0.805834 0.179074 0.316386
0.928617 0.157928 0.294125
1.000000 0.137500 0.272813
0.000000 0.405610 0.393442
0.099374 0.405610 0.393442
0.262633 0.405610 0.393442
0.425891 0.405610 0.393442
0.554934 0.376563 0.365266
0.681395 0.350432 0.339919
0.805834 0.326171 0.316386
0.928617 0.303222 0.294125
1.000000 0.281250 0.272813
0.000000 0.528509 0.384490
0.076303 0.528509 0.365266
0.235847 0.528509 0.365266
0.395391 0.528509 0.365266
0.554934 0.528509 0.365266
0.681395 0.499690 0.339919
0.805834 0.473268 0.316386
0.928617 0.448516 0.294125
1.000000 0.425000 0.272813
0.000000 0.648948 0.377687
0.054512 0.648948 0.339919
0.211232 0.648948 0.339919
0.367953 0.648948 0.339919
0.524674 0.648948 0.339919
0.681395 0.648948 0.339919
0.805834 0.620364 0.316386
0.928617 0.593810 0.294125
1.000000 0.568750 0.272813
0.000000 0.767461 0.372219
0.033576 0.767461 0.316386
0.188028 0.767461 0.316386
0.342480 0.767461 0.316386
0.496931 0.767461 0.316386
0.651383 0.767461 0.316386
0.805834 0.767461 0.316386
0.928617 0.739103 0.294125
1.000000 0.712500 0.272813
0.000000 0.884397 0.367657
0.013266 0.884397 0.294125
0.165824 0.884397 0.294125
0.318383 0.884397 0.294125
0.470942 0.884397 0.294125
0.623500 0.884397 0.294125
0.776059 0.884397 0.294125
0.928617 0.884397 0.294125
1.000000 0.856250 0.272813
0.000000 1.000000 0.363750
0.000000 1.000000 0.277143
0.144375 1.000000 0.272812
0.295313 1.000000 0.272813
0.446250 1.000000 0.272813
0.597187 1.000000 0.272813
0.748125 1.000000 0.272813
0.899063 1.000000 0.272813
1.000000 1.000000 0.272813
0.000000 0.000000 0.512654
0.138734 0.000000 0.512654
0.277467 0.000000 0.512654
0.416201 0.000000 0.512654
0.554934 0.000000 0.512654
0.681395 0.000000 0.503583
0.805834 0.000000 0.496292
0.928617 0.000000 0.490209
1.000000 0.000000 0.485000
0.000000 0.132127 0.512654
0.076303 0.072670 0.512654
0.235847 0.072670 0.512654
0.395391 0.072670 0.512654
0.554934 0.072670 0.512654
0.681395 0.051916 0.484699
0.805834 0.031978 0.459070
0.928617 0.012634 0.435060
1.000000 0.000000 0.415714
0.000000 0.264255 0.512654
0.076303 0.224616 0.512654
0.235847 0.224616 0.512654
0.395391 0.224616 0.512654
0.554934 0.224616 0.512654
0.681395 0.201174 0.484699
0.805834 0.179074 0.459070
0.928617 0.157928 0.435060
1.000000 0.137500 0.412250
0.000000 0.396382 0.512654
0.076303 0.376563 0.512654
0.235847 0.376563 0.512654
0.395391 0.376563 0.512654
0.554934 0.376563 0.512654
0.681395 0.350432 0.484699
0.805834 0.326171 0.459070
0.928617 0.303222 0.435060
1.000000 0.281250 0.412250
0.000000 0.528509 0.512654
0.076303 0.528509 0.512654
0.235847 0.528509 0.512654
0.395391 0.528509 0.512654
0.554934 0.528509 0.512654
0.681395 0.499690 0.484699
0.805834 0.473268 0.459070
0.928617 0.448516 0.435060
1.000000 0.425000 0.412250
0.000000 0.648948 0.503583
0.054512 0.648948 0.484699
0.211232 0.648948 0.484699
0.367953 0.648948 0.484699
0.524674 0.648948 0.484699
0.681395 0.648948 0.484699
0.805834 0.620364 0.459070
0.928617 0.593810 0.435060
1.000000 0.568750 0.412250
0.000000 0.767461 0.496292
0.033576 0.767461 0.459070
0.188028 0.767461 0.459070
0.342480 0.767461 0.459070
0.496931 0.767461 0.459070
0.651383 0.767461 0.459070
0.805834 0.767461 0.459070
0.928617 0.739103 0.435060
1.000000 0.712500 0.412250
0.000000 0.884397 0.490209
0.013266 0.884397 0.435060
0.165824 0.884397 0.435060
0.318383 0.884397 0.435060
0.470942 0.884397 0.435060
0.623500 0.884397 0.435060
0.776059 0.884397 0.435060
0.928617 0.884397 0.435060
1.000000 0.856250 0.412250
0.000000 1.000000 0.485000
0.000000 1.000000 0.415714
0.144375 1.000000 0.412250
0.295313 1.000000 0.412250
0.446250 1.000000 0.412250
0.597188 1.000000 0.412250
0.748125 1.000000 0.412250
0.899062 1.000000 0.412250
1.000000 1.000000 0.412250
0.000000 0.000000 0.629479
0.136279 0.000000 0.629479
0.272558 0.000000 0.629479
0.408837 0.000000 0.629479
0.545116 0.000000 0.629479
0.681395 0.000000 0.629479
0.805834 0.000000 0.620364
0.928617 0.000000 0.612761
1.000000 0.000000 0.606250
0.000000 0.129790 0.629479
0.054512 0.051916 0.629479
0.211232 0.051916 0.629479
0.367953 0.051916 0.629479
0.524674 0.051916 0.629479
0.681395 0.051916 0.629479
0.805834 0.031978 0.601753
0.928617 0.012634 0.575995
1.000000 0.000000 0.554286
0.000000 0.259579 0.629479
0.054512 0.201174 0.629479
0.211232 0.201174 0.629479
0.367953 0.201174 0.629479
0.524674 0.201174 0.629479
0.681395 0.201174 0.629479
0.805834 0.179074 0.601753
0.928617 0.157928 0.575995
1.000000 0.137500 0.551688
0.000000 0.389369 0.629479
0.054512 0.350432 0.629479
0.211232 0.350432 0.629479
0.367953 0.350432 0.629479
0.524674 0.350432 0.629479
0.681395 0.350432 0.629479
0.805834 0.326171 0.601753
0.928617 0.303222 0.575995
1.000000 0.281250 0.551688
0.000000 0.519158 0.629479
0.054512 0.499690 0.629479
0.211232 0.499690 0.629479
0.367953 0.499690 0.629479
0.524674 0.499690 0.629479
0.681395 0.499690 0.629479
0.805834 0.473268 0.601753
0.928617 0.448516 0.575995
1.000000 0.425000 0.551688
0.000000 0.648948 0.629479
0.054512 0.648948 0.629479
0.211232 0.648948 0.629479
0.367953 0.648948 0.629479
0.524674 0.648948 0.629479
0.681395 0.648948 0.629479
0.805834 0.620364 0.601753
0.928617 0.593810 0.575995
1.000000 0.568750 0.551688
0.000000 0.767461 0.620364
0.033576 0.767461 0.601753
0.188028 0.767461 0.601753
0.342480 0.767461 0.601753
0.496931 0.767461 0.601753
0.651383 0.767461 0.601753
0.805834 0.767461 0.601753
0.928617 0.739103 0.575995
1.000000 0.712500 0.551688
0.000000 0.884397 0.612761
0.013266 0.884397 0.575995
0.165824 0.884397 0.575995
0.318383 0.884397 0.575995
0.470942 0.884397 0.575995
0.623500 0.884397 0.575995
0.776059 0.884397 0.575995
0.928617 0.884397 0.575995
1.000000 0.856250 0.551688
0.000000 1.000000 0.606250
0.000000 1.000000 0.554286
0.144375 1.000000 0.551688
0.295313 1.000000 0.551687
0.446250 1.000000 0.551688
0.597188 1.000000 0.551688
0.748125 1.000000 0.551688
0.899063 1.000000 0.551688
1.000000 1.000000 0.551688
0.000000 0.000000 0.744437
0.134306 0.000000 0.744437
0.268611 0.000000 0.744437
0.402917 0.000000 0.744437
0.537223 0.000000 0.744437
0.671528 0.000000 0.744437
0.805834 0.000000 0.744437
0.928617 0.000000 0.735313
1.000000 0.000000 0.727500
0.000000 0.127910 0.744437
0.033576 0.031978 0.744437
0.188028 0.031978 0.744437
0.342480 0.031978 0.744437
0.496931 0.031978 0.744437
0.651383 0.031978 0.744437
0.805834 0.031978 0.744437
0.928617 0.012634 0.716930
1.000000 0.000000 0.692857
0.000000 0.255820 0.744437
0.033576 0.179074 0.744437
0.188028 0.179074 0.744437
0.342480 0.179074 0.744437
0.496931 0.179074 0.744437
0.651383 0.179074 0.744437
0.805834 0.179074 0.744437
0.928617 0.157928 0.716930
1.000000 0.137500 0.691125
0.000000 0.383731 0.744437
0.033576 0.326171 0.744437
0.188028 0.326171 0.744437
0.342480 0.326171 0.744437
0.496931 0.326171 0.744437
0.651383 0.326171 0.744437
0.805834 0.326171 0.744437
0.928617 0.303222 0.716930
1.000000 0.281250 0.691125
0.000000 0.511641 0.744437
0.033576 0.473268 0.744437
0.188028 0.473268 0.744437
0.342480 0.473268 0.744437
0.496931 0.473268 0.744437
0.651383 0.473268 0.744437
0.805834 0.473268 0.744437
0.928617 0.448516 0.716930
1.000000 0.425000 0.691125
0.000000 0.639551 0.744437
0.033576 0.620364 0.744437
0.188028 0.620364 0.744437
0.342480 0.620364 0.744437
0.496931 0.620364 0.744437
0.651383 0.620364 0.744437
0.805834 0.620364 0.744437
0.928617 0.593810 0.716930
1.000000 0.568750 0.691125
0.000000 0.767461 0.744437
0.033576 0.767461 0.744437
0.188028 0.767461 0.744437
0.342480 0.767461 0.744437
0.496931 0.767461 0.744437
0.651383 0.767461 0.744437
0.805834 0.767461 0.744437
0.928617 0.739103 0.716930
1.000000 0.712500 0.691125
0.000000 0.884397 0.735313
0.013266 0.884397 0.716930
0.165824 0.884397 0.716930
0.318383 0.884397 0.716930
0.470942 0.884397 0.716930
0.623500 0.884397 0.716930
0.776059 0.884397 0.716930
0.928617 0.884397 0.716930
1.000000 0.856250 0.691125
0.000000 1.000000 0.727500
0.000000 1.000000 0.692857
0.144375 1.000000 0.691125
0.295313 1.000000 0.691125
0.446250 1.000000 0.691125
0.597188 1.000000 0.691125
0.748125 1.000000 0.691125
0.899062 1.000000 0.691125
1.000000 1.000000 0.691125
0.000000 0.000000 0.857865
0.132660 0.000000 0.857865
0.265319 0.000000 0.857865
0.397979 0.000000 0.857865
0.530638 0.000000 0.857865
0.663298 0.000000 0.857865
0.795958 0.000000 0.857865
0.928617 0.000000 0.857865
1.000000 0.000000 0.848750
0.000000 0.126342 0.857865
0.013266 0.012634 0.857865
0.165824 0.012634 0.857865
0.318383 0.012634 0.857865
0.470942 0.012634 0.857865
0.623500 0.012634 0.857865
0.776059 0.012634 0.857865
0.928617 0.012634 0.857865
1.000000 0.000000 0.831429
0.000000 0.252685 0.857865
0.013266 0.157928 0.857865
0.165824 0.157928 0.857865
0.318383 0.157928 0.857865
0.470942 0.157928 0.857865
0.623500 0.157928 0.857865
0.776059 0.157928 0.857865
0.928617 0.157928 0.857865
1.000000 0.137500 0.830562
0.000000 0.379027 0.857865
0.013266 0.303222 0.857865
0.165824 0.303222 0.857865
0.318383 0.303222 0.857865
0.470942 0.303222 0.857865
0.623500 0.303222 0.857865
0.776059 0.303222 0.857865
0.928617 0.303222 0.857865
1.000000 0.281250 0.830562
0.000000 0.505370 0.857865
0.013266 0.448516 0.857865
0.165824 0.448516 0.857865
0.318383 0.448516 0.857865
0.470942 0.448516 0.857865
0.623500 0.448516 0.857865
0.776059 0.448516 0.857865
0.928617 0.448516 0.857865
1.000000 0.425000 0.830562
0.000000 0.631712 0.857865
0.013266 0.593810 0.857865
0.165824 0.593810 0.857865
0.318383 0.593810 0.857865
0.470942 0.593810 0.857865
0.623500 0.593810 0.857865
0.776059 0.593810 0.857865
0.928617 0.593810 0.857865
1.000000 0.568750 0.830563
0.000000 0.758055 0.857865
0.013266 0.739103 0.857865
0.165824 0.739103 0.857865
0.318383 0.739103 0.857865
0.470942 0.739103 0.857865
0.623500 0.739103 0.857865
0.776059 0.739103 0.857865
0.928617 0.739103 0.857865
1.000000 0.712500 0.830562
0.000000 0.884397 0.857865
0.013266 0.884397 0.857865
0.165824 0.884397 0.857865
0.318383 0.884397 0.857865
0.470942 0.884397 0.857865
0.623500 0.884397 0.857865
0.776059 0.884397 0.857865
0.928617 0.884397 0.857865
1.000000 0.856250 0.830562
0.000000 1.000000 0.848750
0.000000 1.000000 0.831429
0.144375 1.000000 0.830563
0.295313 1.000000 0.830562
0.446250 1.000000 0.830562
0.597188 1.000000 0.830562
0.748125 1.000000 0.830562
0.899062 1.000000 0.830562
1.000000 1.000000 0.830562
0.000000 0.000000 0.970000
0.131250 0.000000 0.970000
0.262500 0.000000 0.970000
0.393750 0.000000 0.970000
0.525000 0.000000 0.970000
0.656250 0.000000 0.970000
0.787500 0.000000 0.970000
0.918750 0.000000 0.970000
1.000000 0.000000 0.970000
0.000000 0.125000 0.970000
0.000000 0.000000 0.970000
0.150000 0.000000 0.970000
0.300000 0.000000 0.970000
0.450000 0.000000 0.970000
0.600000 0.000000 0.970000
0.750000 0.000000 0.970000
0.900000 0.000000 0.970000
1.000000 0.000000 0.970000
0.000000 0.250000 0.970000
0.000000 0.142857 0.970000
0.144375 0.137500 0.970000
0.295313 0.137500 0.970000
0.446250 0.137500 0.970000
0.597188 0.137500 0.970000
0.748125 0.137500 0.970000
0.899062 0.137500 0.970000
1.000000 0.137500 0.970000
0.000000 0.375000 0.970000
0.000000 0.285714 0.970000
0.144375 0.281250 0.970000
0.295313 0.281250 0.970000
0.446250 0.281250 0.970000
0.597188 0.281250 0.970000
0.748125 0.281250 0.970000
0.899062 0.281250 0.970000
1.000000 0.281250 0.970000
0.000000 0.500000 0.970000
0.000000 0.428571 0.970000
0.144375 0.425000 0.970000
0.295313 0.425000 0.970000
0.446250 0.425000 0.970000
0.597188 0.425000 0.970000
0.748125 0.425000 0.970000
0.899062 0.425000 0.970000
1.000000 0.425000 0.970000
0.000000 0.625000 0.970000
0.000000 0.571429 0.970000
0.144375 0.568750 0.970000
0.295313 0.568750 0.970000
0.446250 0.568750 0.970000
0.597188 0.568750 0.970000
0.748125 0.568750 0.970000
0.899063 0.568750 0.970000
1.000000 0.568750 0.970000
0.000000 0.750000 0.970000
0.000000 0.714286 0.970000
0.144375 0.712500 0.970000
0.295313 0.712500 0.970000
0.446250 0.712500 0.970000
0.597188 0.712500 0.970000
0.748125 0.712500 0.970000
0.899062 0.712500 0.970000
1.000000 0.712500 0.970000
0.000000 0.875000 0.970000
0.000000 0.857143 0.970000
0.144375 0.856250 0.970000
0.295313 0.856250 0.970000
0.446250 0.856250 0.970000
0.597188 0.856250 0.970000
0.748125 0.856250 0.970000
0.899062 0.856250 0.970000
1.000000 0.856250 0.970000
0.000000 1.000000 0.970000
0.000000 1.000000 0.970000
0.144375 1.000000 0.970000
0.295313 1.000000 0.970000
0.446250 1.000000 0.970000
0.597188 1.000000 0.970000
0.748125 1.000000 0.970000
0.899062 1.000000 0.970000
1.000000 1.000000 0.970000
